;FLAVOR:Marlin
;TIME:22441
;Filament used: 10.4059m
;Layer height: 0.12
;MINX:121
;MINY:121
;MINZ:0.12
;MAXX:179
;MAXY:179
;MAXZ:9.96
;TARGET_MACHINE.NAME:Creality CR-10
;Generated with Cura_SteamEngine 5.7.1
M140 S50
M105
M190 S50
M104 S200
M105
M109 S200
M82 ;absolute extrusion mode
M201 X500.00 Y500.00 Z100.00 E5000.00 ;Setup machine max acceleration
M203 X500.00 Y500.00 Z10.00 E50.00 ;Setup machine max feedrate
M204 P500.00 R1000.00 T500.00 ;Setup Print/Retract/Travel acceleration
M205 X8.00 Y8.00 Z0.40 E5.00 ;Setup Jerk
M220 S100 ;Reset Feedrate
M221 S100 ;Reset Flowrate

G28 ;Home

G92 E0 ;Reset Extruder
G1 Z2.0 F3000 ;Move Z Axis up
G1 X10.1 Y20 Z0.28 F5000.0 ;Move to start position
G1 X10.1 Y200.0 Z0.28 F1500.0 E15 ;Draw the first line
G1 X10.4 Y200.0 Z0.28 F5000.0 ;Move to side a little
G1 X10.4 Y20 Z0.28 F1500.0 E30 ;Draw the second line
G92 E0 ;Reset Extruder
G1 Z2.0 F3000 ;Move Z Axis up

G92 E0
G92 E0
G1 F2700 E-5
;LAYER_COUNT:83
;LAYER:0
M107
G0 F6000 X122.284 Y122.084 Z0.12
;TYPE:SKIRT
G1 F2700 E0
G1 F1200 X122.779 Y121.691 E0.01261
G1 X123.325 Y121.382 E0.02513
G1 X123.857 Y121.18 E0.03649
G1 X124.517 Y121.04 E0.04995
G1 X124.897 Y121.01 E0.05756
G1 X125.24 Y121.001 E0.06441
G1 X174.351 Y121 E1.04447
G1 X175.083 Y121.012 E1.05908
G1 X175.743 Y121.083 E1.07233
G1 X176.293 Y121.229 E1.08368
G1 X176.867 Y121.479 E1.09618
G1 X177.348 Y121.781 E1.10751
G1 X177.92 Y122.289 E1.12278
G1 X178.31 Y122.782 E1.13532
G1 X178.62 Y123.333 E1.14794
G1 X178.838 Y123.924 E1.16051
G1 X178.961 Y124.522 E1.17269
G1 X178.99 Y124.898 E1.18022
G1 X178.999 Y125.24 E1.18705
G1 X179 Y174.314 E2.16637
G1 X178.989 Y175.075 E2.18156
G1 X178.92 Y175.736 E2.19482
G1 X178.753 Y176.345 E2.20742
G1 X178.493 Y176.919 E2.22
G1 X178.145 Y177.448 E2.23264
G1 X177.719 Y177.914 E2.24524
G1 X177.225 Y178.307 E2.25783
G1 X176.674 Y178.618 E2.27046
G1 X176.084 Y178.836 E2.28301
G1 X175.487 Y178.96 E2.29518
G1 X175.103 Y178.99 E2.30287
G1 X174.76 Y178.999 E2.30971
G1 X125.656 Y179 E3.28964
G1 X124.924 Y178.989 E3.30425
G1 X124.262 Y178.919 E3.31753
G1 X123.653 Y178.752 E3.33013
G1 X123.078 Y178.491 E3.34273
G1 X122.551 Y178.144 E3.35533
G1 X122.085 Y177.717 E3.36794
G1 X121.692 Y177.222 E3.38055
G1 X121.382 Y176.673 E3.39313
G1 X121.163 Y176.081 E3.40573
G1 X121.04 Y175.485 E3.41787
G1 X121.01 Y175.098 E3.42562
G1 X121.001 Y174.744 E3.43269
G1 X121 Y125.621 E4.41299
G1 X121.011 Y124.921 E4.42696
G1 X121.082 Y124.259 E4.44025
G1 X121.249 Y123.652 E4.45281
G1 X121.509 Y123.077 E4.4654
G1 X121.858 Y122.549 E4.47804
G1 X122.284 Y122.084 E4.49062
G0 F6000 X122.535 Y122.395
G1 F1200 X122.978 Y122.038 E4.50197
G1 X123.471 Y121.755 E4.51332
G1 X123.942 Y121.571 E4.52341
G1 X124.549 Y121.439 E4.53581
G1 X124.908 Y121.41 E4.54299
G1 X125.24 Y121.401 E4.54962
G1 X174.345 Y121.4 E5.52956
G1 X175.043 Y121.41 E5.5435
G1 X175.64 Y121.47 E5.55547
G1 X176.19 Y121.616 E5.56683
G1 X176.654 Y121.818 E5.57692
G1 X177.135 Y122.12 E5.58826
G1 X177.608 Y122.539 E5.60087
G1 X177.963 Y122.981 E5.61218
G1 X178.246 Y123.475 E5.62354
G1 X178.447 Y124.006 E5.63487
G1 X178.562 Y124.553 E5.64603
G1 X178.59 Y124.909 E5.65315
G1 X178.599 Y125.24 E5.65976
G1 X178.6 Y174.309 E6.63899
G1 X178.591 Y175.036 E6.6535
G1 X178.533 Y175.633 E6.66547
G1 X178.387 Y176.183 E6.67682
G1 X178.157 Y176.702 E6.68815
G1 X177.848 Y177.18 E6.69951
G1 X177.467 Y177.603 E6.71087
G1 X177.026 Y177.96 E6.72219
G1 X176.532 Y178.244 E6.73356
G1 X176.001 Y178.445 E6.7449
G1 X175.455 Y178.561 E6.75603
G1 X175.092 Y178.59 E6.7633
G1 X174.76 Y178.599 E6.76993
G1 X125.661 Y178.6 E7.74975
G1 X124.963 Y178.591 E7.76368
G1 X124.365 Y178.532 E7.77568
G1 X123.815 Y178.386 E7.78703
G1 X123.295 Y178.155 E7.79839
G1 X122.819 Y177.847 E7.8097
G1 X122.396 Y177.466 E7.82106
G1 X122.039 Y177.023 E7.83241
G1 X121.756 Y176.531 E7.84374
G1 X121.554 Y175.999 E7.8551
G1 X121.439 Y175.453 E7.86623
G1 X121.41 Y175.088 E7.87354
G1 X121.401 Y174.744 E7.88041
G1 X121.4 Y125.626 E8.86061
G1 X121.409 Y124.961 E8.87388
G1 X121.469 Y124.362 E8.8859
G1 X121.615 Y123.814 E8.89721
G1 X121.845 Y123.295 E8.90854
G1 X122.155 Y122.817 E8.91991
G1 X122.535 Y122.395 E8.93124
G0 F6000 X122.789 Y122.704
G1 F1200 X123.18 Y122.383 E8.94134
G1 X123.617 Y122.128 E8.95144
G1 X124.088 Y121.944 E8.96153
G1 X124.582 Y121.838 E8.97161
G1 X124.919 Y121.81 E8.97836
G1 X125.24 Y121.801 E8.98477
G1 X174.339 Y121.8 E9.96459
G1 X175.037 Y121.81 E9.97852
G1 X175.54 Y121.857 E9.9886
G1 X176.03 Y121.983 E9.9987
G1 X176.494 Y122.185 E10.0088
G1 X176.92 Y122.457 E10.01888
G1 X177.298 Y122.792 E10.02896
G1 X177.618 Y123.183 E10.03905
G1 X177.873 Y123.62 E10.04914
G1 X178.056 Y124.091 E10.05923
G1 X178.163 Y124.585 E10.06931
G1 X178.19 Y124.92 E10.07602
G1 X178.199 Y125.24 E10.08241
G1 X178.2 Y174.304 E11.06154
G1 X178.191 Y175.031 E11.07604
G1 X178.145 Y175.534 E11.08612
G1 X178.02 Y176.024 E11.09622
G1 X177.819 Y176.488 E11.10631
G1 X177.548 Y176.915 E11.1164
G1 X177.213 Y177.294 E11.12649
G1 X176.823 Y177.615 E11.13657
G1 X176.387 Y177.871 E11.14666
G1 X175.916 Y178.054 E11.15675
G1 X175.422 Y178.162 E11.16684
G1 X175.081 Y178.19 E11.17367
G1 X174.76 Y178.199 E11.18008
G1 X125.666 Y178.2 E12.1598
G1 X124.968 Y178.191 E12.17373
G1 X124.464 Y178.144 E12.18383
G1 X123.974 Y178.019 E12.19392
G1 X123.51 Y177.818 E12.20401
G1 X123.084 Y177.547 E12.21409
G1 X122.705 Y177.212 E12.22418
G1 X122.384 Y176.821 E12.23428
G1 X122.129 Y176.385 E12.24436
G1 X121.945 Y175.914 E12.25445
G1 X121.838 Y175.42 E12.26454
G1 X121.81 Y175.077 E12.2714
G1 X121.801 Y174.744 E12.27805
G1 X121.8 Y125.631 E13.25816
G1 X121.809 Y124.966 E13.27143
G1 X121.856 Y124.462 E13.28153
G1 X121.982 Y123.973 E13.29161
G1 X122.183 Y123.509 E13.3017
G1 X122.454 Y123.082 E13.31179
G1 X122.789 Y122.704 E13.32187
G1 F2700 E8.32187
;MESH:Body1.stl
G0 F6000 X126.2 Y124.335
G0 X126.2 Y126.2
G0 X173.828 Y126.172
G0 X174 Y174
;TYPE:WALL-INNER
G1 F2700 E13.32187
G1 F1200 X174 Y126 E14.27976
G1 X126 Y126 E15.23765
G1 X126 Y174 E16.19555
G1 X174 Y174 E17.15344
G0 F6000 X174.4 Y174.4
G1 F1200 X174.4 Y125.6 E18.12729
G1 X125.6 Y125.6 E19.10115
G1 X125.6 Y174.4 E20.07501
G1 X174.4 Y174.4 E21.04886
G0 F6000 X174.8 Y174.8
;TYPE:WALL-OUTER
G1 F1200 X174.8 Y125.2 E22.03869
G1 X125.2 Y125.2 E23.02851
G1 X125.2 Y174.8 E24.01833
G1 X174.8 Y174.8 E25.00815
G0 F6000 X174.53 Y174.53
G0 X173.9 Y173.64
G0 X173.64 Y173.64
;TYPE:SKIN
G1 F1200 X126.36 Y173.64 E25.95167
G1 X126.36 Y126.36 E26.8952
G1 X173.64 Y126.36 E27.83872
G1 X173.64 Y173.64 E28.78224
G1 F2700 E23.78224
G0 F6000 X173.9 Y173.64
G0 X173.828 Y126.172
G0 X172.946 Y126.1
G0 X172.946 Y126.56
G1 F2700 E28.78224
G1 F1200 X173.44 Y127.054 E28.79619
G0 F6000 X173.44 Y127.619
G1 F1200 X172.381 Y126.56 E28.82607
G0 F6000 X171.815 Y126.56
G1 F1200 X173.44 Y128.185 E28.87193
G0 F6000 X173.44 Y128.751
G1 F1200 X171.249 Y126.56 E28.93377
G0 F6000 X170.684 Y126.56
G1 F1200 X173.44 Y129.316 E29.01155
G0 F6000 X173.44 Y129.882
G1 F1200 X170.118 Y126.56 E29.1053
G0 F6000 X169.552 Y126.56
G1 F1200 X173.44 Y130.448 E29.21503
G0 F6000 X173.44 Y131.013
G1 F1200 X168.986 Y126.56 E29.34072
G0 F6000 X168.421 Y126.56
G1 F1200 X173.44 Y131.579 E29.48237
G0 F6000 X173.44 Y132.145
G1 F1200 X167.855 Y126.56 E29.63999
G0 F6000 X167.289 Y126.56
G1 F1200 X173.44 Y132.711 E29.81358
G0 F6000 X173.44 Y133.276
G1 F1200 X166.724 Y126.56 E30.00312
G0 F6000 X166.158 Y126.56
G1 F1200 X173.44 Y133.842 E30.20864
G0 F6000 X173.44 Y134.408
G1 F1200 X165.592 Y126.56 E30.43012
G0 F6000 X165.027 Y126.56
G1 F1200 X173.44 Y134.973 E30.66756
G0 F6000 X173.44 Y135.539
G1 F1200 X164.461 Y126.56 E30.92096
G0 F6000 X163.895 Y126.56
G1 F1200 X173.44 Y136.105 E31.19034
G0 F6000 X173.44 Y136.67
G1 F1200 X163.33 Y126.56 E31.47567
G0 F6000 X162.764 Y126.56
G1 F1200 X173.44 Y137.236 E31.77697
G0 F6000 X173.44 Y137.802
G1 F1200 X162.198 Y126.56 E32.09424
G0 F6000 X161.633 Y126.56
G1 F1200 X173.44 Y138.367 E32.42746
G0 F6000 X173.44 Y138.933
G1 F1200 X161.067 Y126.56 E32.77665
G0 F6000 X160.501 Y126.56
G1 F1200 X173.44 Y139.499 E33.14182
G0 F6000 X173.44 Y140.064
G1 F1200 X159.936 Y126.56 E33.52293
G0 F6000 X159.37 Y126.56
G1 F1200 X173.44 Y140.63 E33.92002
G0 F6000 X173.44 Y141.196
G1 F1200 X158.804 Y126.56 E34.33308
G0 F6000 X158.238 Y126.56
G1 F1200 X173.44 Y141.761 E34.7621
G0 F6000 X173.44 Y142.327
G1 F1200 X157.673 Y126.56 E35.20708
G0 F6000 X157.107 Y126.56
G1 F1200 X173.44 Y142.893 E35.66803
G0 F6000 X173.44 Y143.459
G1 F1200 X156.541 Y126.56 E36.14495
G0 F6000 X155.976 Y126.56
G1 F1200 X173.44 Y144.024 E36.63783
G0 F6000 X173.44 Y144.59
G1 F1200 X155.41 Y126.56 E37.14667
G0 F6000 X154.844 Y126.56
G1 F1200 X173.44 Y145.156 E37.67149
G0 F6000 X173.44 Y145.721
G1 F1200 X154.279 Y126.56 E38.21226
G0 F6000 X153.713 Y126.56
G1 F1200 X173.44 Y146.287 E38.76899
G0 F6000 X173.44 Y146.853
G1 F1200 X153.147 Y126.56 E39.34171
G0 F6000 X152.582 Y126.56
G1 F1200 X173.44 Y147.418 E39.93036
G0 F6000 X173.44 Y147.984
G1 F1200 X152.016 Y126.56 E40.535
G0 F6000 X151.45 Y126.56
G1 F1200 X173.44 Y148.55 E41.1556
G0 F6000 X173.44 Y149.115
G1 F1200 X150.885 Y126.56 E41.79215
G0 F6000 X150.319 Y126.56
G1 F1200 X173.44 Y149.681 E42.44468
G0 F6000 X173.44 Y150.247
G1 F1200 X149.753 Y126.56 E43.11318
G0 F6000 X149.188 Y126.56
G1 F1200 X173.44 Y150.812 E43.79762
G0 F6000 X173.44 Y151.378
G1 F1200 X148.622 Y126.56 E44.49804
G0 F6000 X148.056 Y126.56
G1 F1200 X173.44 Y151.944 E45.21443
G0 F6000 X173.44 Y152.509
G1 F1200 X147.49 Y126.56 E45.94678
G0 F6000 X146.925 Y126.56
G1 F1200 X173.44 Y153.075 E46.69509
G0 F6000 X173.44 Y153.641
G1 F1200 X146.359 Y126.56 E47.45937
G0 F6000 X145.793 Y126.56
G1 F1200 X173.44 Y154.207 E48.23963
G0 F6000 X173.44 Y154.772
G1 F1200 X145.228 Y126.56 E49.03584
G0 F6000 X144.662 Y126.56
G1 F1200 X173.44 Y155.338 E49.84801
G0 F6000 X173.44 Y155.904
G1 F1200 X144.096 Y126.56 E50.67616
G0 F6000 X143.531 Y126.56
G1 F1200 X173.44 Y156.469 E51.52026
G0 F6000 X173.44 Y157.035
G1 F1200 X142.965 Y126.56 E52.38033
G0 F6000 X142.399 Y126.56
G1 F1200 X173.44 Y157.601 E53.25638
G0 F6000 X173.44 Y158.166
G1 F1200 X141.834 Y126.56 E54.14836
G0 F6000 X141.268 Y126.56
G1 F1200 X173.44 Y158.732 E55.05633
G0 F6000 X173.44 Y159.298
G1 F1200 X140.702 Y126.56 E55.98027
G0 F6000 X140.137 Y126.56
G1 F1200 X173.44 Y159.863 E56.92015
G0 F6000 X173.44 Y160.429
G1 F1200 X139.571 Y126.56 E57.876
G0 F6000 X139.005 Y126.56
G1 F1200 X173.44 Y160.995 E58.84783
G0 F6000 X173.44 Y161.56
G1 F1200 X138.439 Y126.56 E59.83562
G0 F6000 X137.874 Y126.56
G1 F1200 X173.44 Y162.126 E60.83937
G0 F6000 X173.44 Y162.692
G1 F1200 X137.308 Y126.56 E61.8591
G0 F6000 X136.742 Y126.56
G1 F1200 X173.44 Y163.258 E62.89479
G0 F6000 X173.44 Y163.823
G1 F1200 X136.177 Y126.56 E63.94644
G0 F6000 X135.611 Y126.56
G1 F1200 X173.44 Y164.389 E65.01405
G0 F6000 X173.44 Y164.955
G1 F1200 X135.045 Y126.56 E66.09764
G0 F6000 X134.48 Y126.56
G1 F1200 X173.44 Y165.52 E67.19718
G0 F6000 X173.44 Y166.086
G1 F1200 X133.914 Y126.56 E68.31269
G0 F6000 X133.348 Y126.56
G1 F1200 X173.44 Y166.652 E69.44417
G0 F6000 X173.44 Y167.217
G1 F1200 X132.783 Y126.56 E70.5916
G0 F6000 X132.217 Y126.56
G1 F1200 X173.44 Y167.783 E71.755
G0 F6000 X173.44 Y168.349
G1 F1200 X131.651 Y126.56 E72.93438
G0 F6000 X131.086 Y126.56
G1 F1200 X173.44 Y168.914 E74.1297
G0 F6000 X173.44 Y169.48
G1 F1200 X130.52 Y126.56 E75.34099
G0 F6000 X129.954 Y126.56
G1 F1200 X173.44 Y170.046 E76.56826
G0 F6000 X173.44 Y170.611
G1 F1200 X129.389 Y126.56 E77.81148
G0 F6000 X128.823 Y126.56
G1 F1200 X173.44 Y171.177 E79.07066
G0 F6000 X173.44 Y171.743
G1 F1200 X128.257 Y126.56 E80.34583
G0 F6000 X127.691 Y126.56
G1 F1200 X173.44 Y172.308 E81.63695
G0 F6000 X173.44 Y172.874
G1 F1200 X127.126 Y126.56 E82.94403
G0 F6000 X126.56 Y126.56
G1 F1200 X173.44 Y173.44 E84.26708
G0 F6000 X172.874 Y173.44
G1 F1200 X126.56 Y127.126 E85.57416
G0 F6000 X126.56 Y127.691
G1 F1200 X172.308 Y173.44 E86.86529
G0 F6000 X171.743 Y173.44
G1 F1200 X126.56 Y128.257 E88.14045
G0 F6000 X126.56 Y128.823
G1 F1200 X171.177 Y173.44 E89.39964
G0 F6000 X170.611 Y173.44
G1 F1200 X126.56 Y129.389 E90.64285
G0 F6000 X126.56 Y129.954
G1 F1200 X170.046 Y173.44 E91.87012
G0 F6000 X169.48 Y173.44
G1 F1200 X126.56 Y130.52 E93.08141
G0 F6000 X126.56 Y131.086
G1 F1200 X168.914 Y173.44 E94.27674
G0 F6000 X168.349 Y173.44
G1 F1200 X126.56 Y131.651 E95.45611
G0 F6000 X126.56 Y132.217
G1 F1200 X167.783 Y173.44 E96.61951
G0 F6000 X167.217 Y173.44
G1 F1200 X126.56 Y132.783 E97.76694
G0 F6000 X126.56 Y133.348
G1 F1200 X166.652 Y173.44 E98.89842
G0 F6000 X166.086 Y173.44
G1 F1200 X126.56 Y133.914 E100.01393
G0 F6000 X126.56 Y134.48
G1 F1200 X165.52 Y173.44 E101.11347
G0 F6000 X164.955 Y173.44
G1 F1200 X126.56 Y135.045 E102.19706
G0 F6000 X126.56 Y135.611
G1 F1200 X164.389 Y173.44 E103.26467
G0 F6000 X163.823 Y173.44
G1 F1200 X126.56 Y136.177 E104.31632
G0 F6000 X126.56 Y136.742
G1 F1200 X163.258 Y173.44 E105.35201
G0 F6000 X162.692 Y173.44
G1 F1200 X126.56 Y137.308 E106.37174
G0 F6000 X126.56 Y137.874
G1 F1200 X162.126 Y173.44 E107.37549
G0 F6000 X161.56 Y173.44
G1 F1200 X126.56 Y138.439 E108.36328
G0 F6000 X126.56 Y139.005
G1 F1200 X160.995 Y173.44 E109.33511
G0 F6000 X160.429 Y173.44
G1 F1200 X126.56 Y139.571 E110.29096
G0 F6000 X126.56 Y140.137
G1 F1200 X159.863 Y173.44 E111.23085
G0 F6000 X159.298 Y173.44
G1 F1200 X126.56 Y140.702 E112.15478
G0 F6000 X126.56 Y141.268
G1 F1200 X158.732 Y173.44 E113.06275
G0 F6000 X158.166 Y173.44
G1 F1200 X126.56 Y141.834 E113.95474
G0 F6000 X126.56 Y142.399
G1 F1200 X157.601 Y173.44 E114.83078
G0 F6000 X157.035 Y173.44
G1 F1200 X126.56 Y142.965 E115.69085
G0 F6000 X126.56 Y143.531
G1 F1200 X156.469 Y173.44 E116.53495
G0 F6000 X155.904 Y173.44
G1 F1200 X126.56 Y144.096 E117.3631
G0 F6000 X126.56 Y144.662
G1 F1200 X155.338 Y173.44 E118.17527
G0 F6000 X154.772 Y173.44
G1 F1200 X126.56 Y145.228 E118.97148
G0 F6000 X126.56 Y145.793
G1 F1200 X154.207 Y173.44 E119.75174
G0 F6000 X153.641 Y173.44
G1 F1200 X126.56 Y146.359 E120.51602
G0 F6000 X126.56 Y146.925
G1 F1200 X153.075 Y173.44 E121.26433
G0 F6000 X152.509 Y173.44
G1 F1200 X126.56 Y147.49 E121.99668
G0 F6000 X126.56 Y148.056
G1 F1200 X151.944 Y173.44 E122.71307
G0 F6000 X151.378 Y173.44
G1 F1200 X126.56 Y148.622 E123.41349
G0 F6000 X126.56 Y149.188
G1 F1200 X150.812 Y173.44 E124.09793
G0 F6000 X150.247 Y173.44
G1 F1200 X126.56 Y149.753 E124.76643
G0 F6000 X126.56 Y150.319
G1 F1200 X149.681 Y173.44 E125.41896
G0 F6000 X149.115 Y173.44
G1 F1200 X126.56 Y150.885 E126.05551
G0 F6000 X126.56 Y151.45
G1 F1200 X148.55 Y173.44 E126.67611
G0 F6000 X147.984 Y173.44
G1 F1200 X126.56 Y152.016 E127.28075
G0 F6000 X126.56 Y152.582
G1 F1200 X147.418 Y173.44 E127.8694
G0 F6000 X146.853 Y173.44
G1 F1200 X126.56 Y153.147 E128.44212
G0 F6000 X126.56 Y153.713
G1 F1200 X146.287 Y173.44 E128.99885
G0 F6000 X145.721 Y173.44
G1 F1200 X126.56 Y154.279 E129.53962
G0 F6000 X126.56 Y154.844
G1 F1200 X145.156 Y173.44 E130.06444
G0 F6000 X144.59 Y173.44
G1 F1200 X126.56 Y155.41 E130.57328
G0 F6000 X126.56 Y155.976
G1 F1200 X144.024 Y173.44 E131.06616
G0 F6000 X143.459 Y173.44
G1 F1200 X126.56 Y156.541 E131.54308
G0 F6000 X126.56 Y157.107
G1 F1200 X142.893 Y173.44 E132.00403
G0 F6000 X142.327 Y173.44
G1 F1200 X126.56 Y157.673 E132.44901
G0 F6000 X126.56 Y158.238
G1 F1200 X141.761 Y173.44 E132.87803
G0 F6000 X141.196 Y173.44
G1 F1200 X126.56 Y158.804 E133.29109
G0 F6000 X126.56 Y159.37
G1 F1200 X140.63 Y173.44 E133.68818
G0 F6000 X140.064 Y173.44
G1 F1200 X126.56 Y159.936 E134.06929
G0 F6000 X126.56 Y160.501
G1 F1200 X139.499 Y173.44 E134.43446
G0 F6000 X138.933 Y173.44
G1 F1200 X126.56 Y161.067 E134.78365
G0 F6000 X126.56 Y161.633
G1 F1200 X138.367 Y173.44 E135.11687
G0 F6000 X137.802 Y173.44
G1 F1200 X126.56 Y162.198 E135.43414
G0 F6000 X126.56 Y162.764
G1 F1200 X137.236 Y173.44 E135.73544
G0 F6000 X136.67 Y173.44
G1 F1200 X126.56 Y163.33 E136.02077
G0 F6000 X126.56 Y163.895
G1 F1200 X136.105 Y173.44 E136.29015
G0 F6000 X135.539 Y173.44
G1 F1200 X126.56 Y164.461 E136.54355
G0 F6000 X126.56 Y165.027
G1 F1200 X134.973 Y173.44 E136.78099
G0 F6000 X134.408 Y173.44
G1 F1200 X126.56 Y165.592 E137.00248
