;FLAVOR:Marlin
;TIME:189
;Filament used: 0.21288m
;Layer height: 0.3
;MINX:145.4
;MINY:145.4
;MINZ:0.32
;MAXX:154.6
;MAXY:154.6
;MAXZ:5.52
;TARGET_MACHINE.NAME:Creality CR-10
;Generated with Cura_SteamEngine 5.7.1
M140 S50
M105
M190 S50
M104 S200
M105
M109 S200
M82 ;absolute extrusion mode
M201 X500.00 Y500.00 Z100.00 E5000.00 ;Setup machine max acceleration
M203 X500.00 Y500.00 Z10.00 E50.00 ;Setup machine max feedrate
M204 P500.00 R1000.00 T500.00 ;Setup Print/Retract/Travel acceleration
M205 X8.00 Y8.00 Z0.40 E5.00 ;Setup Jerk
M220 S100 ;Reset Feedrate
M221 S100 ;Reset Flowrate

G28 ;Home

G92 E0 ;Reset Extruder
G1 Z2.0 F3000 ;Move Z Axis up
G1 X10.1 Y20 Z0.28 F5000.0 ;Move to start position
G1 X10.1 Y200.0 Z0.28 F1500.0 E15 ;Draw the first line
G1 X10.4 Y200.0 Z0.28 F5000.0 ;Move to side a little
G1 X10.4 Y20 Z0.28 F1500.0 E30 ;Draw the second line
G92 E0 ;Reset Extruder
G1 Z2.0 F3000 ;Move Z Axis up

G92 E0
G92 E0
G1 F2700 E-0.001
;LAYER_COUNT:17
;LAYER:0
M107
G1 F300 Z0.72
;MESH:cube v3.stl
G0 F6000 X150.45 Y150.45 Z0.72
;TYPE:WALL-INNER
G1 F300 Z0.32
G1 F2700 E0
G1 F843.9 X150.45 Y149.55 E0.10716
G1 X149.55 Y149.55 E0.21433
G1 X149.55 Y150.45 E0.32149
G1 X150.45 Y150.45 E0.42866
G0 F6000 X151.334 Y151.334
G1 F865.2 X151.334 Y148.666 E0.73853
G1 X148.666 Y148.666 E1.0484
G1 X148.666 Y151.334 E1.35828
G1 X151.334 Y151.334 E1.66815
G0 F6000 X152.185 Y152.185
G1 F910 X152.185 Y147.815 E2.1507
G1 X147.815 Y147.815 E2.63325
G1 X147.815 Y152.185 E3.1158
G1 X152.185 Y152.185 E3.59835
G0 F6000 X153 Y153
G1 F944.1 X153 Y147 E4.23695
G1 X147 Y147 E4.87554
G1 X147 Y153 E5.51414
G1 X153 Y153 E6.15273
G0 F6000 X153.8 Y153.8
G1 F944.1 X153.8 Y146.2 E6.96162
G1 X146.2 Y146.2 E7.77051
G1 X146.2 Y153.8 E8.57939
G1 X153.8 Y153.8 E9.38828
G0 F6000 X154.6 Y154.6
;TYPE:WALL-OUTER
G1 F944.1 X154.6 Y145.4 E10.36746
G1 X145.4 Y145.4 E11.34664
G1 X145.4 Y154.6 E12.32581
G1 X154.6 Y154.6 E13.30499
G1 F2700 E13.30399
G1 F300 Z0.72
;MESH:NONMESH
G0 F6000 X150.45 Y150.45 Z0.72
;TIME_ELAPSED:13.302610
;LAYER:1
M106 S127.5
;MESH:cube v3.stl
G0 F7500 X150.45 Y150.45 Z1.02
;TYPE:WALL-INNER
G1 F300 Z0.62
G1 F2700 E13.30499
G1 F665.7 X150.45 Y149.55 E13.40546
G1 X149.55 Y149.55 E13.50593
G1 X149.55 Y150.45 E13.60639
G1 X150.45 Y150.45 E13.70686
G0 F7500 X151.334 Y151.334
G1 F682.4 X151.334 Y148.666 E13.99736
G1 X148.666 Y148.666 E14.28787
G1 X148.666 Y151.334 E14.57838
G1 X151.334 Y151.334 E14.86888
G0 F7500 X152.185 Y152.185
G1 F717.8 X152.185 Y147.815 E15.32127
G1 X147.815 Y147.815 E15.77367
G1 X147.815 Y152.185 E16.22606
G1 X152.185 Y152.185 E16.67845
G0 F7500 X153 Y153
G1 F744.7 X153 Y147 E17.27713
G1 X147 Y147 E17.87582
G1 X147 Y153 E18.4745
G1 X153 Y153 E19.07318
G0 F7500 X153.8 Y153.8
G1 F744.7 X153.8 Y146.2 E19.83151
G1 X146.2 Y146.2 E20.58984
G1 X146.2 Y153.8 E21.34817
G1 X153.8 Y153.8 E22.1065
G0 F7500 X154.6 Y154.6
;TYPE:WALL-OUTER
G1 F744.7 X154.6 Y145.4 E23.02448
G1 X145.4 Y145.4 E23.94246
G1 X145.4 Y154.6 E24.86044
G1 X154.6 Y154.6 E25.77842
G1 F2700 E25.77742
G1 F300 Z1.02
;MESH:NONMESH
G0 F7500 X150.45 Y150.45 Z1.02
;TIME_ELAPSED:24.338736
;LAYER:2
M106 S255
;MESH:cube v3.stl
G0 F9000 X150.45 Y150.45 Z1.32
;TYPE:WALL-INNER
G1 F300 Z0.92
G1 F2700 E25.77842
G1 F664.6 X150.45 Y149.55 E25.87889
G1 X149.55 Y149.55 E25.97936
G1 X149.55 Y150.45 E26.07982
G1 X150.45 Y150.45 E26.18029
G0 F9000 X151.334 Y151.334
G1 F681.4 X151.334 Y148.666 E26.4708
G1 X148.666 Y148.666 E26.7613
G1 X148.666 Y151.334 E27.05181
G1 X151.334 Y151.334 E27.34231
G0 F9000 X152.185 Y152.185
G1 F716.7 X152.185 Y147.815 E27.79471
G1 X147.815 Y147.815 E28.2471
G1 X147.815 Y152.185 E28.69949
G1 X152.185 Y152.185 E29.15188
G0 F9000 X153 Y153
G1 F743.5 X153 Y147 E29.75056
G1 X147 Y147 E30.34925
G1 X147 Y153 E30.94793
G1 X153 Y153 E31.54661
G0 F9000 X153.8 Y153.8
G1 F743.5 X153.8 Y146.2 E32.30494
G1 X146.2 Y146.2 E33.06327
G1 X146.2 Y153.8 E33.8216
G1 X153.8 Y153.8 E34.57994
G0 F9000 X154.6 Y154.6
;TYPE:WALL-OUTER
G1 F743.5 X154.6 Y145.4 E35.49791
G1 X145.4 Y145.4 E36.41589
G1 X145.4 Y154.6 E37.33387
G1 X154.6 Y154.6 E38.25185
G1 F2700 E38.25085
G1 F300 Z1.32
;MESH:NONMESH
G0 F9000 X150.45 Y150.45 Z1.32
;TIME_ELAPSED:35.393727
;LAYER:3
;MESH:cube v3.stl
G0 X150.45 Y150.45 Z1.62
;TYPE:WALL-INNER
G1 F300 Z1.22
G1 F2700 E38.25185
G1 F664.6 X150.45 Y149.55 E38.35232
G1 X149.55 Y149.55 E38.45279
G1 X149.55 Y150.45 E38.55325
G1 X150.45 Y150.45 E38.65372
G0 F9000 X151.334 Y151.334
G1 F681.4 X151.334 Y148.666 E38.94423
G1 X148.666 Y148.666 E39.23473
G1 X148.666 Y151.334 E39.52524
G1 X151.334 Y151.334 E39.81574
G0 F9000 X152.185 Y152.185
G1 F716.7 X152.185 Y147.815 E40.26814
G1 X147.815 Y147.815 E40.72053
G1 X147.815 Y152.185 E41.17292
G1 X152.185 Y152.185 E41.62531
G0 F9000 X153 Y153
G1 F743.5 X153 Y147 E42.22399
G1 X147 Y147 E42.82268
G1 X147 Y153 E43.42136
G1 X153 Y153 E44.02004
G0 F9000 X153.8 Y153.8
G1 F743.5 X153.8 Y146.2 E44.77837
G1 X146.2 Y146.2 E45.5367
G1 X146.2 Y153.8 E46.29503
G1 X153.8 Y153.8 E47.05337
G0 F9000 X154.6 Y154.6
;TYPE:WALL-OUTER
G1 F743.5 X154.6 Y145.4 E47.97135
G1 X145.4 Y145.4 E48.88933
G1 X145.4 Y154.6 E49.80731
G1 X154.6 Y154.6 E50.72528
G1 F2700 E50.72428
G1 F300 Z1.62
;MESH:NONMESH
G0 F9000 X150.45 Y150.45 Z1.62
;TIME_ELAPSED:46.448718
;LAYER:4
;MESH:cube v3.stl
G0 X150.45 Y150.45 Z1.92
;TYPE:WALL-INNER
G1 F300 Z1.52
G1 F2700 E50.72528
G1 F664.6 X150.45 Y149.55 E50.82575
G1 X149.55 Y149.55 E50.92622
G1 X149.55 Y150.45 E51.02668
G1 X150.45 Y150.45 E51.12715
G0 F9000 X151.334 Y151.334
G1 F681.4 X151.334 Y148.666 E51.41766
G1 X148.666 Y148.666 E51.70816
G1 X148.666 Y151.334 E51.99867
G1 X151.334 Y151.334 E52.28918
G0 F9000 X152.185 Y152.185
G1 F716.7 X152.185 Y147.815 E52.74157
G1 X147.815 Y147.815 E53.19396
G1 X147.815 Y152.185 E53.64635
G1 X152.185 Y152.185 E54.09874
G0 F9000 X153 Y153
G1 F743.5 X153 Y147 E54.69743
G1 X147 Y147 E55.29611
G1 X147 Y153 E55.89479
G1 X153 Y153 E56.49347
G0 F9000 X153.8 Y153.8
G1 F743.5 X153.8 Y146.2 E57.2518
G1 X146.2 Y146.2 E58.01013
G1 X146.2 Y153.8 E58.76847
G1 X153.8 Y153.8 E59.5268
G0 F9000 X154.6 Y154.6
;TYPE:WALL-OUTER
G1 F743.5 X154.6 Y145.4 E60.44478
G1 X145.4 Y145.4 E61.36276
G1 X145.4 Y154.6 E62.28074
G1 X154.6 Y154.6 E63.19872
G1 F2700 E63.19772
G1 F300 Z1.92
;MESH:NONMESH
G0 F9000 X150.45 Y150.45 Z1.92
;TIME_ELAPSED:57.503708
;LAYER:5
;MESH:cube v3.stl
G0 X150.45 Y150.45 Z2.22
;TYPE:WALL-INNER
G1 F300 Z1.82
G1 F2700 E63.19872
G1 F664.6 X150.45 Y149.55 E63.29918
G1 X149.55 Y149.55 E63.39965
G1 X149.55 Y150.45 E63.50011
G1 X150.45 Y150.45 E63.60058
G0 F9000 X151.334 Y151.334
G1 F681.4 X151.334 Y148.666 E63.89109
G1 X148.666 Y148.666 E64.18159
G1 X148.666 Y151.334 E64.4721
G1 X151.334 Y151.334 E64.76261
G0 F9000 X152.185 Y152.185
G1 F716.7 X152.185 Y147.815 E65.215
G1 X147.815 Y147.815 E65.66739
G1 X147.815 Y152.185 E66.11978
G1 X152.185 Y152.185 E66.57217
G0 F9000 X153 Y153
G1 F743.5 X153 Y147 E67.17086
G1 X147 Y147 E67.76954
G1 X147 Y153 E68.36822
G1 X153 Y153 E68.9669
G0 F9000 X153.8 Y153.8
G1 F743.5 X153.8 Y146.2 E69.72523
G1 X146.2 Y146.2 E70.48357
G1 X146.2 Y153.8 E71.2419
G1 X153.8 Y153.8 E72.00023
G0 F9000 X154.6 Y154.6
;TYPE:WALL-OUTER
G1 F743.5 X154.6 Y145.4 E72.91821
G1 X145.4 Y145.4 E73.83619
G1 X145.4 Y154.6 E74.75417
G1 X154.6 Y154.6 E75.67215
G1 F2700 E75.67115
G1 F300 Z2.22
;MESH:NONMESH
G0 F9000 X150.45 Y150.45 Z2.22
;TIME_ELAPSED:68.558699
;LAYER:6
;MESH:cube v3.stl
G0 X150.45 Y150.45 Z2.52
;TYPE:WALL-INNER
G1 F300 Z2.12
G1 F2700 E75.67215
G1 F664.6 X150.45 Y149.55 E75.77261
G1 X149.55 Y149.55 E75.87308
G1 X149.55 Y150.45 E75.97355
G1 X150.45 Y150.45 E76.07401
G0 F9000 X151.334 Y151.334
G1 F681.4 X151.334 Y148.666 E76.36452
G1 X148.666 Y148.666 E76.65502
G1 X148.666 Y151.334 E76.94553
G1 X151.334 Y151.334 E77.23604
G0 F9000 X152.185 Y152.185
G1 F716.7 X152.185 Y147.815 E77.68843
G1 X147.815 Y147.815 E78.14082
G1 X147.815 Y152.185 E78.59321
G1 X152.185 Y152.185 E79.0456
G0 F9000 X153 Y153
G1 F743.5 X153 Y147 E79.64429
G1 X147 Y147 E80.24297
G1 X147 Y153 E80.84165
G1 X153 Y153 E81.44033
G0 F9000 X153.8 Y153.8
G1 F743.5 X153.8 Y146.2 E82.19866
G1 X146.2 Y146.2 E82.957
G1 X146.2 Y153.8 E83.71533
G1 X153.8 Y153.8 E84.47366
G0 F9000 X154.6 Y154.6
;TYPE:WALL-OUTER
G1 F743.5 X154.6 Y145.4 E85.39164
G1 X145.4 Y145.4 E86.30962
G1 X145.4 Y154.6 E87.2276
G1 X154.6 Y154.6 E88.14558
G1 F2700 E88.14458
G1 F300 Z2.52
;MESH:NONMESH
G0 F9000 X150.45 Y150.45 Z2.52
;TIME_ELAPSED:79.613690
;LAYER:7
;MESH:cube v3.stl
G0 X150.45 Y150.45 Z2.82
;TYPE:WALL-INNER
G1 F300 Z2.42
G1 F2700 E88.14558
G1 F664.6 X150.45 Y149.55 E88.24604
G1 X149.55 Y149.55 E88.34651
G1 X149.55 Y150.45 E88.44698
G1 X150.45 Y150.45 E88.54744
G0 F9000 X151.334 Y151.334
G1 F681.4 X151.334 Y148.666 E88.83795
G1 X148.666 Y148.666 E89.12845
G1 X148.666 Y151.334 E89.41896
G1 X151.334 Y151.334 E89.70947
G0 F9000 X152.185 Y152.185
G1 F716.7 X152.185 Y147.815 E90.16186
G1 X147.815 Y147.815 E90.61425
G1 X147.815 Y152.185 E91.06664
G1 X152.185 Y152.185 E91.51903
G0 F9000 X153 Y153
G1 F743.5 X153 Y147 E92.11772
G1 X147 Y147 E92.7164
G1 X147 Y153 E93.31508
G1 X153 Y153 E93.91376
G0 F9000 X153.8 Y153.8
G1 F743.5 X153.8 Y146.2 E94.6721
G1 X146.2 Y146.2 E95.43043
G1 X146.2 Y153.8 E96.18876
G1 X153.8 Y153.8 E96.94709
G0 F9000 X154.6 Y154.6
;TYPE:WALL-OUTER
G1 F743.5 X154.6 Y145.4 E97.86507
G1 X145.4 Y145.4 E98.78305
G1 X145.4 Y154.6 E99.70103
G1 X154.6 Y154.6 E100.61901
G1 F2700 E100.61801
G1 F300 Z2.82
;MESH:NONMESH
G0 F9000 X150.45 Y150.45 Z2.82
;TIME_ELAPSED:90.668681
;LAYER:8
;MESH:cube v3.stl
G0 X150.45 Y150.45 Z3.12
;TYPE:WALL-INNER
G1 F300 Z2.72
G1 F2700 E100.61901
G1 F664.6 X150.45 Y149.55 E100.71947
G1 X149.55 Y149.55 E100.81994
G1 X149.55 Y150.45 E100.92041
G1 X150.45 Y150.45 E101.02087
G0 F9000 X151.334 Y151.334
G1 F681.4 X151.334 Y148.666 E101.31138
G1 X148.666 Y148.666 E101.60189
G1 X148.666 Y151.334 E101.89239
G1 X151.334 Y151.334 E102.1829
G0 F9000 X152.185 Y152.185
G1 F716.7 X152.185 Y147.815 E102.63529
G1 X147.815 Y147.815 E103.08768
G1 X147.815 Y152.185 E103.54007
G1 X152.185 Y152.185 E103.99247
G0 F9000 X153 Y153
G1 F743.5 X153 Y147 E104.59115
G1 X147 Y147 E105.18983
G1 X147 Y153 E105.78851
G1 X153 Y153 E106.3872
G0 F9000 X153.8 Y153.8
G1 F743.5 X153.8 Y146.2 E107.14553
G1 X146.2 Y146.2 E107.90386
G1 X146.2 Y153.8 E108.66219
G1 X153.8 Y153.8 E109.42052
G0 F9000 X154.6 Y154.6
;TYPE:WALL-OUTER
G1 F743.5 X154.6 Y145.4 E110.3385
G1 X145.4 Y145.4 E111.25648
G1 X145.4 Y154.6 E112.17446
G1 X154.6 Y154.6 E113.09244
G1 F2700 E113.09144
G1 F300 Z3.12
;MESH:NONMESH
G0 F9000 X150.45 Y150.45 Z3.12
;TIME_ELAPSED:101.723672
;LAYER:9
;MESH:cube v3.stl
G0 X150.45 Y150.45 Z3.42
;TYPE:WALL-INNER
G1 F300 Z3.02
G1 F2700 E113.09244
G1 F664.6 X150.45 Y149.55 E113.1929
G1 X149.55 Y149.55 E113.29337
G1 X149.55 Y150.45 E113.39384
G1 X150.45 Y150.45 E113.4943
G0 F9000 X151.334 Y151.334
G1 F681.4 X151.334 Y148.666 E113.78481
G1 X148.666 Y148.666 E114.07532
G1 X148.666 Y151.334 E114.36582
G1 X151.334 Y151.334 E114.65633
G0 F9000 X152.185 Y152.185
G1 F716.7 X152.185 Y147.815 E115.10872
G1 X147.815 Y147.815 E115.56111
G1 X147.815 Y152.185 E116.0135
G1 X152.185 Y152.185 E116.4659
G0 F9000 X153 Y153
G1 F743.5 X153 Y147 E117.06458
G1 X147 Y147 E117.66326
G1 X147 Y153 E118.26194
G1 X153 Y153 E118.86063
G0 F9000 X153.8 Y153.8
G1 F743.5 X153.8 Y146.2 E119.61896
G1 X146.2 Y146.2 E120.37729
G1 X146.2 Y153.8 E121.13562
G1 X153.8 Y153.8 E121.89395
G0 F9000 X154.6 Y154.6
;TYPE:WALL-OUTER
G1 F743.5 X154.6 Y145.4 E122.81193
G1 X145.4 Y145.4 E123.72991
G1 X145.4 Y154.6 E124.64789
G1 X154.6 Y154.6 E125.56587
G1 F2700 E125.56487
G1 F300 Z3.42
;MESH:NONMESH
G0 F9000 X150.45 Y150.45 Z3.42
;TIME_ELAPSED:112.778663
;LAYER:10
;MESH:cube v3.stl
G0 X150.45 Y150.45 Z3.72
;TYPE:WALL-INNER
G1 F300 Z3.32
G1 F2700 E125.56587
G1 F664.6 X150.45 Y149.55 E125.66634
G1 X149.55 Y149.55 E125.7668
G1 X149.55 Y150.45 E125.86727
G1 X150.45 Y150.45 E125.96773
G0 F9000 X151.334 Y151.334
G1 F681.4 X151.334 Y148.666 E126.25824
G1 X148.666 Y148.666 E126.54875
G1 X148.666 Y151.334 E126.83925
G1 X151.334 Y151.334 E127.12976
G0 F9000 X152.185 Y152.185
G1 F716.7 X152.185 Y147.815 E127.58215
G1 X147.815 Y147.815 E128.03454
G1 X147.815 Y152.185 E128.48693
G1 X152.185 Y152.185 E128.93933
G0 F9000 X153 Y153
G1 F743.5 X153 Y147 E129.53801
G1 X147 Y147 E130.13669
G1 X147 Y153 E130.73537
G1 X153 Y153 E131.33406
G0 F9000 X153.8 Y153.8
G1 F743.5 X153.8 Y146.2 E132.09239
G1 X146.2 Y146.2 E132.85072
G1 X146.2 Y153.8 E133.60905
G1 X153.8 Y153.8 E134.36738
G0 F9000 X154.6 Y154.6
;TYPE:WALL-OUTER
G1 F743.5 X154.6 Y145.4 E135.28536
G1 X145.4 Y145.4 E136.20334
G1 X145.4 Y154.6 E137.12132
G1 X154.6 Y154.6 E138.0393
G1 F2700 E138.0383
G1 F300 Z3.72
;MESH:NONMESH
G0 F9000 X150.45 Y150.45 Z3.72
;TIME_ELAPSED:123.833654
;LAYER:11
;MESH:cube v3.stl
G0 X150.45 Y150.45 Z4.02
;TYPE:WALL-INNER
G1 F300 Z3.62
G1 F2700 E138.0393
G1 F664.6 X150.45 Y149.55 E138.13977
G1 X149.55 Y149.55 E138.24023
G1 X149.55 Y150.45 E138.3407
G1 X150.45 Y150.45 E138.44117
G0 F9000 X151.334 Y151.334
G1 F681.4 X151.334 Y148.666 E138.73167
G1 X148.666 Y148.666 E139.02218
G1 X148.666 Y151.334 E139.31268
G1 X151.334 Y151.334 E139.60319
G0 F9000 X152.185 Y152.185
G1 F716.7 X152.185 Y147.815 E140.05558
G1 X147.815 Y147.815 E140.50797
G1 X147.815 Y152.185 E140.96037
G1 X152.185 Y152.185 E141.41276
G0 F9000 X153 Y153
G1 F743.5 X153 Y147 E142.01144
G1 X147 Y147 E142.61012
G1 X147 Y153 E143.2088
G1 X153 Y153 E143.80749
G0 F9000 X153.8 Y153.8
G1 F743.5 X153.8 Y146.2 E144.56582
G1 X146.2 Y146.2 E145.32415
G1 X146.2 Y153.8 E146.08248
G1 X153.8 Y153.8 E146.84081
G0 F9000 X154.6 Y154.6
;TYPE:WALL-OUTER
G1 F743.5 X154.6 Y145.4 E147.75879
G1 X145.4 Y145.4 E148.67677
G1 X145.4 Y154.6 E149.59475
G1 X154.6 Y154.6 E150.51273
G1 F2700 E150.51173
G1 F300 Z4.02
;MESH:NONMESH
G0 F9000 X150.45 Y150.45 Z4.02
;TIME_ELAPSED:134.888644
;LAYER:12
;MESH:cube v3.stl
G0 X150.45 Y150.45 Z4.32
;TYPE:WALL-INNER
G1 F300 Z3.92
G1 F2700 E150.51273
G1 F664.6 X150.45 Y149.55 E150.6132
G1 X149.55 Y149.55 E150.71366
G1 X149.55 Y150.45 E150.81413
G1 X150.45 Y150.45 E150.9146
G0 F9000 X151.334 Y151.334
G1 F681.4 X151.334 Y148.666 E151.2051
G1 X148.666 Y148.666 E151.49561
G1 X148.666 Y151.334 E151.78611
G1 X151.334 Y151.334 E152.07662
G0 F9000 X152.185 Y152.185
G1 F716.7 X152.185 Y147.815 E152.52901
G1 X147.815 Y147.815 E152.9814
G1 X147.815 Y152.185 E153.4338
G1 X152.185 Y152.185 E153.88619
G0 F9000 X153 Y153
G1 F743.5 X153 Y147 E154.48487
G1 X147 Y147 E155.08355
G1 X147 Y153 E155.68224
G1 X153 Y153 E156.28092
G0 F9000 X153.8 Y153.8
G1 F743.5 X153.8 Y146.2 E157.03925
G1 X146.2 Y146.2 E157.79758
G1 X146.2 Y153.8 E158.55591
G1 X153.8 Y153.8 E159.31424
G0 F9000 X154.6 Y154.6
;TYPE:WALL-OUTER
G1 F743.5 X154.6 Y145.4 E160.23222
G1 X145.4 Y145.4 E161.1502
G1 X145.4 Y154.6 E162.06818
G1 X154.6 Y154.6 E162.98616
G1 F2700 E162.98516
G1 F300 Z4.32
;MESH:NONMESH
G0 F9000 X150.45 Y150.45 Z4.32
;TIME_ELAPSED:145.943635
;LAYER:13
;MESH:cube v3.stl
G0 X150.45 Y150.45 Z4.62
;TYPE:WALL-INNER
G1 F300 Z4.22
G1 F2700 E162.98616
G1 F664.6 X150.45 Y149.55 E163.08663
G1 X149.55 Y149.55 E163.18709
G1 X149.55 Y150.45 E163.28756
G1 X150.45 Y150.45 E163.38803
G0 F9000 X151.334 Y151.334
G1 F681.4 X151.334 Y148.666 E163.67853
G1 X148.666 Y148.666 E163.96904
G1 X148.666 Y151.334 E164.25955
G1 X151.334 Y151.334 E164.55005
G0 F9000 X152.185 Y152.185
G1 F716.7 X152.185 Y147.815 E165.00244
G1 X147.815 Y147.815 E165.45484
G1 X147.815 Y152.185 E165.90723
G1 X152.185 Y152.185 E166.35962
G0 F9000 X153 Y153
G1 F743.5 X153 Y147 E166.9583
G1 X147 Y147 E167.55698
G1 X147 Y153 E168.15567
G1 X153 Y153 E168.75435
G0 F9000 X153.8 Y153.8
G1 F743.5 X153.8 Y146.2 E169.51268
G1 X146.2 Y146.2 E170.27101
G1 X146.2 Y153.8 E171.02934
G1 X153.8 Y153.8 E171.78767
G0 F9000 X154.6 Y154.6
;TYPE:WALL-OUTER
G1 F743.5 X154.6 Y145.4 E172.70565
G1 X145.4 Y145.4 E173.62363
G1 X145.4 Y154.6 E174.54161
G1 X154.6 Y154.6 E175.45959
G1 F2700 E175.45859
G1 F300 Z4.62
;MESH:NONMESH
G0 F9000 X150.45 Y150.45 Z4.62
;TIME_ELAPSED:156.998626
;LAYER:14
;MESH:cube v3.stl
G0 X150.45 Y150.45 Z4.92
;TYPE:WALL-INNER
G1 F300 Z4.52
G1 F2700 E175.45959
