;FLAVOR:Marlin
;TIME:632
;Filament used: 0.417756m
;Layer height: 0.2
;MINX:136
;MINY:136
;MINZ:0.12
;MAXX:164
;MAXY:164
;MAXZ:9.92
;TARGET_MACHINE.NAME:Creality CR-10
;Generated with Cura_SteamEngine 5.7.1
M140 S50
M105
M190 S50
M104 S200
M105
M109 S200
M82 ;absolute extrusion mode
M201 X500.00 Y500.00 Z100.00 E5000.00 ;Setup machine max acceleration
M203 X500.00 Y500.00 Z10.00 E50.00 ;Setup machine max feedrate
M204 P500.00 R1000.00 T500.00 ;Setup Print/Retract/Travel acceleration
M205 X8.00 Y8.00 Z0.40 E5.00 ;Setup Jerk
M220 S100 ;Reset Feedrate
M221 S100 ;Reset Flowrate

G28 ;Home

G92 E0 ;Reset Extruder
G1 Z2.0 F3000 ;Move Z Axis up
G1 X10.1 Y20 Z0.28 F5000.0 ;Move to start position
G1 X10.1 Y200.0 Z0.28 F1500.0 E15 ;Draw the first line
G1 X10.4 Y200.0 Z0.28 F5000.0 ;Move to side a little
G1 X10.4 Y20 Z0.28 F1500.0 E30 ;Draw the second line
G92 E0 ;Reset Extruder
G1 Z2.0 F3000 ;Move Z Axis up

G92 E0
G92 E0
G1 F2700 E-1
;LAYER_COUNT:50
;LAYER:0
M107
G0 F6000 X138.763 Y138.529 Z0.12
;TYPE:SKIRT
G1 F2700 E0
G1 F1200 X139.433 Y137.945 E0.01774
G1 X140.191 Y137.408 E0.03627
G1 X140.963 Y136.971 E0.05398
G1 X141.701 Y136.639 E0.07013
G1 X142.621 Y136.333 E0.08948
G1 X143.507 Y136.137 E0.10758
G1 X144.761 Y136.012 E0.13273
G1 X145.312 Y136 E0.14373
G1 X154.304 Y136 E0.32318
G1 X155.159 Y136.013 E0.34024
G1 X156.047 Y136.072 E0.358
G1 X156.846 Y136.203 E0.37416
G1 X157.78 Y136.455 E0.39346
G1 X158.61 Y136.77 E0.41118
G1 X159.335 Y137.128 E0.42732
G1 X160.156 Y137.641 E0.44664
G1 X160.798 Y138.135 E0.4628
G1 X161.502 Y138.799 E0.48211
G1 X162.083 Y139.47 E0.49983
G1 X162.575 Y140.164 E0.5168
G1 X163.015 Y140.936 E0.53454
G1 X163.363 Y141.711 E0.55149
G1 X163.669 Y142.63 E0.57082
G1 X163.864 Y143.514 E0.58888
G1 X163.988 Y144.761 E0.61389
G1 X164 Y145.33 E0.62525
G1 X163.999 Y154.376 E0.80577
G1 X163.988 Y155.143 E0.82108
G1 X163.93 Y156.03 E0.83882
G1 X163.785 Y156.906 E0.85654
G1 X163.577 Y157.689 E0.87271
G1 X163.27 Y158.52 E0.89039
G1 X162.88 Y159.321 E0.90816
G1 X162.393 Y160.109 E0.92665
G1 X161.852 Y160.815 E0.9444
G1 X161.216 Y161.49 E0.96291
G1 X160.607 Y162.024 E0.97907
G1 X159.851 Y162.565 E0.99762
G1 X159.081 Y163.007 E1.01534
G1 X158.234 Y163.385 E1.03385
G1 X157.389 Y163.665 E1.05162
G1 X156.503 Y163.861 E1.06972
G1 X155.239 Y163.988 E1.09508
G1 X154.67 Y164 E1.10643
G1 X145.59 Y163.999 E1.28763
G1 X144.853 Y163.988 E1.30234
G1 X143.966 Y163.93 E1.32008
G1 X143.09 Y163.784 E1.33781
G1 X142.307 Y163.576 E1.35397
G1 X141.438 Y163.252 E1.37248
G1 X140.607 Y162.84 E1.39099
G1 X139.887 Y162.391 E1.40792
G1 X139.212 Y161.875 E1.42488
G1 X138.507 Y161.211 E1.44421
G1 X137.949 Y160.571 E1.46115
G1 X137.412 Y159.813 E1.47969
G1 X136.973 Y159.042 E1.49739
G1 X136.641 Y158.303 E1.51356
G1 X136.345 Y157.424 E1.53207
G1 X136.138 Y156.498 E1.55101
G1 X136.012 Y155.231 E1.57642
G1 X136 Y154.658 E1.58785
G1 X136.001 Y145.552 E1.76957
G1 X136.012 Y144.847 E1.78364
G1 X136.071 Y143.962 E1.80134
G1 X136.209 Y143.124 E1.81829
G1 X136.438 Y142.265 E1.83603
G1 X136.767 Y141.395 E1.8546
G1 X137.162 Y140.6 E1.87231
G1 X137.59 Y139.913 E1.88846
G1 X138.18 Y139.147 E1.90776
G1 X138.763 Y138.529 E1.92471
G0 F6000 X139.026 Y138.831
G1 F1200 X139.696 Y138.247 E1.94245
G1 X140.389 Y137.756 E1.9594
G1 X141.127 Y137.336 E1.97634
G1 X141.865 Y137.004 E1.99249
G1 X142.708 Y136.723 E2.01023
G1 X143.547 Y136.535 E2.02738
G1 X144.77 Y136.412 E2.05191
G1 X145.321 Y136.4 E2.06291
G1 X154.298 Y136.4 E2.24206
G1 X155.133 Y136.412 E2.25872
G1 X155.982 Y136.467 E2.2757
G1 X156.781 Y136.598 E2.29186
G1 X157.639 Y136.829 E2.30959
G1 X158.433 Y137.129 E2.32653
G1 X159.158 Y137.487 E2.34267
G1 X159.912 Y137.958 E2.36041
G1 X160.554 Y138.452 E2.37657
G1 X161.2 Y139.061 E2.39429
G1 X161.757 Y139.702 E2.41124
G1 X162.227 Y140.362 E2.42741
G1 X162.667 Y141.134 E2.44514
G1 X162.998 Y141.874 E2.46132
G1 X163.279 Y142.717 E2.47905
G1 X163.466 Y143.554 E2.49616
G1 X163.588 Y144.77 E2.52055
G1 X163.6 Y145.33 E2.53173
G1 X163.599 Y154.371 E2.71215
G1 X163.589 Y155.118 E2.72706
G1 X163.535 Y155.965 E2.744
G1 X163.398 Y156.803 E2.76094
G1 X163.19 Y157.586 E2.77711
G1 X162.895 Y158.381 E2.79403
G1 X162.521 Y159.145 E2.81101
G1 X162.075 Y159.866 E2.82793
G1 X161.534 Y160.572 E2.84568
G1 X160.952 Y161.189 E2.8626
G1 X160.343 Y161.723 E2.87877
G1 X159.652 Y162.218 E2.89573
G1 X158.882 Y162.66 E2.91345
G1 X158.107 Y163.006 E2.93039
G1 X157.301 Y163.275 E2.94734
G1 X156.463 Y163.463 E2.96448
G1 X155.23 Y163.588 E2.98921
G1 X154.67 Y163.6 E3.00039
G1 X145.596 Y163.599 E3.18147
G1 X144.878 Y163.589 E3.1958
G1 X144.031 Y163.535 E3.21274
G1 X143.193 Y163.397 E3.22969
G1 X142.41 Y163.189 E3.24586
G1 X141.578 Y162.877 E3.26359
G1 X140.818 Y162.5 E3.28052
G1 X140.13 Y162.073 E3.29668
G1 X139.455 Y161.557 E3.31363
G1 X138.808 Y160.948 E3.33136
G1 X138.25 Y160.308 E3.34831
G1 X137.759 Y159.615 E3.36526
G1 X137.338 Y158.878 E3.3822
G1 X137.006 Y158.139 E3.39836
G1 X136.724 Y157.297 E3.41608
G1 X136.536 Y156.458 E3.43324
G1 X136.412 Y155.222 E3.45803
G1 X136.4 Y154.658 E3.46929
G1 X136.401 Y145.558 E3.65089
G1 X136.411 Y144.873 E3.66456
G1 X136.466 Y144.026 E3.6815
G1 X136.596 Y143.227 E3.69765
G1 X136.825 Y142.368 E3.7154
G1 X137.125 Y141.573 E3.73235
G1 X137.502 Y140.812 E3.7493
G1 X137.93 Y140.125 E3.76545
G1 X138.472 Y139.421 E3.78318
G1 X139.026 Y138.831 E3.79933
G0 F6000 X139.318 Y139.105
G1 F1200 X139.928 Y138.573 E3.81549
G1 X140.588 Y138.103 E3.83166
G1 X141.291 Y137.701 E3.84782
G1 X142.029 Y137.369 E3.86397
G1 X142.797 Y137.113 E3.88012
G1 X143.587 Y136.933 E3.89629
G1 X144.779 Y136.812 E3.9202
G1 X145.33 Y136.8 E3.9312
G1 X154.293 Y136.8 E4.11007
G1 X155.108 Y136.811 E4.12633
G1 X155.917 Y136.862 E4.14251
G1 X156.716 Y136.993 E4.15867
G1 X157.498 Y137.203 E4.17482
G1 X158.256 Y137.488 E4.19098
G1 X158.981 Y137.846 E4.20712
G1 X159.668 Y138.275 E4.22328
G1 X160.31 Y138.769 E4.23945
G1 X160.899 Y139.324 E4.2556
G1 X161.431 Y139.934 E4.27175
G1 X161.901 Y140.594 E4.28792
G1 X162.302 Y141.297 E4.30407
G1 X162.633 Y142.037 E4.32025
G1 X162.889 Y142.805 E4.33641
G1 X163.068 Y143.594 E4.35255
G1 X163.188 Y144.779 E4.37632
G1 X163.2 Y145.33 E4.38732
G1 X163.199 Y154.366 E4.56764
G1 X163.19 Y155.093 E4.58215
G1 X163.14 Y155.901 E4.59831
G1 X163.011 Y156.7 E4.61446
G1 X162.803 Y157.483 E4.63063
G1 X162.52 Y158.241 E4.64677
G1 X162.162 Y158.968 E4.66294
G1 X161.735 Y159.655 E4.67909
G1 X161.242 Y160.298 E4.69525
G1 X160.688 Y160.888 E4.71141
G1 X160.079 Y161.422 E4.72757
G1 X159.42 Y161.892 E4.74372
G1 X158.718 Y162.295 E4.75988
G1 X157.979 Y162.627 E4.77604
G1 X157.212 Y162.885 E4.79219
G1 X156.422 Y163.065 E4.80836
G1 X155.221 Y163.188 E4.83245
G1 X154.67 Y163.2 E4.84345
G1 X145.601 Y163.199 E5.02443
G1 X144.903 Y163.19 E5.03837
G1 X144.095 Y163.14 E5.05452
G1 X143.296 Y163.01 E5.07068
G1 X142.513 Y162.802 E5.08684
G1 X141.755 Y162.518 E5.103
G1 X141.029 Y162.16 E5.11915
G1 X140.341 Y161.733 E5.13531
G1 X139.699 Y161.24 E5.15146
G1 X139.109 Y160.685 E5.16763
G1 X138.576 Y160.076 E5.18378
G1 X138.106 Y159.416 E5.19995
G1 X137.703 Y158.714 E5.2161
G1 X137.371 Y157.975 E5.23227
G1 X137.114 Y157.208 E5.24841
G1 X136.934 Y156.418 E5.26458
G1 X136.812 Y155.213 E5.28875
G1 X136.8 Y154.658 E5.29983
G1 X136.801 Y145.563 E5.48133
G1 X136.81 Y144.898 E5.4946
G1 X136.861 Y144.09 E5.51076
G1 X136.991 Y143.291 E5.52691
G1 X137.2 Y142.508 E5.54309
G1 X137.484 Y141.75 E5.55924
G1 X137.842 Y141.024 E5.57539
G1 X138.27 Y140.337 E5.59155
G1 X138.764 Y139.695 E5.60771
G1 X139.318 Y139.105 E5.62386
G1 F2700 E4.62386
;MESH:Body3.stl
G0 F6000 X145.414 Y144.335
G0 X154.8 Y154.8
;TYPE:WALL-OUTER
G1 F2700 E5.62386
G1 F1200 X154.8 Y145.2 E5.81544
G1 X145.2 Y145.2 E6.00702
G1 X145.2 Y154.8 E6.1986
G1 X154.8 Y154.8 E6.39018
G0 F6000 X154.4 Y154.4
;TYPE:WALL-INNER
G1 F1200 X154.4 Y145.6 E6.56579
G1 X145.6 Y145.6 E6.7414
G1 X145.6 Y154.4 E6.91702
G1 X154.4 Y154.4 E7.09263
G0 F6000 X154 Y154
G1 F1200 X154 Y146 E7.25228
G1 X146 Y146 E7.41193
G1 X146 Y154 E7.57158
G1 X154 Y154 E7.73122
G0 F6000 X153.6 Y153.6
G1 F1200 X153.6 Y146.4 E7.87491
G1 X146.4 Y146.4 E8.01859
G1 X146.4 Y153.6 E8.16228
G1 X153.6 Y153.6 E8.30596
G0 F6000 X153.2 Y153.2
G1 F1200 X153.2 Y146.8 E8.43368
G1 X146.8 Y146.8 E8.5614
G1 X146.8 Y153.2 E8.68912
G1 X153.2 Y153.2 E8.81683
G0 F6000 X152.8 Y152.8
G1 F1200 X152.8 Y147.2 E8.92859
G1 X147.2 Y147.2 E9.04034
G1 X147.2 Y152.8 E9.1521
G1 X152.8 Y152.8 E9.26385
G0 F6000 X152.4 Y152.4
G1 F1200 X152.4 Y147.6 E9.35964
G1 X147.6 Y147.6 E9.45543
G1 X147.6 Y152.4 E9.55122
G1 X152.4 Y152.4 E9.64701
G0 F6000 X152 Y152
G1 F1200 X152 Y148 E9.72683
G1 X148 Y148 E9.80666
G1 X148 Y152 E9.88648
G1 X152 Y152 E9.96631
G0 F6000 X151.6 Y151.6
G1 F1200 X151.6 Y148.4 E10.03016
G1 X148.4 Y148.4 E10.09402
G1 X148.4 Y151.6 E10.15788
G1 X151.6 Y151.6 E10.22174
G0 F6000 X151.2 Y151.2
G1 F1200 X151.2 Y148.8 E10.26964
G1 X148.8 Y148.8 E10.31753
G1 X148.8 Y151.2 E10.36543
G1 X151.2 Y151.2 E10.41332
G0 F6000 X150.8 Y150.8
G1 F1200 X150.8 Y149.2 E10.44525
G1 X149.2 Y149.2 E10.47718
G1 X149.2 Y150.8 E10.50911
G1 X150.8 Y150.8 E10.54104
G0 F6000 X150.4 Y150.4
G1 F1200 X150.4 Y149.6 E10.55701
G1 X149.6 Y149.6 E10.57297
G1 X149.6 Y150.4 E10.58893
G1 X150.4 Y150.4 E10.6049
G0 F6000 X150.05 Y150
G1 F1200 X150.025 Y150.043 E10.60589
G1 X149.95 Y150 E10.60762
G1 X150.024 Y149.957 E10.60933
;MESH:NONMESH
G0 F300 X150.024 Y149.957 Z0.32
G0 F6000 X154.53 Y154.53
G0 X154.8 Y154.8
;TIME_ELAPSED:33.391665
;LAYER:1
M106 S85
;TYPE:WALL-OUTER
;MESH:Body3.stl
G1 F1350 X154.8 Y145.2 E10.92862
G1 X145.2 Y145.2 E11.24792
G1 X145.2 Y154.8 E11.56722
G1 X154.8 Y154.8 E11.88651
G0 F7500 X154.4 Y154.4
;TYPE:WALL-INNER
G1 F1350 X154.4 Y145.6 E12.1792
G1 X145.6 Y145.6 E12.47189
G1 X145.6 Y154.4 E12.76458
G1 X154.4 Y154.4 E13.05727
G0 F7500 X154 Y154
G1 F1350 X154 Y146 E13.32335
G1 X146 Y146 E13.58943
G1 X146 Y154 E13.85551
G1 X154 Y154 E14.1216
G0 F7500 X153.6 Y153.6
G1 F1350 X153.6 Y146.4 E14.36107
G1 X146.4 Y146.4 E14.60054
G1 X146.4 Y153.6 E14.84001
G1 X153.6 Y153.6 E15.07949
G0 F7500 X153.2 Y153.2
G1 F1350 X153.2 Y146.8 E15.29235
G1 X146.8 Y146.8 E15.50522
G1 X146.8 Y153.2 E15.71808
G1 X153.2 Y153.2 E15.93095
G0 F7500 X152.8 Y152.8
G1 F1350 X152.8 Y147.2 E16.1172
G1 X147.2 Y147.2 E16.30346
G1 X147.2 Y152.8 E16.48972
G1 X152.8 Y152.8 E16.67597
G0 F7500 X152.4 Y152.4
G1 F1350 X152.4 Y147.6 E16.83562
G1 X147.6 Y147.6 E16.99527
G1 X147.6 Y152.4 E17.15492
G1 X152.4 Y152.4 E17.31457
G0 F7500 X152 Y152
G1 F1350 X152 Y148 E17.44761
G1 X148 Y148 E17.58065
G1 X148 Y152 E17.71369
G1 X152 Y152 E17.84673
G0 F7500 X151.6 Y151.6
G1 F1350 X151.6 Y148.4 E17.95316
G1 X148.4 Y148.4 E18.0596
G1 X148.4 Y151.6 E18.16603
G1 X151.6 Y151.6 E18.27246
G0 F7500 X151.2 Y151.2
G1 F1350 X151.2 Y148.8 E18.35229
G1 X148.8 Y148.8 E18.43211
G1 X148.8 Y151.2 E18.51193
G1 X151.2 Y151.2 E18.59176
G0 F7500 X150.8 Y150.8
G1 F1350 X150.8 Y149.2 E18.64497
G1 X149.2 Y149.2 E18.69819
G1 X149.2 Y150.8 E18.75141
G1 X150.8 Y150.8 E18.80462
G0 F7500 X150.4 Y150.4
G1 F1350 X150.4 Y149.6 E18.83123
G1 X149.6 Y149.6 E18.85784
G1 X149.6 Y150.4 E18.88445
G1 X150.4 Y150.4 E18.91106
G0 F7500 X150.05 Y150
G1 F1350 X150.025 Y150.043 E18.91271
G1 X149.95 Y150 E18.91559
G1 X150.024 Y149.957 E18.91843
;MESH:NONMESH
G0 F300 X150.024 Y149.957 Z0.52
G0 F7500 X154.53 Y154.53
G0 X154.8 Y154.8
;TIME_ELAPSED:46.491543
;LAYER:2
M106 S170
;TYPE:WALL-OUTER
;MESH:Body3.stl
G1 F1500 X154.8 Y145.2 E19.23773
G1 X145.2 Y145.2 E19.55703
G1 X145.2 Y154.8 E19.87632
G1 X154.8 Y154.8 E20.19562
G0 F9000 X154.4 Y154.4
;TYPE:WALL-INNER
G1 F1500 X154.4 Y145.6 E20.48831
G1 X145.6 Y145.6 E20.781
G1 X145.6 Y154.4 E21.07369
G1 X154.4 Y154.4 E21.36638
G0 F9000 X154 Y154
G1 F1500 X154 Y146 E21.63246
G1 X146 Y146 E21.89854
G1 X146 Y154 E22.16462
G1 X154 Y154 E22.4307
G0 F9000 X153.6 Y153.6
G1 F1500 X153.6 Y146.4 E22.67017
G1 X146.4 Y146.4 E22.90965
G1 X146.4 Y153.6 E23.14912
G1 X153.6 Y153.6 E23.38859
G0 F9000 X153.2 Y153.2
G1 F1500 X153.2 Y146.8 E23.60146
G1 X146.8 Y146.8 E23.81432
G1 X146.8 Y153.2 E24.02719
G1 X153.2 Y153.2 E24.24005
G0 F9000 X152.8 Y152.8
G1 F1500 X152.8 Y147.2 E24.42631
G1 X147.2 Y147.2 E24.61257
G1 X147.2 Y152.8 E24.79882
G1 X152.8 Y152.8 E24.98508
G0 F9000 X152.4 Y152.4
G1 F1500 X152.4 Y147.6 E25.14473
G1 X147.6 Y147.6 E25.30438
G1 X147.6 Y152.4 E25.46403
G1 X152.4 Y152.4 E25.62367
G0 F9000 X152 Y152
G1 F1500 X152 Y148 E25.75672
G1 X148 Y148 E25.88976
G1 X148 Y152 E26.0228
G1 X152 Y152 E26.15584
G0 F9000 X151.6 Y151.6
G1 F1500 X151.6 Y148.4 E26.26227
G1 X148.4 Y148.4 E26.3687
G1 X148.4 Y151.6 E26.47513
G1 X151.6 Y151.6 E26.58157
G0 F9000 X151.2 Y151.2
G1 F1500 X151.2 Y148.8 E26.66139
G1 X148.8 Y148.8 E26.74122
G1 X148.8 Y151.2 E26.82104
G1 X151.2 Y151.2 E26.90086
G0 F9000 X150.8 Y150.8
G1 F1500 X150.8 Y149.2 E26.95408
G1 X149.2 Y149.2 E27.0073
G1 X149.2 Y150.8 E27.06051
G1 X150.8 Y150.8 E27.11373
G0 F9000 X150.4 Y150.4
G1 F1500 X150.4 Y149.6 E27.14034
G1 X149.6 Y149.6 E27.16695
G1 X149.6 Y150.4 E27.19355
G1 X150.4 Y150.4 E27.22016
G0 F9000 X150.05 Y150
G1 F1500 X150.025 Y150.043 E27.22182
G1 X149.95 Y150 E27.22469
G1 X150.024 Y149.957 E27.22754
;MESH:NONMESH
G0 F300 X150.024 Y149.957 Z0.72
G0 F9000 X154.53 Y154.53
G0 X154.8 Y154.8
;TIME_ELAPSED:58.702402
;LAYER:3
M106 S255
;TYPE:WALL-OUTER
;MESH:Body3.stl
G1 F1500 X154.8 Y145.2 E27.54684
G1 X145.2 Y145.2 E27.86613
G1 X145.2 Y154.8 E28.18543
G1 X154.8 Y154.8 E28.50473
G0 F9000 X154.4 Y154.4
;TYPE:WALL-INNER
G1 F1500 X154.4 Y145.6 E28.79742
G1 X145.6 Y145.6 E29.09011
G1 X145.6 Y154.4 E29.38279
G1 X154.4 Y154.4 E29.67548
G0 F9000 X154 Y154
G1 F1500 X154 Y146 E29.94156
G1 X146 Y146 E30.20765
G1 X146 Y154 E30.47373
G1 X154 Y154 E30.73981
G0 F9000 X153.6 Y153.6
G1 F1500 X153.6 Y146.4 E30.97928
G1 X146.4 Y146.4 E31.21875
G1 X146.4 Y153.6 E31.45823
G1 X153.6 Y153.6 E31.6977
G0 F9000 X153.2 Y153.2
G1 F1500 X153.2 Y146.8 E31.91056
G1 X146.8 Y146.8 E32.12343
G1 X146.8 Y153.2 E32.33629
G1 X153.2 Y153.2 E32.54916
G0 F9000 X152.8 Y152.8
G1 F1500 X152.8 Y147.2 E32.73542
G1 X147.2 Y147.2 E32.92167
G1 X147.2 Y152.8 E33.10793
G1 X152.8 Y152.8 E33.29419
G0 F9000 X152.4 Y152.4
G1 F1500 X152.4 Y147.6 E33.45384
G1 X147.6 Y147.6 E33.61348
G1 X147.6 Y152.4 E33.77313
G1 X152.4 Y152.4 E33.93278
G0 F9000 X152 Y152
G1 F1500 X152 Y148 E34.06582
G1 X148 Y148 E34.19886
G1 X148 Y152 E34.3319
G1 X152 Y152 E34.46494
G0 F9000 X151.6 Y151.6
G1 F1500 X151.6 Y148.4 E34.57138
G1 X148.4 Y148.4 E34.67781
G1 X148.4 Y151.6 E34.78424
G1 X151.6 Y151.6 E34.89067
G0 F9000 X151.2 Y151.2
G1 F1500 X151.2 Y148.8 E34.9705
G1 X148.8 Y148.8 E35.05032
G1 X148.8 Y151.2 E35.13015
G1 X151.2 Y151.2 E35.20997
G0 F9000 X150.8 Y150.8
G1 F1500 X150.8 Y149.2 E35.26319
G1 X149.2 Y149.2 E35.3164
G1 X149.2 Y150.8 E35.36962
G1 X150.8 Y150.8 E35.42284
G0 F9000 X150.4 Y150.4
G1 F1500 X150.4 Y149.6 E35.44944
G1 X149.6 Y149.6 E35.47605
G1 X149.6 Y150.4 E35.50266
G1 X150.4 Y150.4 E35.52927
G0 F9000 X150.05 Y150
G1 F1500 X150.025 Y150.043 E35.53092
G1 X149.95 Y150 E35.5338
G1 X150.024 Y149.957 E35.53664
;MESH:NONMESH
G0 F300 X150.024 Y149.957 Z0.92
G0 F9000 X154.53 Y154.53
G0 X154.8 Y154.8
;TIME_ELAPSED:70.913262
;LAYER:4
;TYPE:WALL-OUTER
;MESH:Body3.stl
G1 F1500 X154.8 Y145.2 E35.85594
G1 X145.2 Y145.2 E36.17524
G1 X145.2 Y154.8 E36.49454
G1 X154.8 Y154.8 E36.81383
G0 F9000 X154.4 Y154.4
;TYPE:WALL-INNER
G1 F1500 X154.4 Y145.6 E37.10652
G1 X145.6 Y145.6 E37.39921
G1 X145.6 Y154.4 E37.6919
G1 X154.4 Y154.4 E37.98459
G0 F9000 X154 Y154
G1 F1500 X154 Y146 E38.25067
G1 X146 Y146 E38.51675
G1 X146 Y154 E38.78283
G1 X154 Y154 E39.04891
G0 F9000 X153.6 Y153.6
G1 F1500 X153.6 Y146.4 E39.28839
G1 X146.4 Y146.4 E39.52786
G1 X146.4 Y153.6 E39.76733
G1 X153.6 Y153.6 E40.00681
G0 F9000 X153.2 Y153.2
G1 F1500 X153.2 Y146.8 E40.21967
G1 X146.8 Y146.8 E40.43254
G1 X146.8 Y153.2 E40.6454
G1 X153.2 Y153.2 E40.85827
G0 F9000 X152.8 Y152.8
G1 F1500 X152.8 Y147.2 E41.04452
G1 X147.2 Y147.2 E41.23078
G1 X147.2 Y152.8 E41.41704
G1 X152.8 Y152.8 E41.60329
G0 F9000 X152.4 Y152.4
G1 F1500 X152.4 Y147.6 E41.76294
G1 X147.6 Y147.6 E41.92259
G1 X147.6 Y152.4 E42.08224
G1 X152.4 Y152.4 E42.24189
G0 F9000 X152 Y152
G1 F1500 X152 Y148 E42.37493
