;FLAVOR:Marlin
;TIME:6693
;Filament used: 2.96151m
;Layer height: 0.12
;MINX:131.015
;MINY:131.019
;MINZ:0.12
;MAXX:168.987
;MAXY:168.981
;MAXZ:15
;TARGET_MACHINE.NAME:Creality CR-10
;Generated with Cura_SteamEngine 5.7.1
M140 S50
M105
M190 S50
M104 S200
M105
M109 S200
M82 ;absolute extrusion mode
M201 X500.00 Y500.00 Z100.00 E5000.00 ;Setup machine max acceleration
M203 X500.00 Y500.00 Z10.00 E50.00 ;Setup machine max feedrate
M204 P500.00 R1000.00 T500.00 ;Setup Print/Retract/Travel acceleration
M205 X8.00 Y8.00 Z0.40 E5.00 ;Setup Jerk
M220 S100 ;Reset Feedrate
M221 S100 ;Reset Flowrate

G28 ;Home

G92 E0 ;Reset Extruder
G1 Z2.0 F3000 ;Move Z Axis up
G1 X10.1 Y20 Z0.28 F5000.0 ;Move to start position
G1 X10.1 Y200.0 Z0.28 F1500.0 E15 ;Draw the first line
G1 X10.4 Y200.0 Z0.28 F5000.0 ;Move to side a little
G1 X10.4 Y20 Z0.28 F1500.0 E30 ;Draw the second line
G92 E0 ;Reset Extruder
G1 Z2.0 F3000 ;Move Z Axis up

G92 E0
G92 E0
G1 F2700 E-5
;LAYER_COUNT:125
;LAYER:0
M107
G0 F6000 X136.681 Y136.472 Z0.12
;TYPE:SKIRT
G1 F2700 E0
G1 F1200 X137.418 Y135.783 E0.02013
G1 X138.172 Y135.149 E0.03979
G1 X138.518 Y134.881 E0.04853
G1 X139.31 Y134.311 E0.068
G1 X140.461 Y133.586 E0.09515
G1 X141.131 Y133.214 E0.11044
G1 X141.565 Y132.992 E0.12017
G1 X142.336 Y132.631 E0.13716
G1 X143.311 Y132.232 E0.15818
G1 X143.726 Y132.082 E0.16699
G1 X144.746 Y131.758 E0.18834
G1 X145.87 Y131.47 E0.2115
G1 X146.748 Y131.296 E0.22936
G1 X147.787 Y131.144 E0.25032
G1 X148.196 Y131.102 E0.25852
G1 X149.114 Y131.037 E0.27689
G1 X150.299 Y131.019 E0.30054
G1 X151.645 Y131.088 E0.32743
G1 X152.855 Y131.233 E0.35175
G1 X154.049 Y131.452 E0.37598
G1 X154.902 Y131.658 E0.39349
G1 X155.736 Y131.902 E0.41083
G1 X156.172 Y132.046 E0.41999
G1 X157.258 Y132.459 E0.44318
G1 X158.462 Y133.005 E0.46956
G1 X159.412 Y133.513 E0.49106
G1 X160.285 Y134.043 E0.51144
G1 X161.15 Y134.634 E0.53235
G1 X161.93 Y135.232 E0.55196
G1 X162.341 Y135.574 E0.56263
G1 X163.024 Y136.187 E0.58095
G1 X164.023 Y137.202 E0.60937
G1 X164.614 Y137.881 E0.62733
G1 X165.459 Y138.98 E0.655
G1 X166.035 Y139.836 E0.67559
G1 X166.594 Y140.775 E0.6974
G1 X167.212 Y141.988 E0.72456
G1 X167.612 Y142.912 E0.74466
G1 X168.076 Y144.198 E0.77194
G1 X168.354 Y145.15 E0.79173
G1 X168.65 Y146.456 E0.81845
G1 X168.819 Y147.497 E0.8395
G1 X168.927 Y148.533 E0.86029
G1 X168.987 Y149.837 E0.88634
G1 X168.949 Y151.19 E0.91335
G1 X168.898 Y151.828 E0.92612
G1 X168.85 Y152.267 E0.93493
G1 X168.684 Y153.362 E0.95704
G1 X168.512 Y154.205 E0.9742
G1 X168.208 Y155.379 E0.99841
G1 X168.095 Y155.745 E1.00605
G1 X167.739 Y156.767 E1.02765
G1 X167.422 Y157.546 E1.04443
G1 X167.258 Y157.907 E1.05234
G1 X166.764 Y158.913 E1.07471
G1 X166.411 Y159.546 E1.08917
G1 X165.75 Y160.603 E1.11405
G1 X165.53 Y160.919 E1.12174
G1 X164.801 Y161.888 E1.14593
G1 X164.052 Y162.765 E1.16895
G1 X163.291 Y163.555 E1.19084
G1 X162.587 Y164.213 E1.21007
G1 X161.828 Y164.851 E1.22986
G1 X161.482 Y165.118 E1.23858
G1 X160.677 Y165.698 E1.25838
G1 X159.882 Y166.212 E1.27727
G1 X159.505 Y166.433 E1.28599
G1 X158.435 Y167.008 E1.31023
G1 X157.664 Y167.369 E1.32722
G1 X156.689 Y167.768 E1.34825
G1 X156.274 Y167.918 E1.35705
G1 X155.257 Y168.241 E1.37835
G1 X154.135 Y168.529 E1.40146
G1 X153.252 Y168.704 E1.41943
G1 X152.213 Y168.856 E1.44038
G1 X151.804 Y168.898 E1.44859
G1 X150.886 Y168.963 E1.46695
G1 X149.701 Y168.981 E1.4906
G1 X148.355 Y168.912 E1.5175
G1 X147.145 Y168.767 E1.54182
G1 X145.951 Y168.548 E1.56604
G1 X145.098 Y168.342 E1.58356
G1 X144.264 Y168.098 E1.6009
G1 X143.828 Y167.954 E1.61006
G1 X142.742 Y167.541 E1.63325
G1 X141.538 Y166.995 E1.65963
G1 X140.588 Y166.487 E1.68113
G1 X139.541 Y165.843 E1.70566
G1 X138.654 Y165.221 E1.72728
G1 X137.98 Y164.696 E1.74433
G1 X137.659 Y164.426 E1.7527
G1 X136.976 Y163.813 E1.77101
G1 X135.977 Y162.798 E1.79943
G1 X135.386 Y162.119 E1.8174
G1 X134.541 Y161.02 E1.84506
G1 X133.965 Y160.164 E1.86565
G1 X133.406 Y159.225 E1.88746
G1 X132.788 Y158.012 E1.91463
G1 X132.39 Y157.094 E1.93459
G1 X132.017 Y156.085 E1.95606
G1 X131.728 Y155.154 E1.97551
G1 X131.63 Y154.796 E1.98292
G1 X131.35 Y153.544 E2.00852
G1 X131.181 Y152.503 E2.02957
G1 X131.073 Y151.464 E2.05042
G1 X131.015 Y150.032 E2.07902
G1 X131.03 Y149.247 E2.09468
G1 X131.101 Y148.195 E2.11573
G1 X131.151 Y147.72 E2.12526
G1 X131.312 Y146.657 E2.14671
G1 X131.488 Y145.796 E2.16425
G1 X131.765 Y144.722 E2.18638
G1 X132.162 Y143.505 E2.21193
G1 X132.521 Y142.589 E2.23156
G1 X132.695 Y142.192 E2.24021
G1 X133.245 Y141.073 E2.2651
G1 X133.637 Y140.373 E2.28111
G1 X133.862 Y140.002 E2.28977
G1 X134.442 Y139.121 E2.31082
G1 X135.171 Y138.144 E2.33514
G1 X135.602 Y137.626 E2.34859
G1 X135.98 Y137.199 E2.35997
G1 X136.681 Y136.472 E2.38012
G0 F6000 X136.969 Y136.75
G1 F1200 X137.676 Y136.089 E2.39944
G1 X138.417 Y135.465 E2.41877
G1 X138.752 Y135.206 E2.42722
G1 X139.544 Y134.636 E2.44669
G1 X140.655 Y133.936 E2.4729
G1 X141.314 Y133.57 E2.48794
G1 X141.735 Y133.354 E2.49739
G1 X142.488 Y133.001 E2.51398
G1 X143.448 Y132.608 E2.53468
G1 X143.847 Y132.463 E2.54315
G1 X144.845 Y132.145 E2.56406
G1 X145.948 Y131.862 E2.58678
G1 X146.806 Y131.692 E2.60424
G1 X147.828 Y131.542 E2.62485
G1 X148.224 Y131.501 E2.6328
G1 X149.12 Y131.437 E2.65072
G1 X150.305 Y131.419 E2.67437
G1 X151.597 Y131.485 E2.70019
G1 X152.807 Y131.63 E2.72451
G1 X153.955 Y131.841 E2.7478
G1 X154.79 Y132.042 E2.76494
G1 X155.611 Y132.282 E2.78201
G1 X156.03 Y132.42 E2.79081
G1 X157.116 Y132.833 E2.814
G1 X158.273 Y133.358 E2.83936
G1 X159.223 Y133.866 E2.86085
G1 X160.059 Y134.373 E2.88037
G1 X160.907 Y134.952 E2.90086
G1 X161.674 Y135.539 E2.92013
G1 X162.074 Y135.872 E2.93052
G1 X162.739 Y136.468 E2.94834
G1 X163.721 Y137.465 E2.97627
G1 X164.312 Y138.144 E2.99423
G1 X165.127 Y139.203 E3.0209
G1 X165.691 Y140.041 E3.04106
G1 X166.25 Y140.98 E3.06286
G1 X166.855 Y142.169 E3.08949
G1 X167.236 Y143.048 E3.1086
G1 X167.692 Y144.311 E3.1354
G1 X167.964 Y145.239 E3.1547
G1 X168.255 Y146.52 E3.18091
G1 X168.421 Y147.539 E3.20152
G1 X168.527 Y148.551 E3.22182
G1 X168.587 Y149.855 E3.24787
G1 X168.55 Y151.158 E3.27389
G1 X168.5 Y151.785 E3.28644
G1 X168.454 Y152.207 E3.29491
G1 X168.292 Y153.282 E3.31661
G1 X168.125 Y154.105 E3.33336
G1 X167.826 Y155.261 E3.35719
G1 X167.717 Y155.614 E3.36457
G1 X167.368 Y156.617 E3.38576
G1 X167.058 Y157.381 E3.40221
G1 X166.899 Y157.731 E3.40988
G1 X166.414 Y158.719 E3.43185
G1 X166.072 Y159.334 E3.44589
G1 X165.421 Y160.375 E3.47039
G1 X165.21 Y160.679 E3.47778
G1 X164.497 Y161.628 E3.50147
G1 X163.748 Y162.505 E3.52448
G1 X163.018 Y163.263 E3.54548
G1 X162.329 Y163.907 E3.5643
G1 X161.583 Y164.535 E3.58376
G1 X161.248 Y164.794 E3.59221
G1 X160.46 Y165.362 E3.6116
G1 X159.679 Y165.867 E3.63016
G1 X159.315 Y166.081 E3.63858
G1 X158.265 Y166.646 E3.66238
G1 X157.512 Y166.999 E3.67898
G1 X156.552 Y167.392 E3.69968
G1 X156.153 Y167.537 E3.70815
G1 X155.157 Y167.854 E3.72901
G1 X154.057 Y168.137 E3.75167
G1 X153.194 Y168.308 E3.76923
G1 X152.172 Y168.458 E3.78984
G1 X151.776 Y168.499 E3.79779
G1 X150.88 Y168.563 E3.81572
G1 X149.695 Y168.581 E3.83937
G1 X148.403 Y168.515 E3.86518
G1 X147.193 Y168.37 E3.8895
G1 X146.045 Y168.159 E3.9128
G1 X145.21 Y167.958 E3.92994
G1 X144.389 Y167.718 E3.94701
G1 X143.97 Y167.58 E3.95581
G1 X142.884 Y167.167 E3.979
G1 X141.727 Y166.642 E4.00435
G1 X140.777 Y166.134 E4.02585
G1 X139.771 Y165.516 E4.04941
G1 X138.9 Y164.905 E4.07064
G1 X138.226 Y164.38 E4.08769
G1 X137.926 Y164.128 E4.09551
G1 X137.261 Y163.532 E4.11333
G1 X136.279 Y162.535 E4.14126
G1 X135.688 Y161.856 E4.15922
G1 X134.873 Y160.797 E4.18589
G1 X134.309 Y159.959 E4.20605
G1 X133.75 Y159.02 E4.22785
G1 X133.145 Y157.831 E4.25448
G1 X132.765 Y156.955 E4.27353
G1 X132.399 Y155.967 E4.29456
G1 X132.114 Y155.048 E4.31376
G1 X132.016 Y154.69 E4.32117
G1 X131.745 Y153.48 E4.34591
G1 X131.579 Y152.461 E4.36652
G1 X131.473 Y151.448 E4.38684
G1 X131.415 Y150.039 E4.41498
G1 X131.429 Y149.274 E4.43025
G1 X131.499 Y148.237 E4.45099
G1 X131.547 Y147.78 E4.46016
G1 X131.704 Y146.737 E4.48121
G1 X131.875 Y145.896 E4.49834
G1 X132.145 Y144.846 E4.51998
G1 X132.534 Y143.651 E4.54505
G1 X132.888 Y142.749 E4.56439
G1 X133.054 Y142.368 E4.57268
G1 X133.594 Y141.268 E4.59714
G1 X133.979 Y140.58 E4.61287
G1 X134.196 Y140.222 E4.62123
G1 X134.776 Y139.341 E4.64228
G1 X135.479 Y138.4 E4.66572
G1 X135.902 Y137.891 E4.67892
G1 X136.268 Y137.477 E4.68995
G1 X136.969 Y136.75 E4.71011
G0 F6000 X137.257 Y137.028
G1 F1200 X137.934 Y136.395 E4.7286
G1 X138.662 Y135.781 E4.74761
G1 X138.986 Y135.53 E4.75579
G1 X139.757 Y134.974 E4.77476
G1 X140.849 Y134.286 E4.80051
G1 X141.497 Y133.926 E4.8153
G1 X141.905 Y133.716 E4.82446
G1 X142.64 Y133.371 E4.84067
G1 X143.585 Y132.984 E4.86104
G1 X143.969 Y132.844 E4.8692
G1 X144.945 Y132.532 E4.88965
G1 X146.026 Y132.254 E4.91192
G1 X146.864 Y132.088 E4.92897
G1 X147.869 Y131.94 E4.94924
G1 X148.253 Y131.9 E4.95695
G1 X149.126 Y131.837 E4.97441
G1 X150.311 Y131.819 E4.99807
G1 X151.549 Y131.882 E5.0228
G1 X152.759 Y132.027 E5.04712
G1 X153.862 Y132.23 E5.0695
G1 X154.678 Y132.426 E5.08625
G1 X155.486 Y132.662 E5.10305
G1 X155.888 Y132.794 E5.11149
G1 X156.974 Y133.207 E5.13468
G1 X158.084 Y133.711 E5.15901
G1 X159.034 Y134.219 E5.18051
G1 X159.833 Y134.703 E5.19915
G1 X160.681 Y135.282 E5.21964
G1 X161.418 Y135.847 E5.23817
G1 X161.807 Y136.17 E5.24826
G1 X162.454 Y136.749 E5.26559
G1 X163.419 Y137.728 E5.29302
G1 X164.01 Y138.407 E5.31099
G1 X164.795 Y139.426 E5.33666
G1 X165.347 Y140.246 E5.35638
G1 X165.906 Y141.185 E5.37819
G1 X166.488 Y142.328 E5.40379
G1 X166.86 Y143.184 E5.42241
G1 X167.308 Y144.424 E5.44872
G1 X167.574 Y145.328 E5.46753
G1 X167.86 Y146.585 E5.49325
G1 X168.023 Y147.581 E5.51339
G1 X168.127 Y148.569 E5.53322
G1 X168.187 Y149.873 E5.55927
G1 X168.151 Y151.126 E5.58429
G1 X168.102 Y151.742 E5.59662
G1 X168.058 Y152.148 E5.60477
G1 X167.9 Y153.203 E5.62606
G1 X167.738 Y154.005 E5.64238
G1 X167.444 Y155.143 E5.66584
G1 X167.339 Y155.483 E5.67294
G1 X166.997 Y156.467 E5.69373
G1 X166.693 Y157.216 E5.70986
G1 X166.54 Y157.555 E5.71728
G1 X166.064 Y158.525 E5.73885
G1 X165.733 Y159.122 E5.75247
G1 X165.092 Y160.147 E5.77659
G1 X164.89 Y160.439 E5.78368
G1 X164.193 Y161.368 E5.80686
G1 X163.444 Y162.245 E5.82987
G1 X162.745 Y162.971 E5.84998
G1 X162.071 Y163.601 E5.86839
G1 X161.338 Y164.219 E5.88753
G1 X161.014 Y164.47 E5.89571
G1 X160.243 Y165.026 E5.91468
G1 X159.476 Y165.522 E5.9329
G1 X159.125 Y165.729 E5.94104
G1 X158.095 Y166.284 E5.96438
G1 X157.36 Y166.629 E5.98059
G1 X156.415 Y167.016 E6.00097
G1 X156.031 Y167.156 E6.00912
G1 X155.057 Y167.467 E6.02953
G1 X153.979 Y167.745 E6.05174
G1 X153.136 Y167.912 E6.06889
G1 X152.131 Y168.06 E6.08917
G1 X151.747 Y168.1 E6.09687
G1 X150.874 Y168.163 E6.11434
G1 X149.689 Y168.181 E6.13799
G1 X148.451 Y168.118 E6.16273
G1 X147.241 Y167.973 E6.18705
G1 X146.138 Y167.77 E6.20943
G1 X145.322 Y167.574 E6.22617
G1 X144.514 Y167.338 E6.24297
G1 X144.112 Y167.206 E6.25142
G1 X143.026 Y166.793 E6.2746
G1 X141.916 Y166.289 E6.29893
G1 X140.966 Y165.781 E6.32043
G1 X140 Y165.188 E6.34305
G1 X139.146 Y164.59 E6.36385
G1 X138.483 Y164.073 E6.38063
G1 X138.193 Y163.83 E6.38818
G1 X137.546 Y163.251 E6.40551
G1 X136.581 Y162.272 E6.43294
G1 X135.99 Y161.593 E6.45091
G1 X135.205 Y160.574 E6.47658
G1 X134.653 Y159.754 E6.4963
G1 X134.094 Y158.815 E6.51811
G1 X133.512 Y157.672 E6.54371
G1 X133.14 Y156.816 E6.56233
G1 X132.781 Y155.849 E6.58292
G1 X132.5 Y154.942 E6.60187
G1 X132.402 Y154.584 E6.60927
G1 X132.14 Y153.415 E6.63318
G1 X131.977 Y152.419 E6.65332
G1 X131.873 Y151.431 E6.67315
G1 X131.815 Y150.046 E6.70081
G1 X131.828 Y149.301 E6.71568
G1 X131.897 Y148.279 E6.73612
G1 X131.943 Y147.84 E6.74493
G1 X132.1 Y146.797 E6.76598
G1 X132.262 Y145.995 E6.78231
G1 X132.525 Y144.97 E6.80342
G1 X132.906 Y143.797 E6.82804
G1 X133.255 Y142.908 E6.8471
G1 X133.413 Y142.544 E6.85501
G1 X133.943 Y141.463 E6.87904
G1 X134.321 Y140.787 E6.8945
G1 X134.53 Y140.442 E6.90255
G1 X135.11 Y139.561 E6.92359
G1 X135.787 Y138.655 E6.94617
G1 X136.201 Y138.156 E6.9591
G1 X136.556 Y137.755 E6.96979
G1 X137.257 Y137.028 E6.98995
G1 F2700 E1.98995
;MESH:Body2.stl
G0 F6000 X138.457 Y139.418
G0 X139.235 Y140.17
G0 X137.1 Y144.991
G0 X136.594 Y146.579
G0 X136.265 Y148.306
G0 X136.161 Y149.954
G0 X136.265 Y151.689
G0 X136.578 Y153.363
G0 X137.099 Y155.004
G0 X137.81 Y156.544
G0 X138.705 Y157.994
G0 X139.766 Y159.308
G0 X140.988 Y160.498
G0 X142.364 Y161.537
G0 X143.822 Y162.379
G0 X145.406 Y163.048
G0 X146.689 Y163.416
G0 X149.523 Y163.988
;TYPE:WALL-INNER
G1 F2700 E6.98995
G1 F1200 X150.418 Y163.988 E7.00781
G1 X151.291 Y163.935 E7.02526
G1 X152.153 Y163.827 E7.0426
G1 X152.987 Y163.67 E7.05953
G1 X153.835 Y163.461 E7.07696
G1 X154.646 Y163.2 E7.09396
G1 X155.45 Y162.89 E7.11116
G1 X156.246 Y162.524 E7.12864
G1 X156.991 Y162.125 E7.14551
G1 X157.721 Y161.671 E7.16266
G1 X158.432 Y161.165 E7.18008
G1 X159.113 Y160.619 E7.1975
G1 X159.734 Y160.054 E7.21425
G1 X160.348 Y159.418 E7.23189
G1 X160.897 Y158.779 E7.24871
G1 X161.423 Y158.085 E7.26608
G1 X161.904 Y157.358 E7.28348
G1 X162.326 Y156.623 E7.30039
G1 X162.719 Y155.837 E7.31793
G1 X163.046 Y155.063 E7.3347
G1 X163.338 Y154.232 E7.35228
G1 X163.558 Y153.461 E7.36828
G1 X163.76 Y152.558 E7.38674
G1 X163.891 Y151.708 E7.4039
G1 X163.965 Y150.927 E7.41956
G1 X163.995 Y150.045 E7.43717
G1 X163.969 Y149.129 E7.45546
G1 X163.891 Y148.287 E7.47233
G1 X163.756 Y147.418 E7.48988
G1 X163.574 Y146.598 E7.50665
G1 X163.338 Y145.766 E7.5239
G1 X163.046 Y144.933 E7.54152
G1 X162.718 Y144.158 E7.55831
G1 X162.327 Y143.371 E7.57585
G1 X161.897 Y142.632 E7.59291
G1 X161.415 Y141.902 E7.61037
G1 X160.897 Y141.216 E7.62752
G1 X160.348 Y140.578 E7.64432
G1 X159.734 Y139.942 E7.66196
G1 X159.113 Y139.377 E7.67872
G1 X158.426 Y138.824 E7.69632
G1 X157.719 Y138.327 E7.71356
G1 X156.988 Y137.871 E7.73076
G1 X156.246 Y137.476 E7.74753
G1 X155.445 Y137.106 E7.76514
G1 X154.643 Y136.796 E7.7823
G1 X153.837 Y136.539 E7.79918
G1 X153.04 Y136.337 E7.81559
G1 X152.152 Y136.169 E7.83362
G1 X151.349 Y136.069 E7.84977
G1 X150.478 Y136.013 E7.86719
G1 X149.578 Y136.009 E7.88515
G1 X148.705 Y136.065 E7.90261
G1 X147.841 Y136.169 E7.91997
G1 X147.009 Y136.326 E7.93687
G1 X146.167 Y136.535 E7.95418
G1 X145.358 Y136.796 E7.97115
G1 X144.55 Y137.106 E7.98842
G1 X143.75 Y137.476 E8.00601
G1 X143.008 Y137.871 E8.02278
G1 X142.277 Y138.327 E8.03998
G1 X141.57 Y138.824 E8.05722
G1 X140.884 Y139.376 E8.07479
G1 X140.266 Y139.942 E8.09152
G1 X139.647 Y140.579 E8.10924
G1 X139.099 Y141.217 E8.12603
G1 X138.574 Y141.91 E8.14338
G1 X138.096 Y142.637 E8.16074
G1 X137.673 Y143.371 E8.17765
G1 X137.277 Y144.16 E8.19526
G1 X136.95 Y144.933 E8.21201
G1 X136.658 Y145.767 E8.22965
G1 X136.438 Y146.539 E8.24567
G1 X136.236 Y147.442 E8.26413
G1 X136.106 Y148.286 E8.28117
G1 X136.035 Y149.073 E8.29694
G1 X136.001 Y149.953 E8.31452
G1 X136.027 Y150.871 E8.33284
G1 X136.105 Y151.709 E8.34964
G1 X136.236 Y152.559 E8.3668
G1 X136.422 Y153.403 E8.38405
G1 X136.658 Y154.233 E8.40127
G1 X136.95 Y155.063 E8.41883
G1 X137.277 Y155.837 E8.4356
G1 X137.669 Y156.621 E8.45309
G1 X138.096 Y157.358 E8.47009
G1 X138.574 Y158.086 E8.48747
G1 X139.099 Y158.779 E8.50482
G1 X139.647 Y159.417 E8.5216
G1 X140.266 Y160.054 E8.53933
G1 X140.884 Y160.62 E8.55605
G1 X141.563 Y161.165 E8.57342
G1 X142.275 Y161.671 E8.59086
G1 X143.005 Y162.125 E8.60801
G1 X143.75 Y162.524 E8.62488
G1 X144.545 Y162.89 E8.64234
G1 X145.352 Y163.2 E8.65959
G1 X146.159 Y163.457 E8.6765
G1 X146.956 Y163.659 E8.6929
G1 X147.844 Y163.827 E8.71094
G1 X148.649 Y163.928 E8.72713
G1 X149.523 Y163.988 E8.74461
G0 F6000 X149.509 Y164.388
G1 F1200 X150.43 Y164.388 E8.76299
G1 X151.328 Y164.334 E8.78094
G1 X152.215 Y164.222 E8.79879
G1 X153.072 Y164.061 E8.81619
G1 X153.944 Y163.846 E8.83411
G1 X154.78 Y163.578 E8.85163
G1 X155.606 Y163.259 E8.8693
G1 X156.424 Y162.882 E8.88727
G1 X157.191 Y162.472 E8.90463
G1 X157.943 Y162.004 E8.92231
G1 X158.674 Y161.485 E8.9402
G1 X159.373 Y160.923 E8.9581
G1 X160.013 Y160.341 E8.97536
G1 X160.644 Y159.687 E8.99349
