;FLAVOR:Marlin
;TIME:912
;Filament used: 0.375648m
;Layer height: 0.12
;MINX:137.119
;MINY:137.117
;MINZ:0.12
;MAXX:162.878
;MAXY:162.883
;MAXZ:7.44
;TARGET_MACHINE.NAME:Creality CR-10
;Generated with Cura_SteamEngine 5.7.1
M140 S50
M105
M190 S50
M104 S200
M105
M109 S200
M82 ;absolute extrusion mode
M201 X500.00 Y500.00 Z100.00 E5000.00 ;Setup machine max acceleration
M203 X500.00 Y500.00 Z10.00 E50.00 ;Setup machine max feedrate
M204 P500.00 R1000.00 T500.00 ;Setup Print/Retract/Travel acceleration
M205 X8.00 Y8.00 Z0.40 E5.00 ;Setup Jerk
M220 S100 ;Reset Feedrate
M221 S100 ;Reset Flowrate

G28 ;Home

G92 E0 ;Reset Extruder
G1 Z2.0 F3000 ;Move Z Axis up
G1 X10.1 Y20 Z0.28 F5000.0 ;Move to start position
G1 X10.1 Y200.0 Z0.28 F1500.0 E15 ;Draw the first line
G1 X10.4 Y200.0 Z0.28 F5000.0 ;Move to side a little
G1 X10.4 Y20 Z0.28 F1500.0 E30 ;Draw the second line
G92 E0 ;Reset Extruder
G1 Z2.0 F3000 ;Move Z Axis up

G92 E0
G92 E0
G1 F2700 E-5
;LAYER_COUNT:62
;LAYER:0
M107
G0 F6000 X140.907 Y140.877 Z0.12
;TYPE:SKIRT
G1 F2700 E0
G1 F1200 X141.432 Y140.377 E0.01447
G1 X142.099 Y139.821 E0.0318
G1 X142.342 Y139.636 E0.03789
G1 X142.827 Y139.296 E0.04971
G1 X143.517 Y138.865 E0.06595
G1 X144.146 Y138.522 E0.08024
G1 X144.931 Y138.155 E0.09754
G1 X145.674 Y137.863 E0.11347
G1 X146.479 Y137.606 E0.13033
G1 X147.262 Y137.41 E0.14644
G1 X147.953 Y137.28 E0.16047
G1 X148.531 Y137.201 E0.17211
G1 X149.248 Y137.137 E0.18648
G1 X149.99 Y137.117 E0.20129
G1 X150.316 Y137.121 E0.2078
G1 X151.017 Y137.156 E0.2218
G1 X151.369 Y137.187 E0.22886
G1 X152.013 Y137.272 E0.24182
G1 X152.528 Y137.365 E0.25226
G1 X153.232 Y137.528 E0.26668
G1 X153.971 Y137.744 E0.28205
G1 X154.717 Y138.008 E0.29784
G1 X155.027 Y138.136 E0.30453
G1 X155.645 Y138.42 E0.31811
G1 X156.281 Y138.753 E0.33243
G1 X156.586 Y138.926 E0.33943
G1 X157.162 Y139.288 E0.35301
G1 X157.752 Y139.707 E0.36745
G1 X158.312 Y140.155 E0.38176
G1 X158.757 Y140.548 E0.39361
G1 X159.256 Y141.036 E0.40754
G1 X159.464 Y141.259 E0.41362
G1 X160.033 Y141.916 E0.43097
G1 X160.445 Y142.454 E0.44449
G1 X160.915 Y143.157 E0.46136
G1 X161.32 Y143.85 E0.47738
G1 X161.732 Y144.669 E0.49568
G1 X161.973 Y145.242 E0.50808
G1 X162.27 Y146.07 E0.52564
G1 X162.427 Y146.597 E0.53661
G1 X162.596 Y147.287 E0.55079
G1 X162.74 Y148.075 E0.56677
G1 X162.827 Y148.799 E0.58133
G1 X162.878 Y149.722 E0.59977
G1 X162.866 Y150.667 E0.61863
G1 X162.846 Y151.028 E0.62585
G1 X162.789 Y151.588 E0.63708
G1 X162.696 Y152.208 E0.64959
G1 X162.571 Y152.834 E0.66233
G1 X162.401 Y153.503 E0.67611
G1 X162.16 Y154.252 E0.69181
G1 X162.05 Y154.551 E0.69817
G1 X161.769 Y155.242 E0.71305
G1 X161.642 Y155.523 E0.71921
G1 X161.328 Y156.142 E0.73306
G1 X160.999 Y156.711 E0.74617
G1 X160.549 Y157.4 E0.7626
G1 X160.094 Y158.008 E0.77775
G1 X159.608 Y158.579 E0.79271
G1 X159.109 Y159.107 E0.80721
G1 X158.554 Y159.637 E0.82253
G1 X158.307 Y159.852 E0.82906
G1 X157.71 Y160.328 E0.8443
G1 X157.185 Y160.696 E0.85709
G1 X156.449 Y161.155 E0.8744
G1 X155.829 Y161.491 E0.88848
G1 X155.069 Y161.845 E0.90521
G1 X154.326 Y162.137 E0.92114
G1 X153.521 Y162.394 E0.938
G1 X152.739 Y162.59 E0.95409
G1 X152.043 Y162.721 E0.96822
G1 X151.462 Y162.8 E0.97993
G1 X150.747 Y162.863 E0.99425
G1 X150.01 Y162.883 E1.00896
G1 X149.683 Y162.879 E1.01549
G1 X148.983 Y162.844 E1.02948
G1 X148.631 Y162.813 E1.03653
G1 X147.987 Y162.728 E1.04949
G1 X147.472 Y162.635 E1.05993
G1 X146.768 Y162.472 E1.07435
G1 X146.029 Y162.256 E1.08972
G1 X145.283 Y161.992 E1.10551
G1 X144.973 Y161.864 E1.1122
G1 X144.355 Y161.58 E1.12578
G1 X143.719 Y161.247 E1.1401
G1 X143.413 Y161.073 E1.14713
G1 X142.787 Y160.678 E1.1619
G1 X142.247 Y160.292 E1.17515
G1 X141.685 Y159.841 E1.18953
G1 X141.204 Y159.415 E1.20235
G1 X140.782 Y159.005 E1.21409
G1 X140.139 Y158.291 E1.23326
G1 X139.664 Y157.694 E1.24849
G1 X139.28 Y157.15 E1.26178
G1 X138.812 Y156.388 E1.27962
G1 X138.655 Y156.107 E1.28605
G1 X138.388 Y155.585 E1.29775
G1 X138.13 Y155.017 E1.3102
G1 X137.83 Y154.231 E1.32699
G1 X137.723 Y153.905 E1.33383
G1 X137.517 Y153.188 E1.34872
G1 X137.343 Y152.417 E1.36449
G1 X137.229 Y151.709 E1.3788
G1 X137.144 Y150.827 E1.39649
G1 X137.119 Y149.995 E1.4131
G1 X137.135 Y149.31 E1.42677
G1 X137.156 Y148.94 E1.43417
G1 X137.21 Y148.427 E1.44446
G1 X137.319 Y147.713 E1.45888
G1 X137.441 Y147.123 E1.4709
G1 X137.622 Y146.419 E1.4854
G1 X137.834 Y145.763 E1.49916
G1 X137.95 Y145.449 E1.50584
G1 X138.231 Y144.758 E1.52073
G1 X138.358 Y144.477 E1.52688
G1 X138.672 Y143.858 E1.54073
G1 X139.004 Y143.284 E1.55397
G1 X139.466 Y142.579 E1.57079
G1 X139.892 Y142.01 E1.58497
G1 X140.392 Y141.421 E1.60039
G1 X140.907 Y140.877 E1.61534
G0 F6000 X141.183 Y141.167
G1 F1200 X141.708 Y140.667 E1.62981
G1 X142.341 Y140.139 E1.64626
G1 X142.572 Y139.963 E1.65205
G1 X143.039 Y139.635 E1.66344
G1 X143.709 Y139.216 E1.67921
G1 X144.338 Y138.873 E1.69351
G1 X145.078 Y138.527 E1.70981
G1 X145.796 Y138.244 E1.72521
G1 X146.577 Y137.994 E1.74158
G1 X147.336 Y137.803 E1.7572
G1 X148.008 Y137.676 E1.77084
G1 X148.567 Y137.599 E1.7821
G1 X149.259 Y137.537 E1.79597
G1 X149.985 Y137.517 E1.81046
G1 X150.296 Y137.521 E1.81667
G1 X150.997 Y137.556 E1.83068
G1 X151.317 Y137.584 E1.83709
G1 X151.942 Y137.666 E1.84967
G1 X152.438 Y137.755 E1.85972
G1 X153.12 Y137.912 E1.87369
G1 X153.838 Y138.121 E1.88861
G1 X154.565 Y138.378 E1.904
G1 X154.86 Y138.499 E1.91036
G1 X155.46 Y138.775 E1.92354
G1 X156.084 Y139.101 E1.93759
G1 X156.373 Y139.265 E1.94422
G1 X156.949 Y139.627 E1.9578
G1 X157.502 Y140.019 E1.97133
G1 X158.047 Y140.455 E1.98526
G1 X158.492 Y140.848 E1.9971
G1 X158.964 Y141.309 E2.01027
G1 X159.162 Y141.521 E2.01606
G1 X159.715 Y142.159 E2.03291
G1 X160.127 Y142.697 E2.04643
G1 X160.57 Y143.359 E2.06233
G1 X160.975 Y144.052 E2.07834
G1 X161.363 Y144.825 E2.0956
G1 X161.596 Y145.377 E2.10756
G1 X161.893 Y146.205 E2.12512
G1 X162.038 Y146.692 E2.13526
G1 X162.207 Y147.382 E2.14943
G1 X162.343 Y148.123 E2.16447
G1 X162.43 Y148.847 E2.17902
G1 X162.478 Y149.717 E2.19641
G1 X162.467 Y150.645 E2.21493
G1 X162.448 Y150.988 E2.22178
G1 X162.393 Y151.529 E2.23264
G1 X162.3 Y152.149 E2.24515
G1 X162.183 Y152.735 E2.25707
G1 X162.013 Y153.404 E2.27085
G1 X161.785 Y154.113 E2.28571
G1 X161.679 Y154.4 E2.29181
G1 X161.404 Y155.077 E2.3064
G1 X161.277 Y155.358 E2.31255
G1 X160.982 Y155.942 E2.32561
G1 X160.664 Y156.492 E2.33829
G1 X160.214 Y157.181 E2.35471
G1 X159.789 Y157.749 E2.36887
G1 X159.317 Y158.304 E2.3834
G1 X158.818 Y158.832 E2.3979
G1 X158.291 Y159.335 E2.41244
G1 X158.057 Y159.539 E2.41864
G1 X157.48 Y160 E2.43337
G1 X156.955 Y160.368 E2.44617
G1 X156.258 Y160.803 E2.46257
G1 X155.638 Y161.139 E2.47664
G1 X154.922 Y161.473 E2.4924
G1 X154.204 Y161.756 E2.50781
G1 X153.423 Y162.006 E2.52417
G1 X152.664 Y162.197 E2.53979
G1 X151.989 Y162.325 E2.5535
G1 X151.427 Y162.402 E2.56482
G1 X150.736 Y162.463 E2.57866
G1 X150.015 Y162.483 E2.59306
G1 X149.703 Y162.479 E2.59928
G1 X149.003 Y162.444 E2.61327
G1 X148.683 Y162.416 E2.61968
G1 X148.058 Y162.334 E2.63226
G1 X147.562 Y162.245 E2.64232
G1 X146.88 Y162.088 E2.65628
G1 X146.162 Y161.879 E2.67121
G1 X145.435 Y161.622 E2.68659
G1 X145.14 Y161.501 E2.69296
G1 X144.54 Y161.225 E2.70614
G1 X143.916 Y160.899 E2.72019
G1 X143.626 Y160.735 E2.72684
G1 X143.019 Y160.352 E2.74116
G1 X142.497 Y159.98 E2.75395
G1 X141.95 Y159.542 E2.76793
G1 X141.483 Y159.128 E2.78039
G1 X141.061 Y158.718 E2.79213
G1 X140.452 Y158.042 E2.81029
G1 X139.991 Y157.463 E2.82506
G1 X139.607 Y156.919 E2.83835
G1 X139.161 Y156.193 E2.85535
G1 X139.011 Y155.925 E2.86148
G1 X138.752 Y155.419 E2.87282
G1 X138.504 Y154.874 E2.88477
G1 X138.21 Y154.105 E2.9012
G1 X138.107 Y153.794 E2.90774
G1 X137.907 Y153.1 E2.92215
G1 X137.738 Y152.353 E2.93744
G1 X137.624 Y151.645 E2.95175
G1 X137.544 Y150.815 E2.96839
G1 X137.519 Y150.004 E2.98458
G1 X137.534 Y149.333 E2.99797
G1 X137.554 Y148.982 E3.00499
G1 X137.608 Y148.469 E3.01528
G1 X137.711 Y147.793 E3.02893
G1 X137.828 Y147.223 E3.04054
G1 X138.003 Y146.542 E3.05457
G1 X138.209 Y145.902 E3.06799
G1 X138.321 Y145.6 E3.07442
G1 X138.596 Y144.923 E3.089
G1 X138.723 Y144.642 E3.09515
G1 X139.018 Y144.058 E3.10821
G1 X139.339 Y143.503 E3.121
G1 X139.801 Y142.798 E3.13783
G1 X140.197 Y142.269 E3.15101
G1 X140.683 Y141.696 E3.16601
G1 X141.183 Y141.167 E3.18053
G0 F6000 X141.459 Y141.457
G1 F1200 X141.984 Y140.957 E3.195
G1 X142.584 Y140.457 E3.21059
G1 X142.802 Y140.29 E3.21607
G1 X143.252 Y139.974 E3.22704
G1 X143.901 Y139.567 E3.24233
G1 X144.53 Y139.224 E3.25663
G1 X145.225 Y138.899 E3.27194
G1 X145.918 Y138.625 E3.28681
G1 X146.675 Y138.382 E3.30267
G1 X147.411 Y138.196 E3.31782
G1 X148.063 Y138.072 E3.33107
G1 X148.603 Y137.997 E3.34195
G1 X149.27 Y137.937 E3.35531
G1 X149.98 Y137.917 E3.36949
G1 X150.276 Y137.921 E3.37539
G1 X150.963 Y137.955 E3.38912
G1 X151.265 Y137.981 E3.39517
G1 X151.872 Y138.06 E3.40739
G1 X152.349 Y138.145 E3.41705
G1 X153.009 Y138.296 E3.43057
G1 X153.705 Y138.498 E3.44503
G1 X154.414 Y138.748 E3.46003
G1 X154.693 Y138.862 E3.46605
G1 X155.275 Y139.13 E3.47883
G1 X155.887 Y139.449 E3.4926
G1 X156.16 Y139.604 E3.49887
G1 X156.736 Y139.966 E3.51245
G1 X157.252 Y140.332 E3.52507
G1 X157.782 Y140.755 E3.5386
G1 X158.227 Y141.148 E3.55045
G1 X158.672 Y141.582 E3.56286
G1 X158.86 Y141.783 E3.56835
G1 X159.397 Y142.402 E3.5847
G1 X159.809 Y142.94 E3.59822
G1 X160.225 Y143.561 E3.61314
G1 X160.63 Y144.254 E3.62916
G1 X160.995 Y144.981 E3.64539
G1 X161.22 Y145.512 E3.6569
G1 X161.51 Y146.319 E3.67401
G1 X161.65 Y146.788 E3.68378
G1 X161.814 Y147.454 E3.69747
G1 X161.946 Y148.171 E3.71202
G1 X162.033 Y148.895 E3.72657
G1 X162.078 Y149.713 E3.74292
G1 X162.068 Y150.623 E3.76108
G1 X162.05 Y150.948 E3.76758
G1 X161.997 Y151.47 E3.77805
G1 X161.904 Y152.09 E3.79056
G1 X161.795 Y152.636 E3.80167
G1 X161.625 Y153.305 E3.81544
G1 X161.41 Y153.975 E3.82949
G1 X161.309 Y154.249 E3.83531
G1 X161.039 Y154.912 E3.8496
G1 X160.912 Y155.193 E3.85575
G1 X160.636 Y155.742 E3.86802
G1 X160.329 Y156.273 E3.88026
G1 X159.879 Y156.962 E3.89668
G1 X159.469 Y157.509 E3.91032
G1 X159.026 Y158.029 E3.92395
G1 X158.541 Y158.543 E3.93806
G1 X158.029 Y159.033 E3.9522
G1 X157.807 Y159.226 E3.95807
G1 X157.23 Y159.687 E3.97281
G1 X156.743 Y160.029 E3.98468
G1 X156.067 Y160.451 E4.00059
G1 X155.447 Y160.787 E4.01466
G1 X154.775 Y161.101 E4.02946
G1 X154.082 Y161.375 E4.04433
G1 X153.325 Y161.618 E4.0602
G1 X152.589 Y161.804 E4.07535
G1 X151.934 Y161.929 E4.08865
G1 X151.392 Y162.004 E4.09957
G1 X150.725 Y162.063 E4.11294
G1 X150.02 Y162.083 E4.12701
G1 X149.723 Y162.079 E4.13294
G1 X149.037 Y162.045 E4.14665
G1 X148.735 Y162.019 E4.15269
G1 X148.128 Y161.94 E4.16491
G1 X147.651 Y161.855 E4.17458
G1 X146.991 Y161.704 E4.18809
G1 X146.295 Y161.502 E4.20255
G1 X145.586 Y161.252 E4.21756
G1 X145.307 Y161.138 E4.22357
G1 X144.725 Y160.87 E4.23636
G1 X144.113 Y160.551 E4.25013
G1 X143.839 Y160.396 E4.25641
G1 X143.251 Y160.026 E4.27028
G1 X142.747 Y159.668 E4.28261
G1 X142.215 Y159.242 E4.29621
G1 X141.762 Y158.841 E4.30829
G1 X141.34 Y158.431 E4.32003
G1 X140.765 Y157.793 E4.33717
G1 X140.318 Y157.232 E4.35148
G1 X139.934 Y156.688 E4.36477
G1 X139.51 Y155.998 E4.38093
G1 X139.367 Y155.742 E4.38678
G1 X139.116 Y155.253 E4.39775
G1 X138.878 Y154.731 E4.4092
G1 X138.584 Y153.962 E4.42563
G1 X138.491 Y153.683 E4.4315
G1 X138.297 Y153.012 E4.44544
G1 X138.133 Y152.289 E4.46023
G1 X138.019 Y151.581 E4.47455
G1 X137.944 Y150.802 E4.49016
G1 X137.919 Y150.013 E4.50592
G1 X137.933 Y149.356 E4.51903
G1 X137.952 Y149.024 E4.52567
G1 X138.006 Y148.511 E4.53596
G1 X138.103 Y147.873 E4.54884
G1 X138.215 Y147.323 E4.56004
G1 X138.384 Y146.665 E4.5736
G1 X138.59 Y146.025 E4.58701
G1 X138.691 Y145.751 E4.59284
G1 X138.961 Y145.088 E4.60713
G1 X139.088 Y144.807 E4.61328
G1 X139.364 Y144.258 E4.62554
G1 X139.674 Y143.722 E4.6379
G1 X140.122 Y143.037 E4.65424
G1 X140.502 Y142.528 E4.66691
G1 X140.974 Y141.971 E4.68148
G1 X141.459 Y141.457 E4.69558
G0 F6000 X141.735 Y141.746
G1 F1200 X142.24 Y141.264 E4.70952
G1 X142.828 Y140.774 E4.72479
G1 X143.032 Y140.617 E4.72993
G1 X143.465 Y140.313 E4.74049
G1 X144.093 Y139.918 E4.75529
G1 X144.722 Y139.575 E4.76959
G1 X145.373 Y139.271 E4.78393
G1 X146.041 Y139.006 E4.79827
G1 X146.773 Y138.77 E4.81362
G1 X147.486 Y138.589 E4.8283
G1 X148.119 Y138.468 E4.84116
G1 X148.639 Y138.395 E4.85164
G1 X149.282 Y138.337 E4.86452
G1 X149.974 Y138.317 E4.87833
G1 X150.256 Y138.321 E4.88396
G1 X150.929 Y138.354 E4.89741
G1 X151.214 Y138.378 E4.90312
G1 X151.802 Y138.454 E4.91495
G1 X152.26 Y138.535 E4.92423
G1 X152.898 Y138.68 E4.93729
G1 X153.572 Y138.875 E4.95129
G1 X154.263 Y139.119 E4.96591
G1 X154.526 Y139.226 E4.97158
G1 X155.09 Y139.485 E4.98396
G1 X155.69 Y139.797 E4.99746
G1 X155.948 Y139.943 E5.00338
G1 X156.505 Y140.292 E5.01649
G1 X157.003 Y140.645 E5.02868
G1 X157.517 Y141.055 E5.0418
G1 X157.948 Y141.435 E5.05326
G1 X158.38 Y141.855 E5.06529
G1 X158.558 Y142.045 E5.07048
G1 X159.079 Y142.645 E5.08634
G1 X159.491 Y143.183 E5.09986
G1 X159.88 Y143.763 E5.1138
G1 X160.273 Y144.434 E5.12932
G1 X160.627 Y145.138 E5.14504
G1 X160.844 Y145.648 E5.1561
G1 X161.127 Y146.434 E5.17277
G1 X161.262 Y146.884 E5.18215
G1 X161.421 Y147.527 E5.19537
G1 X161.549 Y148.219 E5.20941
G1 X161.636 Y148.943 E5.22396
G1 X161.678 Y149.709 E5.23927
G1 X161.669 Y150.601 E5.25708
G1 X161.652 Y150.908 E5.26321
G1 X161.601 Y151.411 E5.2733
G1 X161.508 Y152.031 E5.28581
G1 X161.407 Y152.537 E5.29611
G1 X161.237 Y153.206 E5.30988
G1 X161.035 Y153.837 E5.32311
G1 X160.939 Y154.098 E5.32866
G1 X160.674 Y154.748 E5.34266
G1 X160.555 Y155.013 E5.34846
G1 X160.289 Y155.542 E5.36028
G1 X159.994 Y156.054 E5.37207
G1 X159.544 Y156.743 E5.38849
G1 X159.149 Y157.269 E5.40162
G1 X158.735 Y157.755 E5.41436
G1 X158.265 Y158.254 E5.42804
G1 X157.766 Y158.731 E5.44182
G1 X157.557 Y158.913 E5.44735
G1 X156.98 Y159.374 E5.46208
G1 X156.531 Y159.69 E5.47304
G1 X155.876 Y160.1 E5.48846
G1 X155.278 Y160.425 E5.50204
G1 X154.627 Y160.729 E5.51638
G1 X153.959 Y160.994 E5.53072
G1 X153.227 Y161.23 E5.54607
G1 X152.514 Y161.411 E5.56075
G1 X151.879 Y161.533 E5.57366
G1 X151.357 Y161.606 E5.58417
G1 X150.713 Y161.663 E5.59708
G1 X150.026 Y161.683 E5.61079
G1 X149.743 Y161.679 E5.61644
G1 X149.071 Y161.646 E5.62987
G1 X148.786 Y161.622 E5.63557
G1 X148.198 Y161.546 E5.64741
G1 X147.74 Y161.465 E5.65669
G1 X147.102 Y161.32 E5.66974
G1 X146.428 Y161.125 E5.68375
G1 X145.737 Y160.881 E5.69837
G1 X145.474 Y160.774 E5.70404
G1 X144.91 Y160.515 E5.71642
G1 X144.31 Y160.203 E5.72992
G1 X144.052 Y160.057 E5.73583
G1 X143.483 Y159.7 E5.74924
G1 X142.997 Y159.355 E5.76113
G1 X142.48 Y158.942 E5.77434
G1 X142.041 Y158.554 E5.78603
G1 X141.619 Y158.144 E5.79777
G1 X141.078 Y157.543 E5.81391
G1 X140.645 Y157.001 E5.82775
G1 X140.261 Y156.457 E5.84104
G1 X139.859 Y155.803 E5.85636
G1 X139.723 Y155.559 E5.86193
G1 X139.48 Y155.086 E5.87255
G1 X139.252 Y154.588 E5.88348
G1 X138.958 Y153.819 E5.89991
G1 X138.875 Y153.572 E5.90511
G1 X138.687 Y152.923 E5.91859
G1 X138.528 Y152.225 E5.93288
G1 X138.414 Y151.517 E5.94719
G1 X138.344 Y150.789 E5.96178
G1 X138.319 Y150.021 E5.97712
G1 X138.332 Y149.379 E5.98993
G1 X138.35 Y149.065 E5.99621
G1 X138.401 Y148.571 E6.00612
G1 X138.495 Y147.953 E6.01859
G1 X138.607 Y147.403 E6.02979
G1 X138.765 Y146.787 E6.04249
G1 X138.965 Y146.163 E6.05556
G1 X139.061 Y145.902 E6.06111
G1 X139.326 Y145.252 E6.07512
G1 X139.445 Y144.987 E6.08092
G1 X139.711 Y144.458 E6.09273
G1 X140.009 Y143.941 E6.10464
G1 X140.443 Y143.276 E6.12049
G1 X140.823 Y142.767 E6.13316
G1 X141.265 Y142.245 E6.14681
G1 X141.735 Y141.746 E6.16049
G1 F2700 E1.16049
;MESH:Body2.stl
G0 F6000 X143.66 Y144.86
G0 X144.484 Y145.565
G0 X150.21 Y156.595
G0 X150.214 Y157.292
;TYPE:WALL-OUTER
G1 F2700 E6.16049
G1 F1200 X150.673 Y157.264 E6.16967
G1 X151.125 Y157.206 E6.17877
G1 X151.554 Y157.128 E6.18747
G1 X151.996 Y157.019 E6.19655
G1 X152.413 Y156.883 E6.2053
G1 X152.849 Y156.715 E6.21463
G1 X153.258 Y156.524 E6.22364
G1 X153.64 Y156.322 E6.23226
G1 X154.021 Y156.085 E6.24121
G1 X154.403 Y155.815 E6.25055
