;FLAVOR:Marlin
;TIME:186
;Filament used: 0.400005m
;Layer height: 0.45
;MINX:132.524
;MINY:132.519
;MINZ:0.32
;MAXX:167.481
;MAXY:167.481
;MAXZ:7.92
;TARGET_MACHINE.NAME:Creality CR-10
;Generated with Cura_SteamEngine 5.7.1
M140 S50
M105
M190 S50
M104 S200
M105
M109 S200
M82 ;absolute extrusion mode
M201 X500.00 Y500.00 Z100.00 E5000.00 ;Setup machine max acceleration
M203 X500.00 Y500.00 Z10.00 E50.00 ;Setup machine max feedrate
M204 P500.00 R1000.00 T500.00 ;Setup Print/Retract/Travel acceleration
M205 X8.00 Y8.00 Z0.40 E5.00 ;Setup Jerk
M220 S100 ;Reset Feedrate
M221 S100 ;Reset Flowrate

G28 ;Home

G92 E0 ;Reset Extruder
G1 Z2.0 F3000 ;Move Z Axis up
G1 X10.1 Y20 Z0.28 F5000.0 ;Move to start position
G1 X10.1 Y200.0 Z0.28 F1500.0 E15 ;Draw the first line
G1 X10.4 Y200.0 Z0.28 F5000.0 ;Move to side a little
G1 X10.4 Y20 Z0.28 F1500.0 E30 ;Draw the second line
G92 E0 ;Reset Extruder
G1 Z2.0 F3000 ;Move Z Axis up

G92 E0
G92 E0
G1 F2700 E-0.001
;LAYER_COUNT:17
;LAYER:0
M107
G1 F300 Z0.72
G0 F6000 X137.461 Y137.821 Z0.72
;TYPE:SKIRT
G1 F300 Z0.32
G1 F2700 E0
G1 F1200 X137.854 Y137.429 E0.05908
G1 X138.179 Y137.122 E0.10666
G1 X138.577 Y136.769 E0.16328
G1 X139.082 Y136.35 E0.23312
G1 X139.512 Y136.015 E0.29114
G1 X139.883 Y135.745 E0.33997
G1 X140.321 Y135.444 E0.39654
G1 X140.741 Y135.173 E0.44974
G1 X141.237 Y134.875 E0.51132
G1 X141.692 Y134.621 E0.56678
G1 X142.212 Y134.352 E0.6291
G1 X142.727 Y134.105 E0.68989
G1 X143.237 Y133.879 E0.74926
G1 X143.652 Y133.711 E0.79691
G1 X144.186 Y133.514 E0.85749
G1 X144.688 Y133.346 E0.91383
G1 X145.267 Y133.173 E0.97815
G1 X145.805 Y133.03 E1.0374
G1 X146.316 Y132.91 E1.09326
G1 X146.687 Y132.834 E1.13357
G1 X147.307 Y132.728 E1.20051
G1 X147.883 Y132.648 E1.26241
G1 X148.448 Y132.586 E1.3229
G1 X148.879 Y132.554 E1.3689
G1 X149.428 Y132.528 E1.4274
G1 X149.979 Y132.519 E1.48605
G1 X150.602 Y132.53 E1.55237
G1 X151.192 Y132.561 E1.61525
G1 X151.768 Y132.607 E1.67675
G1 X152.561 Y132.707 E1.76182
G1 X153.192 Y132.812 E1.8299
G1 X153.81 Y132.939 E1.89705
G1 X154.281 Y133.051 E1.94858
G1 X154.78 Y133.184 E2.00354
G1 X155.246 Y133.323 E2.0553
G1 X155.84 Y133.523 E2.12201
G1 X156.313 Y133.699 E2.17572
G1 X156.848 Y133.916 E2.23717
G1 X157.277 Y134.106 E2.28711
G1 X157.785 Y134.348 E2.347
G1 X158.283 Y134.606 E2.40669
G1 X158.78 Y134.883 E2.46725
G1 X159.167 Y135.114 E2.51522
G1 X159.613 Y135.399 E2.57155
G1 X160.089 Y135.725 E2.63296
G1 X160.56 Y136.067 E2.69491
G1 X160.906 Y136.338 E2.74168
G1 X161.311 Y136.673 E2.79762
G1 X161.754 Y137.061 E2.8603
G1 X162.194 Y137.472 E2.92438
G1 X162.503 Y137.781 E2.97089
G1 X162.928 Y138.234 E3.037
G1 X163.292 Y138.649 E3.09576
G1 X163.636 Y139.064 E3.15313
G1 X163.944 Y139.459 E3.20644
G1 X164.472 Y140.193 E3.30267
G1 X164.799 Y140.696 E3.36653
G1 X165.148 Y141.279 E3.43884
G1 X165.423 Y141.775 E3.49921
G1 X165.678 Y142.268 E3.55828
G1 X165.934 Y142.807 E3.62179
G1 X166.291 Y143.662 E3.7204
G1 X166.495 Y144.215 E3.78314
G1 X166.684 Y144.784 E3.84695
G1 X166.836 Y145.298 E3.904
G1 X166.974 Y145.817 E3.96116
G1 X167.073 Y146.242 E4.0076
G1 X167.183 Y146.79 E4.06709
G1 X167.27 Y147.299 E4.12205
G1 X167.349 Y147.871 E4.18351
G1 X167.41 Y148.433 E4.24367
G1 X167.453 Y149.03 E4.30738
G1 X167.474 Y149.524 E4.36
G1 X167.481 Y150.077 E4.41887
G1 X167.471 Y150.581 E4.47252
G1 X167.447 Y151.109 E4.52877
G1 X167.415 Y151.535 E4.57424
G1 X167.355 Y152.099 E4.63461
G1 X167.275 Y152.677 E4.69671
G1 X167.175 Y153.256 E4.75925
G1 X167.071 Y153.764 E4.81444
G1 X166.939 Y154.321 E4.87536
G1 X166.808 Y154.805 E4.92873
G1 X166.646 Y155.34 E4.98822
G1 X166.497 Y155.783 E5.03797
G1 X166.304 Y156.305 E5.0972
G1 X166.093 Y156.825 E5.15693
G1 X165.874 Y157.322 E5.21473
G1 X165.679 Y157.73 E5.26286
G1 X165.403 Y158.267 E5.32712
G1 X165.149 Y158.721 E5.38249
G1 X164.868 Y159.191 E5.44078
G1 X164.537 Y159.708 E5.50611
G1 X164.153 Y160.263 E5.57794
G1 X163.653 Y160.917 E5.66556
G1 X163.299 Y161.344 E5.7246
G1 X162.921 Y161.772 E5.78537
G1 X162.539 Y162.179 E5.84478
G1 X162.146 Y162.571 E5.90386
G1 X161.821 Y162.878 E5.95144
G1 X161.423 Y163.231 E6.00806
G1 X160.918 Y163.65 E6.0779
G1 X160.488 Y163.985 E6.13592
G1 X160.117 Y164.255 E6.18475
G1 X159.679 Y164.556 E6.24132
G1 X159.259 Y164.827 E6.29452
G1 X158.763 Y165.125 E6.3561
G1 X158.308 Y165.379 E6.41156
G1 X157.788 Y165.648 E6.47388
G1 X157.273 Y165.895 E6.53467
G1 X156.763 Y166.121 E6.59404
G1 X156.348 Y166.289 E6.64169
G1 X155.814 Y166.486 E6.70227
G1 X155.312 Y166.654 E6.75861
G1 X154.733 Y166.827 E6.82293
G1 X154.195 Y166.97 E6.88218
G1 X153.684 Y167.09 E6.93804
G1 X153.287 Y167.171 E6.98117
G1 X152.715 Y167.269 E7.04293
G1 X152.112 Y167.352 E7.10772
G1 X151.553 Y167.413 E7.16757
G1 X151.125 Y167.445 E7.21325
G1 X150.572 Y167.472 E7.27217
G1 X150.021 Y167.481 E7.33083
G1 X149.398 Y167.47 E7.39714
G1 X148.808 Y167.439 E7.46002
G1 X148.232 Y167.393 E7.52153
G1 X147.439 Y167.293 E7.60659
G1 X146.808 Y167.188 E7.67468
G1 X146.19 Y167.061 E7.74183
G1 X145.717 Y166.949 E7.79356
G1 X145.228 Y166.817 E7.84747
G1 X144.717 Y166.664 E7.90424
G1 X144.166 Y166.479 E7.9661
G1 X143.694 Y166.305 E8.01964
G1 X143.162 Y166.089 E8.08076
G1 X142.728 Y165.898 E8.13122
G1 X142.206 Y165.647 E8.19287
G1 X141.712 Y165.39 E8.25214
G1 X141.227 Y165.12 E8.31122
G1 X140.834 Y164.885 E8.35995
G1 X140.363 Y164.584 E8.41944
G1 X139.91 Y164.275 E8.47781
G1 X139.462 Y163.95 E8.53671
G1 X139.093 Y163.662 E8.58653
G1 X138.685 Y163.324 E8.64292
G1 X138.24 Y162.933 E8.70597
G1 X137.789 Y162.512 E8.77164
G1 X137.478 Y162.2 E8.81852
G1 X137.071 Y161.764 E8.882
G1 X136.703 Y161.346 E8.94128
G1 X136.335 Y160.903 E9.00257
G1 X136.059 Y160.548 E9.05043
G1 X135.515 Y159.787 E9.14999
G1 X135.174 Y159.26 E9.2168
G1 X134.854 Y158.726 E9.28306
G1 X134.562 Y158.198 E9.34728
G1 X134.3 Y157.686 E9.40849
G1 X133.95 Y156.929 E9.49725
G1 X133.707 Y156.331 E9.56595
G1 X133.503 Y155.778 E9.62869
G1 X133.316 Y155.215 E9.69183
G1 X133.164 Y154.702 E9.74878
G1 X133.027 Y154.188 E9.80539
G1 X132.928 Y153.764 E9.85173
G1 X132.819 Y153.231 E9.90964
G1 X132.728 Y152.695 E9.9675
G1 X132.653 Y152.151 E10.02595
G1 X132.59 Y151.566 E10.08857
G1 X132.547 Y150.969 E10.15227
G1 X132.526 Y150.459 E10.2066
G1 X132.524 Y149.593 E10.29877
G1 X132.549 Y148.968 E10.36534
G1 X132.586 Y148.462 E10.41934
G1 X132.645 Y147.902 E10.47928
G1 X132.725 Y147.325 E10.54127
G1 X132.824 Y146.748 E10.60358
G1 X132.927 Y146.239 E10.65886
G1 X133.049 Y145.722 E10.71539
G1 X133.193 Y145.189 E10.77415
G1 X133.354 Y144.66 E10.83301
G1 X133.503 Y144.217 E10.88275
G1 X133.696 Y143.695 E10.94199
G1 X133.908 Y143.173 E11.00195
G1 X134.133 Y142.664 E11.06118
G1 X134.333 Y142.244 E11.11069
G1 X134.604 Y141.72 E11.17348
G1 X134.852 Y141.277 E11.22752
G1 X135.132 Y140.809 E11.28556
G1 X135.463 Y140.292 E11.3509
G1 X135.847 Y139.737 E11.42273
G1 X136.347 Y139.083 E11.51035
G1 X136.701 Y138.656 E11.56938
G1 X137.079 Y138.228 E11.63016
G1 X137.461 Y137.821 E11.68956
G0 F6000 X138.026 Y138.387
G1 F1200 X138.403 Y138.011 E11.74623
G1 X138.71 Y137.721 E11.79118
G1 X139.108 Y137.368 E11.8478
G1 X139.574 Y136.981 E11.91227
G1 X140.004 Y136.646 E11.97029
G1 X140.336 Y136.404 E12.01402
G1 X140.755 Y136.116 E12.06813
G1 X141.154 Y135.858 E12.1187
G1 X141.627 Y135.573 E12.17748
G1 X142.06 Y135.331 E12.23027
G1 X142.558 Y135.073 E12.28996
G1 X143.052 Y134.836 E12.34828
G1 X143.538 Y134.62 E12.40488
G1 X143.93 Y134.461 E12.44991
G1 X144.44 Y134.272 E12.5078
G1 X144.917 Y134.112 E12.56134
G1 X145.472 Y133.946 E12.623
G1 X145.988 Y133.809 E12.67982
G1 X146.477 Y133.694 E12.73329
G1 X146.848 Y133.618 E12.77359
G1 X147.418 Y133.52 E12.83515
G1 X147.97 Y133.443 E12.89447
G1 X148.508 Y133.384 E12.95207
G1 X148.917 Y133.353 E12.99573
G1 X149.442 Y133.328 E13.05167
G1 X149.966 Y133.319 E13.10745
G1 X150.561 Y133.329 E13.17078
G1 X151.128 Y133.358 E13.23121
G1 X151.668 Y133.401 E13.28887
G1 X152.461 Y133.501 E13.37394
G1 X153.032 Y133.596 E13.43554
G1 X153.625 Y133.717 E13.49996
G1 X154.075 Y133.824 E13.54919
G1 X154.551 Y133.951 E13.60162
G1 X155.017 Y134.09 E13.65338
G1 X155.561 Y134.273 E13.71447
G1 X156.034 Y134.449 E13.76818
G1 X156.525 Y134.648 E13.82457
G1 X156.933 Y134.828 E13.87203
G1 X157.418 Y135.059 E13.92921
G1 X157.894 Y135.305 E13.98623
G1 X158.37 Y135.57 E14.04422
G1 X158.737 Y135.789 E14.08971
G1 X159.162 Y136.06 E14.14335
G1 X159.619 Y136.372 E14.20225
G1 X160.068 Y136.698 E14.2613
G1 X160.396 Y136.954 E14.30559
G1 X160.784 Y137.275 E14.35918
G1 X161.208 Y137.646 E14.41915
G1 X161.629 Y138.039 E14.48044
G1 X161.92 Y138.329 E14.52417
G1 X162.327 Y138.762 E14.58742
G1 X162.677 Y139.16 E14.64383
G1 X163.006 Y139.556 E14.69862
G1 X163.295 Y139.926 E14.74859
G1 X163.801 Y140.629 E14.84078
G1 X164.128 Y141.132 E14.90463
G1 X164.449 Y141.668 E14.97113
G1 X164.713 Y142.143 E15.02897
G1 X164.956 Y142.612 E15.08519
G1 X165.196 Y143.116 E15.1446
G1 X165.541 Y143.94 E15.23968
G1 X165.736 Y144.467 E15.29948
G1 X165.917 Y145.012 E15.36061
G1 X166.063 Y145.504 E15.41523
G1 X166.195 Y146 E15.46985
G1 X166.289 Y146.401 E15.51369
G1 X166.395 Y146.925 E15.57059
G1 X166.478 Y147.409 E15.62286
G1 X166.554 Y147.957 E15.68174
G1 X166.612 Y148.492 E15.73901
G1 X166.654 Y149.064 E15.80006
G1 X166.674 Y149.535 E15.85023
G1 X166.681 Y150.062 E15.90633
G1 X166.672 Y150.545 E15.95774
G1 X166.649 Y151.049 E16.01144
G1 X166.619 Y151.45 E16.05424
G1 X166.559 Y152.014 E16.11461
G1 X166.486 Y152.542 E16.17134
G1 X166.391 Y153.097 E16.23127
G1 X166.293 Y153.58 E16.28372
G1 X166.167 Y154.112 E16.34191
G1 X166.042 Y154.574 E16.39285
G1 X165.888 Y155.085 E16.44965
G1 X165.747 Y155.505 E16.49681
G1 X165.562 Y156.005 E16.55355
G1 X165.36 Y156.504 E16.61084
G1 X165.152 Y156.978 E16.66594
G1 X164.968 Y157.364 E16.71145
G1 X164.704 Y157.877 E16.77285
G1 X164.462 Y158.311 E16.82574
G1 X164.194 Y158.76 E16.8814
G1 X163.879 Y159.253 E16.94366
G1 X163.517 Y159.777 E17.01145
G1 X163.017 Y160.431 E17.09907
G1 X162.699 Y160.815 E17.15213
G1 X162.338 Y161.225 E17.21027
G1 X161.974 Y161.613 E17.2669
G1 X161.597 Y161.989 E17.32357
G1 X161.29 Y162.279 E17.36851
G1 X160.892 Y162.632 E17.42514
G1 X160.426 Y163.019 E17.48961
G1 X159.996 Y163.354 E17.54762
G1 X159.664 Y163.596 E17.59135
G1 X159.245 Y163.884 E17.64546
G1 X158.846 Y164.142 E17.69603
G1 X158.373 Y164.427 E17.75481
G1 X157.94 Y164.669 E17.8076
G1 X157.442 Y164.927 E17.8673
G1 X156.948 Y165.164 E17.92561
G1 X156.462 Y165.38 E17.98222
G1 X156.07 Y165.539 E18.02724
G1 X155.56 Y165.728 E18.08513
G1 X155.083 Y165.888 E18.13868
G1 X154.528 Y166.054 E18.20033
G1 X154.012 Y166.191 E18.25715
G1 X153.523 Y166.306 E18.31062
G1 X153.152 Y166.382 E18.35093
G1 X152.58 Y166.48 E18.41269
G1 X152.026 Y166.557 E18.47222
G1 X151.492 Y166.615 E18.52939
G1 X151.086 Y166.646 E18.57273
G1 X150.558 Y166.672 E18.62899
G1 X150.034 Y166.681 E18.68477
G1 X149.439 Y166.671 E18.74811
G1 X148.872 Y166.642 E18.80853
G1 X148.332 Y166.599 E18.86619
G1 X147.539 Y166.499 E18.95126
G1 X146.968 Y166.404 E19.01287
G1 X146.375 Y166.283 E19.07728
G1 X145.924 Y166.176 E19.12662
G1 X145.458 Y166.051 E19.17797
G1 X144.971 Y165.905 E19.23208
G1 X144.443 Y165.728 E19.29135
G1 X143.971 Y165.554 E19.34489
G1 X143.484 Y165.356 E19.40084
G1 X143.074 Y165.176 E19.4485
G1 X142.575 Y164.937 E19.50739
G1 X142.101 Y164.691 E19.56423
G1 X141.637 Y164.433 E19.62073
G1 X141.265 Y164.211 E19.66684
G1 X140.814 Y163.923 E19.72379
G1 X140.38 Y163.627 E19.7797
G1 X139.932 Y163.302 E19.83861
G1 X139.603 Y163.046 E19.88298
G1 X139.212 Y162.722 E19.93702
G1 X138.786 Y162.349 E19.99729
G1 X138.356 Y161.947 E20.05994
G1 X138.045 Y161.635 E20.10683
G1 X137.671 Y161.235 E20.16511
G1 X137.318 Y160.834 E20.22197
G1 X136.967 Y160.412 E20.28039
G1 X136.691 Y160.057 E20.32825
G1 X136.186 Y159.352 E20.42055
G1 X135.86 Y158.849 E20.48434
G1 X135.554 Y158.338 E20.54774
G1 X135.274 Y157.833 E20.60919
G1 X135.026 Y157.35 E20.66698
G1 X134.676 Y156.593 E20.75575
G1 X134.457 Y156.054 E20.81767
G1 X134.262 Y155.526 E20.87757
G1 X134.083 Y154.987 E20.93802
G1 X133.937 Y154.495 E20.99264
G1 X133.806 Y154.005 E21.04663
G1 X133.712 Y153.604 E21.09046
G1 X133.608 Y153.096 E21.14565
G1 X133.521 Y152.586 E21.20072
G1 X133.446 Y152.042 E21.25916
G1 X133.388 Y151.507 E21.31644
G1 X133.346 Y150.936 E21.37738
G1 X133.326 Y150.457 E21.4284
G1 X133.324 Y149.591 E21.52057
G1 X133.347 Y149.026 E21.58076
G1 X133.382 Y148.546 E21.63198
G1 X133.441 Y147.986 E21.69191
G1 X133.514 Y147.459 E21.74854
G1 X133.608 Y146.907 E21.80813
G1 X133.706 Y146.423 E21.86069
G1 X133.828 Y145.906 E21.91723
G1 X133.959 Y145.421 E21.9707
G1 X134.112 Y144.915 E22.02696
G1 X134.253 Y144.495 E22.07411
G1 X134.438 Y143.995 E22.13086
G1 X134.64 Y143.496 E22.18815
G1 X134.855 Y143.008 E22.24491
G1 X135.044 Y142.611 E22.29171
G1 X135.303 Y142.11 E22.35173
G1 X135.539 Y141.687 E22.40329
G1 X135.806 Y141.24 E22.4587
G1 X136.121 Y140.747 E22.52097
G1 X136.483 Y140.223 E22.58876
G1 X136.983 Y139.569 E22.67638
G1 X137.301 Y139.185 E22.72944
G1 X137.662 Y138.775 E22.78758
G1 X138.026 Y138.387 E22.84421
G0 F6000 X138.592 Y138.953
G1 F1200 X138.952 Y138.593 E22.89839
G1 X139.241 Y138.32 E22.9407
G1 X139.639 Y137.967 E22.99733
G1 X140.066 Y137.612 E23.05643
G1 X140.476 Y137.292 E23.11178
G1 X140.789 Y137.063 E23.15306
G1 X141.189 Y136.788 E23.20472
G1 X141.568 Y136.543 E23.25276
G1 X142.018 Y136.271 E23.30872
G1 X142.428 Y136.041 E23.35875
G1 X142.904 Y135.794 E23.41583
G1 X143.377 Y135.567 E23.47167
G1 X143.84 Y135.361 E23.52561
G1 X144.208 Y135.211 E23.5679
G1 X144.696 Y135.03 E23.6233
G1 X145.147 Y134.878 E23.67395
G1 X145.677 Y134.719 E23.73285
G1 X146.171 Y134.588 E23.78724
G1 X146.638 Y134.478 E23.8383
G1 X147.009 Y134.402 E23.87861
G1 X147.529 Y134.312 E23.93478
G1 X148.057 Y134.238 E23.99152
G1 X148.57 Y134.182 E24.04645
G1 X148.955 Y134.152 E24.08755
G1 X149.456 Y134.128 E24.14093
G1 X149.953 Y134.119 E24.19384
G1 X150.521 Y134.128 E24.2543
G1 X151.065 Y134.155 E24.31227
G1 X151.568 Y134.195 E24.36597
G1 X152.361 Y134.295 E24.45104
G1 X152.873 Y134.38 E24.50628
G1 X153.44 Y134.495 E24.56786
G1 X153.869 Y134.597 E24.61479
G1 X154.323 Y134.718 E24.6648
G1 X154.763 Y134.849 E24.71366
G1 X155.283 Y135.023 E24.77202
G1 X155.734 Y135.19 E24.82321
G1 X156.203 Y135.38 E24.87706
G1 X156.589 Y135.55 E24.92196
G1 X157.051 Y135.77 E24.97642
G1 X157.505 Y136.004 E25.03078
G1 X157.96 Y136.257 E25.08619
G1 X158.307 Y136.464 E25.12919
G1 X158.732 Y136.735 E25.18284
G1 X159.149 Y137.019 E25.23654
G1 X159.577 Y137.33 E25.29285
G1 X159.887 Y137.571 E25.33464
G1 X160.258 Y137.877 E25.38582
G1 X160.662 Y138.23 E25.44292
G1 X161.064 Y138.606 E25.50151
G1 X161.355 Y138.896 E25.54523
G1 X161.727 Y139.291 E25.60298
G1 X162.062 Y139.671 E25.6569
G1 X162.376 Y140.049 E25.7092
G1 X162.646 Y140.394 E25.75583
G1 X163.13 Y141.065 E25.84388
G1 X163.457 Y141.568 E25.90774
G1 X163.75 Y142.057 E25.96841
G1 X164.003 Y142.511 E26.02373
G1 X164.234 Y142.957 E26.07719
G1 X164.464 Y143.438 E26.13393
G1 X164.603 Y143.754 E26.17067
G1 X164.791 Y144.218 E26.22396
G1 X164.977 Y144.72 E26.28094
G1 X165.15 Y145.24 E26.33927
G1 X165.29 Y145.71 E26.39146
G1 X165.416 Y146.183 E26.44356
G1 X165.505 Y146.561 E26.48489
G1 X165.607 Y147.061 E26.5392
G1 X165.686 Y147.52 E26.58877
G1 X165.759 Y148.043 E26.64498
G1 X165.814 Y148.552 E26.69947
G1 X165.855 Y149.098 E26.75774
G1 X165.874 Y149.546 E26.80547
G1 X165.881 Y150.048 E26.8589
G1 X165.873 Y150.508 E26.90787
G1 X165.851 Y150.989 E26.95912
G1 X165.821 Y151.39 E27.00191
G1 X165.766 Y151.905 E27.05704
G1 X165.697 Y152.408 E27.11107
G1 X165.607 Y152.938 E27.16829
G1 X165.514 Y153.396 E27.21803
G1 X165.394 Y153.904 E27.27359
G1 X165.276 Y154.343 E27.32197
G1 X165.129 Y154.831 E27.37621
G1 X164.996 Y155.228 E27.42078
G1 X164.82 Y155.705 E27.47489
G1 X164.627 Y156.183 E27.52976
G1 X164.429 Y156.635 E27.58228
G1 X164.257 Y156.998 E27.62503
G1 X164.005 Y157.488 E27.68367
G1 X163.775 Y157.901 E27.73399
G1 X163.519 Y158.33 E27.78716
G1 X163.22 Y158.799 E27.84636
G1 X162.881 Y159.291 E27.90995
G1 X162.381 Y159.945 E27.99757
G1 X162.098 Y160.287 E28.04481
G1 X161.754 Y160.678 E28.10024
G1 X161.408 Y161.047 E28.15408
