;FLAVOR:Marlin
;TIME:121
;Filament used: 0.221708m
;Layer height: 0.3
;MINX:140.075
;MINY:140.1
;MINZ:0.32
;MAXX:160.072
;MAXY:159.896
;MAXZ:2.52
;TARGET_MACHINE.NAME:Creality CR-10
;Generated with Cura_SteamEngine 5.7.1
M140 S50
M105
M190 S50
M104 S200
M105
M109 S200
M82 ;absolute extrusion mode
M201 X500.00 Y500.00 Z100.00 E5000.00 ;Setup machine max acceleration
M203 X500.00 Y500.00 Z10.00 E50.00 ;Setup machine max feedrate
M204 P500.00 R1000.00 T500.00 ;Setup Print/Retract/Travel acceleration
M205 X8.00 Y8.00 Z0.40 E5.00 ;Setup Jerk
M220 S100 ;Reset Feedrate
M221 S100 ;Reset Flowrate

G28 ;Home

G92 E0 ;Reset Extruder
G1 Z2.0 F3000 ;Move Z Axis up
G1 X10.1 Y20 Z0.28 F5000.0 ;Move to start position
G1 X10.1 Y200.0 Z0.28 F1500.0 E15 ;Draw the first line
G1 X10.4 Y200.0 Z0.28 F5000.0 ;Move to side a little
G1 X10.4 Y20 Z0.28 F1500.0 E30 ;Draw the second line
G92 E0 ;Reset Extruder
G1 Z2.0 F3000 ;Move Z Axis up

G92 E0
G92 E0
G1 F2700 E-0.001
;LAYER_COUNT:7
;LAYER:0
M107
G1 F300 Z0.72
;MESH:2dKing.stl
G0 F6000 X153.495 Y149.905 Z0.72
;TYPE:WALL-INNER
G1 F300 Z0.32
G1 F2700 E0
G1 F1103.4 X153.388 Y149.905 E0.01238
G1 X153.334 Y149.998 E0.02483
G1 X153.389 Y150.091 E0.03734
G1 X153.496 Y150.091 E0.04972
G1 X153.55 Y149.998 E0.06217
G0 F6000 X154.342 Y151.142
G1 F1112.4 X154.311 Y150.746 E0.10778
G1 X154.311 Y149.254 E0.27908
G1 X154.342 Y148.858 E0.32468
G1 X153.653 Y148.857 E0.40379
G1 X152.975 Y148.792 E0.48199
G1 X152.776 Y149.349 E0.5499
G1 X152.653 Y149.637 E0.58586
G1 X152.47 Y149.998 E0.63233
G1 X152.653 Y150.359 E0.6788
G1 X152.778 Y150.651 E0.71526
G1 X152.975 Y151.209 E0.78321
G1 X153.654 Y151.143 E0.86153
G1 X154.342 Y151.142 E0.94052
G1 F2700 E0.93952
G1 F300 Z0.72
G0 F6000 X152.313 Y152.248 Z0.72
G1 F300 Z0.32
G1 F2700 E0.94052
G1 F1144.2 X152.811 Y152.112 E0.99815
G1 X153.247 Y152.037 E1.04753
G1 X153.696 Y151.994 E1.09788
G1 X155.159 Y151.993 E1.26118
G1 X155.217 Y151.367 E1.33135
G1 X155.162 Y150.726 E1.40316
G1 X155.162 Y149.273 E1.56535
G1 X155.217 Y148.628 E1.63761
G1 X155.16 Y148.007 E1.70721
G1 X153.696 Y148.006 E1.87063
G1 X153.245 Y147.963 E1.9212
G1 X152.809 Y147.887 E1.9706
G1 X152.312 Y147.752 E2.02808
G1 X152.224 Y148.26 E2.08563
G1 X152.108 Y148.688 E2.13513
G1 X151.985 Y149.035 E2.17622
G1 X151.832 Y149.394 E2.21978
G1 X151.638 Y149.746 E2.26464
G1 X151.479 Y149.998 E2.2979
G1 X151.638 Y150.25 E2.33116
G1 X151.776 Y150.501 E2.36313
G1 X151.987 Y150.964 E2.41993
G1 X152.109 Y151.311 E2.46099
G1 X152.225 Y151.739 E2.51048
G1 X152.313 Y152.248 E2.56814
G1 F2700 E2.56714
G1 F300 Z0.72
G0 F6000 X151.48 Y153.554 Z0.72
G1 F300 Z0.32
G1 F2700 E2.56814
G1 F1200 X152.05 Y153.23 E2.63792
G1 X152.552 Y153.03 E2.69544
G1 X152.985 Y152.912 E2.7432
G1 X153.353 Y152.849 E2.78294
G1 X153.662 Y152.819 E2.81598
G1 X155.838 Y152.812 E3.04758
G1 X155.939 Y152.457 E3.08686
G1 X156.041 Y151.343 E3.20592
G1 X156.019 Y151.195 E3.22185
G1 X155.981 Y150.708 E3.27384
G1 X155.981 Y149.291 E3.42465
G1 X156.019 Y148.8 E3.47707
G1 X156.041 Y148.653 E3.49289
G1 X155.94 Y147.542 E3.61162
G1 X155.839 Y147.188 E3.6508
G1 X153.661 Y147.181 E3.88261
G1 X153.351 Y147.151 E3.91576
G1 X152.984 Y147.087 E3.95541
G1 X152.549 Y146.969 E4.00338
G1 X152.047 Y146.769 E4.0609
G1 X151.479 Y146.444 E4.13055
G1 X151.533 Y147.096 E4.20018
G1 X151.502 Y147.636 E4.25775
G1 X151.425 Y148.08 E4.30571
G1 X151.328 Y148.44 E4.34539
G1 X151.224 Y148.733 E4.37848
G1 X151.003 Y149.218 E4.43521
G1 X150.773 Y149.583 E4.48112
G1 X150.457 Y149.998 E4.53664
G1 X150.773 Y150.413 E4.59216
G1 X150.931 Y150.664 E4.62372
G1 X151.183 Y151.147 E4.68171
G1 X151.328 Y151.558 E4.72809
G1 X151.426 Y151.918 E4.7678
G1 X151.502 Y152.361 E4.81564
G1 X151.533 Y152.901 E4.87321
G1 X151.48 Y153.554 E4.94294
G1 F2700 E4.94194
G1 F300 Z0.72
G0 F6000 X149.423 Y156.551 Z0.72
G1 F300 Z0.32
G1 F2700 E4.94294
G1 F1144.2 X149.787 Y156.576 E4.98367
G1 X149.895 Y156.511 E4.99774
G1 F1140.1 X150.457 Y155.949 E5.08677
G1 F1136.1 X150.489 Y155.883 E5.09501
G1 F1153.8 X151.043 Y155.002 E5.21021
G1 F1183.7 X151.464 Y154.577 E5.27475
G1 F1198.5 X151.936 Y154.209 E5.33853
G1 F1200 X152.391 Y153.954 E5.39405
G1 X152.801 Y153.791 E5.44101
G1 X153.156 Y153.694 E5.48018
G1 X153.457 Y153.642 E5.51269
G1 X153.842 Y153.613 E5.55378
G1 X156.442 Y153.612 E5.8305
G1 X156.729 Y152.605 E5.94195
G1 X156.848 Y151.312 E6.08015
G1 X156.812 Y151.089 E6.10419
G1 X156.781 Y150.69 E6.14678
G1 X156.781 Y149.308 E6.29387
G1 X156.812 Y148.907 E6.33668
G1 X156.848 Y148.684 E6.36072
G1 X156.73 Y147.395 E6.49849
G1 X156.443 Y146.388 E6.60993
G1 X153.709 Y146.382 E6.90092
G1 X153.455 Y146.358 E6.92807
G1 X153.155 Y146.305 E6.9605
G1 X152.799 Y146.209 E6.99974
G1 X152.389 Y146.045 E7.04674
G1 X151.933 Y145.788 E7.10245
G1 F1198.5 X151.46 Y145.42 E7.16631
G1 F1185.2 X151.043 Y144.997 E7.23032
G1 F1153.8 X150.486 Y144.112 E7.34607
G1 F1136.1 X150.454 Y144.045 E7.35442
G1 F1140.1 X149.895 Y143.486 E7.44298
G1 F1144.2 X149.787 Y143.421 E7.45705
G1 X149.425 Y143.444 E7.49753
G1 X149.389 Y143.509 E7.50583
G1 X149.396 Y143.982 E7.55863
G1 X149.478 Y144.247 E7.58959
G1 F1140.1 X149.791 Y144.58 E7.64079
G1 F1153.8 X150.013 Y144.904 E7.68426
G1 F1172.2 X150.353 Y145.435 E7.75296
G1 F1185.2 X150.559 Y145.993 E7.81706
G1 F1198.5 X150.692 Y146.578 E7.88099
G1 F1200 X150.733 Y147.099 E7.93662
G1 X150.708 Y147.541 E7.98374
G1 X150.644 Y147.904 E8.02297
G1 X150.565 Y148.199 E8.05547
G1 X150.48 Y148.439 E8.08257
G1 X150.336 Y148.756 E8.11963
G1 X150.111 Y149.134 E8.16645
G1 X149.93 Y149.378 E8.19878
G1 X149.429 Y149.998 E8.28362
G1 X149.93 Y150.618 E8.36846
G1 X150.185 Y150.962 E8.41403
G1 X150.446 Y151.461 E8.47397
G1 X150.565 Y151.799 E8.51211
G1 X150.646 Y152.094 E8.54467
G1 X150.708 Y152.456 E8.58376
G1 X150.733 Y152.898 E8.63088
G1 X150.693 Y153.418 E8.68638
G1 F1198.5 X150.56 Y154.002 E8.75021
G1 F1183.7 X150.352 Y154.562 E8.81467
G1 F1167.9 X149.955 Y155.182 E8.89518
G1 F1149.7 X149.794 Y155.414 E8.92655
G1 F1140.1 X149.48 Y155.749 E8.97798
G1 F1144.2 X149.397 Y156.016 E9.00919
G1 X149.389 Y156.488 E9.06189
G1 X149.423 Y156.551 E9.06988
G0 F6000 X149.995 Y157.425
G1 F1156.6 X150.409 Y157.174 E9.12334
G1 F1153.8 X151.148 Y156.447 E9.23808
G1 F1151.1 X151.244 Y156.249 E9.2625
G1 F1165 X151.429 Y155.911 E9.30474
G1 F1177.9 X151.692 Y155.499 E9.35774
G1 F1188.1 X152.012 Y155.164 E9.40754
G1 F1198.5 X152.378 Y154.877 E9.4571
G1 F1200 X152.731 Y154.678 E9.50023
G1 X153.05 Y154.551 E9.53678
G1 X153.444 Y154.444 E9.58023
G1 X153.86 Y154.412 E9.62464
G1 X156.984 Y154.412 E9.95713
G1 X157.112 Y154.178 E9.98552
G1 X157.519 Y152.752 E10.14335
G1 X157.654 Y151.281 E10.30057
G1 X157.604 Y150.982 E10.33284
G1 X157.58 Y150.672 E10.36593
G1 X157.58 Y149.326 E10.50919
G1 X157.605 Y149.014 E10.5425
G1 X157.654 Y148.715 E10.57475
G1 X157.519 Y147.247 E10.73165
G1 X157.113 Y145.818 E10.88976
G1 X156.987 Y145.588 E10.91768
G1 X153.757 Y145.584 E11.26145
G1 X153.325 Y145.524 E11.30787
G1 X153.049 Y145.449 E11.33831
G1 X152.73 Y145.321 E11.3749
G1 X152.375 Y145.121 E11.41826
G1 F1198.5 X152.009 Y144.833 E11.46789
G1 F1188.1 X151.691 Y144.5 E11.51739
G1 F1177.9 X151.429 Y144.087 E11.57042
G1 F1163.6 X151.243 Y143.748 E11.61286
G1 F1149.7 X151.146 Y143.547 E11.63766
G1 F1153.8 X150.409 Y142.822 E11.75209
G1 F1156.6 X149.995 Y142.572 E11.80549
G1 X149.148 Y142.626 E11.89921
G1 X148.818 Y142.817 E11.94132
G1 X148.552 Y143.301 E12.0023
G1 X148.564 Y144.114 E12.09208
G1 X148.735 Y144.669 E12.15621
G1 F1162.2 X149.286 Y145.279 E12.24654
G1 F1173.6 X149.628 Y145.813 E12.31556
G1 F1188.1 X149.795 Y146.242 E12.36504
G1 F1198.5 X149.901 Y146.697 E12.41483
G1 F1200 X149.933 Y147.102 E12.45807
G1 X149.913 Y147.446 E12.49474
G1 X149.864 Y147.728 E12.52521
G1 X149.736 Y148.144 E12.57153
G1 X149.624 Y148.391 E12.6004
G1 X149.413 Y148.745 E12.64426
G1 X148.901 Y149.379 E12.73099
G1 X148.649 Y149.65 E12.77038
G1 X148.21 Y149.998 E12.83
G1 X148.649 Y150.346 E12.88963
G1 X148.901 Y150.617 E12.92901
G1 X149.413 Y151.251 E13.01575
G1 X149.624 Y151.605 E13.05961
G1 X149.737 Y151.854 E13.08871
G1 X149.865 Y152.269 E13.13493
G1 X149.913 Y152.551 E13.16538
G1 X149.933 Y152.895 E13.20205
G1 X149.902 Y153.299 E13.24518
G1 F1198.5 X149.796 Y153.753 E13.29486
G1 F1188.1 X149.627 Y154.185 E13.34473
G1 F1177.9 X149.364 Y154.597 E13.39773
G1 F1165 X149.172 Y154.85 E13.43254
G1 F1153.8 X148.737 Y155.327 E13.504
G1 F1156.6 X148.565 Y155.885 E13.56848
G1 X148.552 Y156.697 E13.65815
G1 X148.816 Y157.178 E13.71874
G1 X149.147 Y157.37 E13.76099
G1 X149.995 Y157.425 E13.85483
G0 F6000 X150.2 Y158.261
G1 F1182.3 X150.915 Y157.827 E13.94519
G1 F1180.8 X151.826 Y156.936 E14.08302
G1 F1185.2 X152.147 Y156.286 E14.16114
G1 F1191.1 X152.334 Y155.992 E14.1985
G1 F1195.5 X152.558 Y155.75 E14.23373
G1 F1200 X152.819 Y155.544 E14.26912
G1 X153.189 Y155.336 E14.31429
G1 X153.734 Y155.212 E14.37378
G1 X157.458 Y155.212 E14.77014
G1 X157.857 Y154.483 E14.85859
G1 X158.309 Y152.899 E15.03391
G1 X158.46 Y151.25 E15.21015
G1 X158.38 Y150.774 E15.26152
G1 X158.38 Y149.222 E15.4267
G1 X158.46 Y148.746 E15.47808
G1 X158.309 Y147.1 E15.654
G1 X157.858 Y145.513 E15.82959
G1 X157.46 Y144.788 E15.91762
G1 X153.804 Y144.785 E16.30674
G1 X153.496 Y144.742 E16.33984
G1 X153.071 Y144.598 E16.3876
G1 X152.818 Y144.455 E16.41853
G1 X152.556 Y144.249 E16.454
G1 F1195.5 X152.334 Y144.007 E16.48908
G1 F1191.1 X152.147 Y143.713 E16.52645
G1 F1185.2 X151.825 Y143.058 E16.6051
G1 F1180.8 X150.915 Y142.169 E16.7427
G1 F1182.3 X150.2 Y141.736 E16.833
G1 X148.903 Y141.82 E16.97341
G1 X148.209 Y142.221 E17.06
G1 X147.727 Y143.096 E17.16791
G1 X147.745 Y144.243 E17.29184
G1 X148.003 Y145.084 E17.38687
G1 F1185.2 X148.689 Y145.841 E17.49696
G1 F1189.6 X148.909 Y146.187 E17.54098
G1 F1195.5 X149.034 Y146.491 E17.57609
G1 F1200 X149.11 Y146.815 E17.61151
G1 X149.133 Y147.104 E17.64237
G1 X149.083 Y147.552 E17.69035
G1 X148.992 Y147.849 E17.72341
G1 X148.787 Y148.236 E17.77002
G1 X148.279 Y148.875 E17.8569
G1 X148.099 Y149.069 E17.88507
G1 X147.824 Y149.287 E17.92242
G1 F1201.5 X147.417 Y149.492 E17.97086
G1 F1204.5 X146.885 Y149.603 E18.02849
G1 F1246.8 X145.723 Y149.634 E18.14757
G1 F1286.9 X145.124 Y149.975 E18.21597
G1 X145.163 Y150.043 E18.22375
G1 X145.723 Y150.362 E18.28772
G1 F1246.8 X146.885 Y150.393 E18.4068
G1 F1204.5 X147.417 Y150.504 E18.46442
G1 F1201.5 X147.824 Y150.709 E18.51286
G1 F1200 X148.099 Y150.927 E18.55021
G1 X148.279 Y151.121 E18.57838
G1 X148.787 Y151.76 E18.66526
G1 X148.993 Y152.148 E18.71202
G1 X149.084 Y152.445 E18.74508
G1 X149.133 Y152.892 E18.79294
G1 X149.111 Y153.181 E18.82379
G1 X149.034 Y153.505 E18.85923
G1 F1195.5 X148.909 Y153.81 E18.89445
G1 F1189.6 X148.692 Y154.152 E18.93793
G1 F1185.2 X148.005 Y154.911 E19.04825
G1 F1182.3 X147.746 Y155.756 E19.14373
G1 X147.727 Y156.902 E19.26755
G1 X148.207 Y157.774 E19.37508
G1 X148.903 Y158.176 E19.46191
G1 X150.2 Y158.261 E19.60232
G0 F6000 X150.401 Y159.082
G1 F1200 X151.412 Y158.469 E19.72816
G1 X152.491 Y157.415 E19.8887
G1 X152.859 Y156.657 E19.97838
G1 X153.104 Y156.334 E20.02153
G1 X153.413 Y156.126 E20.06117
G1 X153.741 Y156.014 E20.09806
G1 X157.932 Y156.012 E20.54412
G1 X158.602 Y154.789 E20.69254
G1 X159.099 Y153.047 E20.88534
G1 X159.266 Y151.219 E21.08071
G1 X159.18 Y150.71 E21.13565
G1 X159.18 Y149.286 E21.28721
G1 X159.266 Y148.777 E21.34215
G1 X159.099 Y146.953 E21.5371
G1 X158.602 Y145.207 E21.73031
G1 X157.933 Y143.988 E21.87831
G1 X153.74 Y143.986 E22.32458
G1 X153.412 Y143.874 E22.36147
G1 X153.103 Y143.665 E22.40117
G1 X152.859 Y143.342 E22.44426
G1 X152.49 Y142.58 E22.53437
G1 X151.412 Y141.528 E22.69468
G1 X150.4 Y140.915 E22.82061
G1 X148.662 Y141.028 E23.00598
G1 X147.611 Y141.636 E23.13521
G1 X146.918 Y142.896 E23.28826
G1 X146.941 Y144.37 E23.44516
G1 X147.285 Y145.492 E23.57006
G1 X148.085 Y146.382 E23.69743
G1 X148.197 Y146.557 E23.71954
G1 X148.319 Y146.934 E23.76172
G1 X148.324 Y147.255 E23.79589
G1 X148.277 Y147.475 E23.81983
G1 X148.125 Y147.786 E23.85667
G1 X147.591 Y148.455 E23.94778
G1 X147.384 Y148.619 E23.97589
G1 F1201.5 X147.14 Y148.741 E24.00488
G1 F1204.5 X146.821 Y148.81 E24.03949
G1 F1235.5 X145.496 Y148.898 E24.17676
G1 F1266.5 X144.615 Y149.4 E24.27902
G1 X144.268 Y149.998 E24.34874
G1 X144.615 Y150.596 E24.41846
G1 X145.496 Y151.098 E24.52072
G1 F1235.5 X146.821 Y151.186 E24.65799
G1 F1204.5 X147.14 Y151.255 E24.69259
G1 F1201.5 X147.384 Y151.377 E24.72159
G1 F1200 X147.588 Y151.539 E24.74932
G1 X148.065 Y152.128 E24.82999
G1 X148.224 Y152.384 E24.86206
G1 X148.304 Y152.62 E24.88858
G1 X148.333 Y152.889 E24.91738
G1 X148.274 Y153.257 E24.95705
G1 X148.085 Y153.615 E25.00013
G1 X147.286 Y154.504 E25.12735
G1 X146.942 Y155.629 E25.25256
G1 X146.918 Y157.104 E25.40957
G1 X147.61 Y158.36 E25.56219
G1 X148.662 Y158.968 E25.69152
G1 X150.401 Y159.082 E25.877
G0 F6000 X150.6 Y159.896
;TYPE:WALL-OUTER
G1 F1200 X151.905 Y159.105 E26.03942
G1 X153.15 Y157.89 E26.22457
G1 X153.61 Y156.943 E26.33662
G1 X153.831 Y156.812 E26.36396
G1 X158.406 Y156.812 E26.85089
G1 X159.347 Y155.095 E27.05928
G1 X159.889 Y153.194 E27.26967
G1 X160.072 Y151.188 E27.48406
G1 X159.983 Y150.662 E27.54084
G1 X159.985 Y149.32 E27.68367
G1 X160.072 Y148.808 E27.73895
G1 X159.889 Y146.806 E27.95291
G1 X159.347 Y144.901 E28.16371
G1 X158.407 Y143.188 E28.37168
G1 X153.9 Y143.188 E28.85137
G1 X153.702 Y143.122 E28.87358
G1 X153.587 Y143.011 E28.8906
G1 X153.15 Y142.106 E28.99756
G1 X151.905 Y140.891 E29.18271
G1 X150.6 Y140.1 E29.34513
G1 X148.424 Y140.242 E29.57722
G1 X147.017 Y141.055 E29.75017
G1 X146.114 Y142.696 E29.94952
G1 X146.143 Y144.496 E30.14112
G1 X146.573 Y145.897 E30.2971
G1 X147.45 Y146.868 E30.43636
G1 X147.513 Y146.987 E30.45069
G1 X147.53 Y147.16 E30.46919
G1 X147.478 Y147.314 E30.48649
G1 X146.999 Y147.907 E30.56762
G1 X146.836 Y148.009 E30.58809
G1 X145.261 Y148.136 E30.75627
G1 X144.048 Y148.827 E30.90485
G1 X143.562 Y149.662 E31.00767
G1 F1120.2 X143.512 Y149.809 E31.02538
G1 F964.8 X143.205 Y149.998 E31.0731
G1 X143.512 Y150.187 E31.12082
G1 F1120.2 X143.562 Y150.334 E31.13853
G1 F1200 X144.048 Y151.169 E31.24136
G1 X145.261 Y151.86 E31.38994
G1 X146.836 Y151.987 E31.55811
G1 X146.999 Y152.089 E31.57858
G1 X147.478 Y152.682 E31.65971
G1 X147.53 Y152.836 E31.67701
G1 X147.475 Y153.102 E31.70592
G1 X146.573 Y154.099 E31.84901
G1 X146.144 Y155.503 E32.00527
G1 X146.114 Y157.304 E32.19698
G1 X147.017 Y158.941 E32.39596
G1 X148.424 Y159.754 E32.56891
G1 X150.6 Y159.896 E32.801
G1 F2700 E32.8
G1 F300 Z0.72
G0 F6000 X143.205 Y149.998 Z0.72
G1 F300 Z0.32
G1 F2700 E32.801
G1 F879.1 X140.075 Y149.998 E33.25573
G0 F6000 X141.24 Y149.447
G1 F1238.7 X141.165 Y148.559 E33.34761
G1 F2700 E33.34661
G1 F300 Z0.72
G0 F6000 X141.24 Y150.549 Z0.72
G1 F300 Z0.32
G1 F2700 E33.34761
G1 F1238.7 X141.165 Y151.441 E33.43991
G1 F2700 E33.43891
G1 F300 Z0.72
;MESH:NONMESH
G0 F6000 X153.495 Y149.905 Z0.72
;TIME_ELAPSED:23.207803
;LAYER:1
M106 S127.5
;MESH:2dKing.stl
G0 F7500 X153.495 Y149.905 Z1.02
;TYPE:WALL-INNER
G1 F300 Z0.62
G1 F2700 E33.43991
G1 F1241.4 X153.388 Y149.905 E33.45152
G1 X153.334 Y149.998 E33.46319
G1 X153.389 Y150.091 E33.47491
G1 X153.496 Y150.091 E33.48652
G1 X153.55 Y149.998 E33.49819
G0 F7500 X154.342 Y151.142
G1 F1251.4 X154.311 Y150.746 E33.54095
G1 X154.311 Y149.254 E33.70154
G1 X154.342 Y148.858 E33.7443
G1 X153.653 Y148.857 E33.81846
G1 X152.975 Y148.792 E33.89177
G1 X152.776 Y149.349 E33.95544
G1 X152.653 Y149.637 E33.98915
G1 X152.47 Y149.998 E34.03271
G1 X152.653 Y150.359 E34.07628
G1 X152.778 Y150.651 E34.11047
G1 X152.975 Y151.209 E34.17416
G1 X153.654 Y151.143 E34.24759
G1 X154.342 Y151.142 E34.32165
G1 F2700 E34.32065
G1 F300 Z1.02
G0 F7500 X152.313 Y152.248 Z1.02
G1 F300 Z0.62
G1 F2700 E34.32165
G1 F1287.2 X152.811 Y152.112 E34.37567
G1 X153.247 Y152.037 E34.42196
G1 X153.696 Y151.994 E34.46916
G1 X155.159 Y151.993 E34.62226
G1 X155.217 Y151.367 E34.68805
G1 X155.162 Y150.726 E34.75537
G1 X155.162 Y149.273 E34.90742
G1 X155.217 Y148.628 E34.97516
G1 X155.16 Y148.007 E35.04042
G1 X153.696 Y148.006 E35.19362
G1 X153.245 Y147.963 E35.24103
G1 X152.809 Y147.887 E35.28734
