;FLAVOR:Marlin
;TIME:93
;Filament used: 0.153252m
;Layer height: 0.3
;MINX:140.952
;MINY:143.026
;MINZ:0.32
;MAXX:159.036
;MAXY:156.97
;MAXZ:2.52
;TARGET_MACHINE.NAME:Creality CR-10
;Generated with Cura_SteamEngine 5.7.1
M140 S50
M105
M190 S50
M104 S200
M105
M109 S200
M82 ;absolute extrusion mode
M201 X500.00 Y500.00 Z100.00 E5000.00 ;Setup machine max acceleration
M203 X500.00 Y500.00 Z10.00 E50.00 ;Setup machine max feedrate
M204 P500.00 R1000.00 T500.00 ;Setup Print/Retract/Travel acceleration
M205 X8.00 Y8.00 Z0.40 E5.00 ;Setup Jerk
M220 S100 ;Reset Feedrate
M221 S100 ;Reset Flowrate

G28 ;Home

G92 E0 ;Reset Extruder
G1 Z2.0 F3000 ;Move Z Axis up
G1 X10.1 Y20 Z0.28 F5000.0 ;Move to start position
G1 X10.1 Y200.0 Z0.28 F1500.0 E15 ;Draw the first line
G1 X10.4 Y200.0 Z0.28 F5000.0 ;Move to side a little
G1 X10.4 Y20 Z0.28 F1500.0 E30 ;Draw the second line
G92 E0 ;Reset Extruder
G1 Z2.0 F3000 ;Move Z Axis up

G92 E0
G92 E0
G1 F2700 E-0.001
;LAYER_COUNT:7
;LAYER:0
M107
G1 F300 Z0.72
;MESH:2dPawn.stl
G0 F6000 X143.548 Y149.91 Z0.72
;TYPE:WALL-INNER
G1 F300 Z0.32
G1 F2700 E0
G1 F1159.4 X143.446 Y149.91 E0.01124
G1 X143.394 Y149.999 E0.02259
G1 X143.446 Y150.088 E0.03395
G1 X143.548 Y150.088 E0.04518
G1 X143.6 Y149.999 E0.05654
G1 F2700 E0.05554
G1 F300 Z0.72
G0 F6000 X148.131 Y150.576 Z0.72
G1 F300 Z0.32
G1 F2700 E0.05654
G1 F1120.2 X148.539 Y150.216 E0.11857
G1 X148.834 Y149.998 E0.1604
G1 X148.539 Y149.78 E0.20222
G1 X148.131 Y149.42 E0.26426
G1 X147.498 Y149.998 E0.36199
G1 X148.131 Y150.576 E0.45972
G0 F6000 X148.116 Y151.552
G1 F1137.4 X148.368 Y151.499 E0.48864
G1 X149.1 Y150.854 E0.59819
G1 X149.486 Y150.569 E0.65206
G1 X150.031 Y150.307 E0.71996
G1 F1099.7 X150.71 Y149.998 E0.80661
G1 X150.031 Y149.689 E0.89325
G1 F1137.4 X149.486 Y149.427 E0.96115
G1 X149.1 Y149.142 E1.01503
G1 X148.368 Y148.497 E1.12458
G1 X148.116 Y148.444 E1.15349
G1 X147.845 Y148.518 E1.18504
G1 X147.531 Y148.819 E1.23388
G1 X146.799 Y149.486 E1.34508
G1 X146.393 Y149.795 E1.40237
G1 X145.965 Y149.998 E1.45556
G1 X146.393 Y150.201 E1.50875
G1 X146.799 Y150.51 E1.56604
G1 X147.531 Y151.177 E1.67723
G1 X147.845 Y151.479 E1.72615
G1 X148.116 Y151.552 E1.75767
G1 F2700 E1.75667
G1 F300 Z0.72
G0 F6000 X150.71 Y149.998 Z0.72
G1 F300 Z0.32
G1 F2700 E1.75767
G1 F1063.1 X151.237 Y149.998 E1.82098
G1 F2700 E1.81998
G1 F300 Z0.72
G0 F6000 X155.041 Y151.249 Z0.72
G1 F300 Z0.32
G1 F2700 E1.82098
G1 F1250 X155.032 Y150.004 E1.94819
G1 X155.041 Y148.751 E2.07622
G1 X154.594 Y149.423 E2.15868
G1 X154.351 Y149.76 E2.20113
G1 X154.124 Y150 E2.23489
G1 X154.351 Y150.244 E2.26894
G1 X154.592 Y150.574 E2.31069
G1 X155.041 Y151.249 E2.39352
G1 F2700 E2.39252
G1 F300 Z0.72
G0 F6000 X155.826 Y152.965 Z0.72
G1 F300 Z0.32
G1 F2700 E2.39352
G1 F1238.7 X155.803 Y150.01 E2.69821
G1 X155.826 Y147.034 E3.00507
G1 X155.483 Y147.177 E3.04338
G1 X154.791 Y147.739 E3.1353
G1 X153.953 Y148.995 E3.29098
G1 X153.752 Y149.272 E3.32626
G1 X153.459 Y149.583 E3.37032
G1 X152.957 Y149.998 E3.43748
G1 X153.459 Y150.413 E3.50463
G1 X153.752 Y150.73 E3.54914
G1 X153.951 Y151.002 E3.58389
G1 X154.791 Y152.261 E3.73994
G1 X155.485 Y152.823 E3.83202
G1 X155.826 Y152.965 E3.8701
G0 F6000 X156.618 Y154.14
G1 F1215.2 X156.585 Y150.016 E4.30356
G1 X156.617 Y145.858 E4.74059
G1 X155.079 Y146.498 E4.91567
G1 X154.206 Y147.206 E5.0338
G1 X153.302 Y148.56 E5.20492
G1 X153.145 Y148.777 E5.23307
G1 X152.916 Y149.02 E5.26816
G1 X152.581 Y149.297 E5.31385
G1 X152.097 Y149.569 E5.3722
G1 F1159.4 X151.48 Y149.897 E5.44917
G1 F1086 X151.237 Y149.998 E5.48012
G1 X151.48 Y150.099 E5.51107
G1 F1159.4 X152.097 Y150.427 E5.58804
G1 F1215.2 X152.581 Y150.699 E5.6464
G1 X152.916 Y150.976 E5.69208
G1 X153.145 Y151.224 E5.72756
G1 X153.301 Y151.436 E5.75523
G1 X154.206 Y152.793 E5.92666
G1 X155.08 Y153.502 E6.04494
G1 X156.618 Y154.14 E6.21994
G0 F6000 X157.422 Y155.221
G1 F1200 X157.38 Y150.022 E6.7733
G1 X157.421 Y144.776 E7.33166
G1 X157.077 Y144.806 E7.36842
G1 X154.667 Y145.808 E7.64621
G1 X153.612 Y146.664 E7.7908
G1 X152.557 Y148.243 E7.99292
G1 X152.365 Y148.448 E8.02281
G1 X152.125 Y148.646 E8.05593
G1 X151.778 Y148.841 E8.09829
G1 F1167.9 X151.208 Y149.103 E8.1669
G1 F1106 X150.789 Y149.102 E8.21528
G1 F1122.8 X150.307 Y148.904 E8.27456
G1 F1173.6 X149.922 Y148.719 E8.32104
G1 X149.649 Y148.517 E8.358
G1 X148.753 Y147.729 E8.48785
G1 X148.093 Y147.59 E8.56126
G1 X147.423 Y147.771 E8.63678
G1 X146.971 Y148.205 E8.70498
G1 X146.239 Y148.872 E8.81275
G1 X145.952 Y149.091 E8.85204
G1 F1160.8 X145.54 Y149.314 E8.90358
G1 F1090.9 X145.072 Y149.536 E8.96423
G1 F1039 X144.696 Y149.536 E9.01045
G1 F1066.7 X144.41 Y149.43 E9.04697
G1 F1128.1 X143.685 Y149.192 E9.13336
G1 F1163.6 X143.424 Y149.131 E9.16278
G1 X142.854 Y149.373 E9.23075
G1 X142.67 Y149.69 E9.27098
G1 X142.61 Y150 E9.30563
G1 X142.67 Y150.31 E9.34029
G1 X142.852 Y150.625 E9.38022
G1 X143.424 Y150.866 E9.44835
G1 X143.684 Y150.806 E9.47763
G1 F1128.1 X144.41 Y150.566 E9.5642
G1 F1066.7 X144.696 Y150.46 E9.60072
G1 F1039 X145.072 Y150.46 E9.64695
G1 F1090.9 X145.54 Y150.682 E9.70759
G1 F1160.8 X145.952 Y150.905 E9.75913
G1 F1173.6 X146.239 Y151.124 E9.79842
G1 X146.971 Y151.791 E9.90619
G1 X147.422 Y152.226 E9.97439
G1 X148.093 Y152.406 E10.04999
G1 X148.753 Y152.267 E10.12339
G1 X149.649 Y151.479 E10.25325
G1 X149.922 Y151.277 E10.2902
G1 X150.307 Y151.092 E10.33669
G1 F1122.8 X150.789 Y150.894 E10.39596
G1 F1106 X151.208 Y150.893 E10.44435
G1 F1167.9 X151.778 Y151.155 E10.51295
G1 F1200 X152.125 Y151.35 E10.55532
G1 X152.365 Y151.548 E10.58843
G1 X152.566 Y151.767 E10.62007
G1 X153.612 Y153.334 E10.82059
G1 X154.668 Y154.192 E10.96541
G1 X157.075 Y155.191 E11.24278
G1 X157.422 Y155.221 E11.27985
G0 F6000 X158.229 Y156.096
G1 F1200 X158.18 Y150.028 E11.9257
G1 X158.228 Y143.901 E12.57783
G1 X156.883 Y144.02 E12.72154
G1 X154.253 Y145.114 E13.02471
G1 X153.014 Y146.118 E13.19444
G1 X151.908 Y147.768 E13.40586
G1 F1189.6 X151.592 Y148.058 E13.45191
G1 F1169.3 X151.121 Y148.232 E13.50675
G1 F1140.1 X150.867 Y148.232 E13.5352
G1 F1159.4 X150.577 Y148.14 E13.56872
G1 F1200 X150.288 Y148.002 E13.6028
G1 X149.128 Y146.982 E13.76721
G1 X148.07 Y146.758 E13.88231
G1 X147.011 Y147.043 E13.99903
G1 X146.426 Y147.607 E14.08552
G1 X145.587 Y148.372 E14.20636
G1 F1188.1 X145.274 Y148.532 E14.24415
G1 F1122.8 X144.993 Y148.631 E14.27804
G1 F1072.6 X144.775 Y148.631 E14.304
G1 F1122.8 X143.871 Y148.393 E14.41033
G1 F1177.9 X143.351 Y148.273 E14.46819
G1 X142.282 Y148.724 E14.594
G1 X141.891 Y149.398 E14.67848
G1 X141.774 Y150 E14.74498
G1 X141.891 Y150.602 E14.81148
G1 X142.281 Y151.275 E14.89581
G1 X143.351 Y151.724 E15.02163
G1 X143.87 Y151.604 E15.07939
G1 F1122.8 X144.775 Y151.365 E15.18586
G1 F1072.6 X144.993 Y151.365 E15.21182
G1 F1122.8 X145.274 Y151.464 E15.24571
G1 F1188.1 X145.587 Y151.624 E15.2835
G1 F1200 X146.426 Y152.389 E15.40434
G1 X147.011 Y152.953 E15.49083
G1 X148.07 Y153.238 E15.60755
G1 X149.128 Y153.014 E15.72265
G1 X150.288 Y151.994 E15.88706
G1 X150.577 Y151.856 E15.92114
G1 F1159.4 X150.867 Y151.764 E15.95466
G1 F1140.1 X151.121 Y151.764 E15.98311
G1 F1169.3 X151.593 Y151.938 E16.03806
G1 F1189.6 X151.908 Y152.23 E16.08417
G1 F1200 X153.014 Y153.879 E16.2955
G1 X154.254 Y154.886 E16.46551
G1 X156.882 Y155.977 E16.76836
G1 X158.229 Y156.096 E16.91229
G0 F6000 X159.036 Y156.97
;TYPE:WALL-OUTER
G1 F1200 X158.98 Y150.034 E17.65053
G1 X159.036 Y143.026 E18.39643
G1 X156.689 Y143.234 E18.6472
G1 X153.839 Y144.42 E18.97575
G1 X152.416 Y145.573 E19.17068
G1 X151.287 Y147.262 E19.38691
G1 X151.045 Y147.403 E19.41672
G1 X150.843 Y147.386 E19.43829
G1 X150.711 Y147.309 E19.45456
G1 X149.498 Y146.242 E19.6265
G1 X148.048 Y145.936 E19.78423
G1 X146.604 Y146.324 E19.94337
G1 X145.886 Y147.016 E20.0495
G1 X145.118 Y147.717 E20.16017
G1 X144.849 Y147.787 E20.18975
G1 X143.28 Y147.427 E20.36109
G1 X141.719 Y148.085 E20.54138
G1 X141.124 Y149.111 E20.66762
G1 X140.952 Y150 E20.76399
G1 X141.124 Y150.889 E20.86036
G1 X141.719 Y151.914 E20.98651
G1 X143.28 Y152.569 E21.16668
G1 X144.849 Y152.209 E21.33801
G1 X145.118 Y152.279 E21.3676
G1 X145.894 Y152.988 E21.47947
G1 X146.604 Y153.672 E21.5844
G1 X148.048 Y154.06 E21.74354
G1 X149.498 Y153.754 E21.90126
G1 X150.745 Y152.657 E22.07803
G1 X150.94 Y152.589 E22.10001
G1 X151.244 Y152.67 E22.1335
G1 X152.416 Y154.423 E22.35793
G1 X153.84 Y155.58 E22.55321
G1 X156.689 Y156.763 E22.88154
G1 X159.036 Y156.97 E23.13231
G1 F2700 E23.13131
G1 F300 Z0.72
;MESH:NONMESH
G0 F6000 X143.548 Y149.91 Z0.72
;TIME_ELAPSED:17.846607
;LAYER:1
M106 S127.5
;MESH:2dPawn.stl
G0 F7500 X143.548 Y149.91 Z1.02
;TYPE:WALL-INNER
G1 F300 Z0.62
G1 F2700 E23.13231
G1 F1288.6 X143.446 Y149.91 E23.14284
G1 X143.394 Y149.999 E23.15348
G1 X143.446 Y150.088 E23.16413
G1 X143.548 Y150.088 E23.17466
G1 X143.6 Y149.999 E23.18531
G1 F2700 E23.18431
G1 F300 Z1.02
G0 F7500 X148.131 Y150.576 Z1.02
G1 F300 Z0.62
G1 F2700 E23.18531
G1 F1245 X148.539 Y150.216 E23.24347
G1 X148.834 Y149.998 E23.28268
G1 X148.539 Y149.78 E23.32188
G1 X148.131 Y149.42 E23.38005
G1 X147.498 Y149.998 E23.47167
G1 X148.131 Y150.576 E23.5633
G0 F7500 X148.116 Y151.552
G1 F1264.2 X148.368 Y151.499 E23.5904
G1 X149.1 Y150.854 E23.69311
G1 X149.486 Y150.569 E23.74361
G1 X150.031 Y150.307 E23.80727
G1 F1222.2 X150.71 Y149.998 E23.8885
G1 X150.031 Y149.689 E23.96973
G1 F1264.2 X149.486 Y149.427 E24.03339
G1 X149.1 Y149.142 E24.08389
G1 X148.368 Y148.497 E24.1866
G1 X148.116 Y148.444 E24.21371
G1 X147.845 Y148.518 E24.24328
G1 X147.531 Y148.819 E24.28907
G1 X146.799 Y149.486 E24.39331
G1 X146.393 Y149.795 E24.44702
G1 X145.965 Y149.998 E24.49689
G1 X146.393 Y150.201 E24.54675
G1 X146.799 Y150.51 E24.60046
G1 X147.531 Y151.177 E24.70471
G1 X147.845 Y151.479 E24.75057
G1 X148.116 Y151.552 E24.78012
G1 F2700 E24.77912
G1 F300 Z1.02
G0 F7500 X150.71 Y149.998 Z1.02
G1 F300 Z0.62
G1 F2700 E24.78012
G1 F1181.6 X151.237 Y149.998 E24.83947
G1 F2700 E24.83847
G1 F300 Z1.02
G0 F7500 X155.041 Y151.249 Z1.02
G1 F300 Z0.62
G1 F2700 E24.83947
G1 F1389.3 X155.032 Y150.004 E24.95873
G1 X155.041 Y148.751 E25.07876
G1 X154.594 Y149.423 E25.15607
G1 X154.351 Y149.76 E25.19587
G1 X154.124 Y150 E25.22751
G1 X154.351 Y150.244 E25.25944
G1 X154.592 Y150.574 E25.29858
G1 X155.041 Y151.249 E25.37623
G1 F2700 E25.37523
G1 F300 Z1.02
G0 F7500 X155.826 Y152.965 Z1.02
G1 F300 Z0.62
G1 F2700 E25.37623
G1 F1376.8 X155.803 Y150.01 E25.66188
G1 X155.826 Y147.034 E25.94955
G1 X155.483 Y147.177 E25.98548
G1 X154.791 Y147.739 E26.07165
G1 X153.953 Y148.995 E26.2176
G1 X153.752 Y149.272 E26.25068
G1 X153.459 Y149.583 E26.29198
G1 X152.957 Y149.998 E26.35494
G1 X153.459 Y150.413 E26.4179
G1 X153.752 Y150.73 E26.45962
G1 X153.951 Y151.002 E26.4922
G1 X154.791 Y152.261 E26.6385
G1 X155.485 Y152.823 E26.72482
G1 X155.826 Y152.965 E26.76053
G0 F7500 X156.618 Y154.14
G1 F1350.6 X156.585 Y150.016 E27.16689
G1 X156.617 Y145.858 E27.5766
G1 X155.079 Y146.498 E27.74074
G1 X154.206 Y147.206 E27.8515
G1 X153.302 Y148.56 E28.01191
G1 X153.145 Y148.777 E28.0383
G1 X152.916 Y149.02 E28.0712
G1 X152.581 Y149.297 E28.11404
G1 X152.097 Y149.569 E28.16874
G1 F1288.6 X151.48 Y149.897 E28.2409
G1 F1207 X151.237 Y149.998 E28.26992
G1 X151.48 Y150.099 E28.29893
G1 F1288.6 X152.097 Y150.427 E28.3711
G1 F1350.6 X152.581 Y150.699 E28.4258
G1 X152.916 Y150.976 E28.46863
G1 X153.145 Y151.224 E28.50189
G1 X153.301 Y151.436 E28.52783
G1 X154.206 Y152.793 E28.68855
G1 X155.08 Y153.502 E28.79944
G1 X156.618 Y154.14 E28.9635
G0 F7500 X157.422 Y155.221
G1 F1333.7 X157.38 Y150.022 E29.48228
G1 X157.421 Y144.776 E30.00574
G1 X157.077 Y144.806 E30.0402
G1 X154.667 Y145.808 E30.30062
G1 X153.612 Y146.664 E30.43618
G1 X152.557 Y148.243 E30.62567
G1 X152.365 Y148.448 E30.65369
G1 X152.125 Y148.646 E30.68474
G1 X151.778 Y148.841 E30.72445
G1 F1298 X151.208 Y149.103 E30.78877
G1 F1229.2 X150.789 Y149.102 E30.83413
G1 F1247.9 X150.307 Y148.904 E30.8897
G1 F1304.4 X149.922 Y148.719 E30.93328
G1 X149.649 Y148.517 E30.96793
G1 X148.753 Y147.729 E31.08967
G1 X148.093 Y147.59 E31.15848
G1 X147.423 Y147.771 E31.22929
G1 X146.971 Y148.205 E31.29322
G1 X146.239 Y148.872 E31.39426
G1 X145.952 Y149.091 E31.43109
G1 F1290.2 X145.54 Y149.314 E31.47941
G1 F1212.5 X145.072 Y149.536 E31.53627
G1 F1154.7 X144.696 Y149.536 E31.5796
G1 F1185.5 X144.41 Y149.43 E31.61384
G1 F1253.8 X143.685 Y149.192 E31.69483
G1 F1293.3 X143.424 Y149.131 E31.72241
G1 X142.854 Y149.373 E31.78613
G1 X142.67 Y149.69 E31.82385
G1 X142.61 Y150 E31.85634
G1 X142.67 Y150.31 E31.88883
G1 X142.852 Y150.625 E31.92626
G1 X143.424 Y150.866 E31.99013
G1 X143.684 Y150.806 E32.01759
G1 F1253.8 X144.41 Y150.566 E32.09875
G1 F1185.5 X144.696 Y150.46 E32.13298
G1 F1154.7 X145.072 Y150.46 E32.17632
G1 F1212.5 X145.54 Y150.682 E32.23317
G1 F1290.2 X145.952 Y150.905 E32.28149
G1 F1304.4 X146.239 Y151.124 E32.31833
G1 X146.971 Y151.791 E32.41936
G1 X147.422 Y152.226 E32.48329
G1 X148.093 Y152.406 E32.55417
G1 X148.753 Y152.267 E32.62299
G1 X149.649 Y151.479 E32.74472
G1 X149.922 Y151.277 E32.77937
G1 X150.307 Y151.092 E32.82295
G1 F1247.9 X150.789 Y150.894 E32.87852
G1 F1229.2 X151.208 Y150.893 E32.92388
G1 F1298 X151.778 Y151.155 E32.9882
G1 F1333.7 X152.125 Y151.35 E33.02791
G1 X152.365 Y151.548 E33.05896
G1 X152.566 Y151.767 E33.08862
G1 X153.612 Y153.334 E33.27661
G1 X154.668 Y154.192 E33.41237
G1 X157.075 Y155.191 E33.67241
G1 X157.422 Y155.221 E33.70716
G0 F7500 X158.229 Y156.096
G1 F1333.7 X158.18 Y150.028 E34.31265
G1 X158.228 Y143.901 E34.92402
G1 X156.883 Y144.02 E35.05875
G1 X154.253 Y145.114 E35.34297
G1 X153.014 Y146.118 E35.50209
G1 X151.908 Y147.768 E35.7003
G1 F1322.2 X151.592 Y148.058 E35.74347
G1 F1299.6 X151.121 Y148.232 E35.79488
G1 F1267.2 X150.867 Y148.232 E35.82156
G1 F1288.6 X150.577 Y148.14 E35.85298
G1 F1333.7 X150.288 Y148.002 E35.88493
G1 X149.128 Y146.982 E36.03906
G1 X148.07 Y146.758 E36.14697
G1 X147.011 Y147.043 E36.2564
G1 X146.426 Y147.607 E36.33748
G1 X145.587 Y148.372 E36.45077
G1 F1320.5 X145.274 Y148.532 E36.4862
G1 F1247.9 X144.993 Y148.631 E36.51797
G1 F1192.2 X144.775 Y148.631 E36.5423
G1 F1247.9 X143.871 Y148.393 E36.64199
G1 F1309.2 X143.351 Y148.273 E36.69624
G1 X142.282 Y148.724 E36.81418
G1 X141.891 Y149.398 E36.89338
G1 X141.774 Y150 E36.95572
G1 X141.891 Y150.602 E37.01806
G1 X142.281 Y151.275 E37.09713
G1 X143.351 Y151.724 E37.21509
G1 X143.87 Y151.604 E37.26923
G1 F1247.9 X144.775 Y151.365 E37.36905
G1 F1192.2 X144.993 Y151.365 E37.39339
G1 F1247.9 X145.274 Y151.464 E37.42516
G1 F1320.5 X145.587 Y151.624 E37.46059
G1 F1333.7 X146.426 Y152.389 E37.57388
G1 X147.011 Y152.953 E37.65496
G1 X148.07 Y153.238 E37.76439
G1 X149.128 Y153.014 E37.87229
G1 X150.288 Y151.994 E38.02642
G1 X150.577 Y151.856 E38.05838
G1 F1288.6 X150.867 Y151.764 E38.0898
G1 F1267.2 X151.121 Y151.764 E38.11647
G1 F1299.6 X151.593 Y151.938 E38.16798
G1 F1322.2 X151.908 Y152.23 E38.21122
G1 F1333.7 X153.014 Y153.879 E38.40934
G1 X154.254 Y154.886 E38.56872
G1 X156.882 Y155.977 E38.85265
G1 X158.229 Y156.096 E38.98757
G0 F7500 X159.036 Y156.97
;TYPE:WALL-OUTER
G1 F1333.7 X158.98 Y150.034 E39.67967
G1 X159.036 Y143.026 E40.37896
G1 X156.689 Y143.234 E40.61406
G1 X153.839 Y144.42 E40.92207
G1 X152.416 Y145.573 E41.10482
G1 X151.287 Y147.262 E41.30753
G1 X151.045 Y147.403 E41.33548
G1 X150.843 Y147.386 E41.35571
G1 X150.711 Y147.309 E41.37095
G1 X149.498 Y146.242 E41.53215
G1 X148.048 Y145.936 E41.68002
G1 X146.604 Y146.324 E41.82921
G1 X145.886 Y147.016 E41.92871
G1 X145.118 Y147.717 E42.03247
G1 X144.849 Y147.787 E42.0602
G1 X143.28 Y147.427 E42.22082
G1 X141.719 Y148.085 E42.38985
G1 X141.124 Y149.111 E42.5082
G1 X140.952 Y150 E42.59855
G1 X141.124 Y150.889 E42.6889
G1 X141.719 Y151.914 E42.80715
G1 X143.28 Y152.569 E42.97607
G1 X144.849 Y152.209 E43.13669
G1 X145.118 Y152.279 E43.16443
G1 X145.894 Y152.988 E43.26931
G1 X146.604 Y153.672 E43.36768
G1 X148.048 Y154.06 E43.51687
G1 X149.498 Y153.754 E43.66474
G1 X150.745 Y152.657 E43.83046
G1 X150.94 Y152.589 E43.85107
G1 X151.244 Y152.67 E43.88246
G1 X152.416 Y154.423 E44.09286
G1 X153.84 Y155.58 E44.27594
