;FLAVOR:Marlin
;TIME:247
;Filament used: 0.326692m
;Layer height: 0.32
;MINX:127.583
;MINY:126.759
;MINZ:0.32
;MAXX:172.405
;MAXY:173.238
;MAXZ:2.24
;TARGET_MACHINE.NAME:Creality CR-10
;Generated with Cura_SteamEngine 5.7.1
M140 S50
M105
M190 S50
M104 S200
M105
M109 S200
M82 ;absolute extrusion mode
M201 X500.00 Y500.00 Z100.00 E5000.00 ;Setup machine max acceleration
M203 X500.00 Y500.00 Z10.00 E50.00 ;Setup machine max feedrate
M204 P500.00 R1000.00 T500.00 ;Setup Print/Retract/Travel acceleration
M205 X8.00 Y8.00 Z0.40 E5.00 ;Setup Jerk
M220 S100 ;Reset Feedrate
M221 S100 ;Reset Flowrate

G28 ;Home

G92 E0 ;Reset Extruder
G1 Z2.0 F3000 ;Move Z Axis up
G1 X10.1 Y20 Z0.28 F5000.0 ;Move to start position
G1 X10.1 Y200.0 Z0.28 F1500.0 E15 ;Draw the first line
G1 X10.4 Y200.0 Z0.28 F5000.0 ;Move to side a little
G1 X10.4 Y20 Z0.28 F1500.0 E30 ;Draw the second line
G92 E0 ;Reset Extruder
G1 Z2.0 F3000 ;Move Z Axis up

G92 E0
G92 E0
G1 F2700 E-10
;LAYER_COUNT:7
;LAYER:0
M107
G0 F6000 X131.896 Y133.778 Z0.32
;TYPE:SKIRT
G1 F2700 E0
G1 F1200 X132.777 Y132.968 E0.12738
G1 X133.614 Y132.332 E0.23926
G1 X134.442 Y131.808 E0.34355
G1 X135.31 Y131.353 E0.44786
G1 X136.417 Y130.896 E0.57532
G1 X137.36 Y130.603 E0.68042
G1 X138.528 Y130.351 E0.80759
G1 X141.236 Y129.913 E1.09956
G1 X143.689 Y129.444 E1.36537
G1 X146.098 Y128.914 E1.62789
G1 X148.442 Y128.328 E1.88505
G1 X151.241 Y127.537 E2.19462
G1 X152.054 Y127.295 E2.2849
G1 X153.04 Y127.049 E2.39306
G1 X154.009 Y126.891 E2.49756
G1 X154.868 Y126.818 E2.58931
G1 X155.862 Y126.773 E2.69522
G1 X156.631 Y126.759 E2.77708
G1 X157.543 Y126.781 E2.87417
G1 X158.656 Y126.902 E2.99333
G1 X159.62 Y127.094 E3.09794
G1 X160.698 Y127.409 E3.21748
G1 X161.678 Y127.794 E3.32954
G1 X162.683 Y128.299 E3.44925
G1 X163.531 Y128.823 E3.55534
G1 X164.702 Y129.726 E3.71273
G1 X165.403 Y130.344 E3.81219
G1 X165.732 Y130.649 E3.85994
G1 X166.517 Y131.45 E3.97931
G1 X167.099 Y132.152 E4.07636
G1 X167.739 Y133.075 E4.1959
G1 X168.251 Y133.975 E4.30611
G1 X168.499 Y134.488 E4.36675
G1 X169.147 Y135.914 E4.53346
G1 X170.251 Y138.244 E4.80788
G1 X170.765 Y139.28 E4.93097
G1 X171.189 Y140.246 E5.04325
G1 X171.529 Y141.242 E5.15526
G1 X171.794 Y142.331 E5.27455
G1 X171.933 Y143.232 E5.37158
G1 X171.997 Y143.994 E5.45297
G1 X172.272 Y147.93 E5.87291
G1 X172.364 Y149.016 E5.98891
G1 X172.405 Y150.132 E6.10776
G1 X172.366 Y151.012 E6.20152
G1 X172.121 Y153.985 E6.51901
G1 X171.985 Y156.192 E6.75436
G1 X171.89 Y157.099 E6.85142
G1 X171.661 Y158.272 E6.97862
G1 X171.386 Y159.213 E7.08296
G1 X171.014 Y160.179 E7.19314
G1 X170.773 Y160.698 E7.25404
G1 X170.336 Y161.585 E7.35928
G1 X168.897 Y164.638 E7.7185
G1 X168.493 Y165.53 E7.82272
G1 X168.082 Y166.344 E7.91978
G1 X167.454 Y167.357 E8.04663
G1 X166.907 Y168.087 E8.14372
G1 X166.136 Y168.953 E8.26713
G1 X165.772 Y169.307 E8.32117
G1 X165.091 Y169.937 E8.41991
G1 X164.734 Y170.251 E8.47051
G1 X163.857 Y170.951 E8.58994
G1 X163.041 Y171.493 E8.6942
G1 X162.182 Y171.968 E8.79867
G1 X161.089 Y172.45 E8.92581
G1 X160.225 Y172.743 E9.02291
G1 X159.062 Y173.025 E9.15028
G1 X157.995 Y173.178 E9.26501
G1 X156.59 Y173.238 E9.41468
G1 X155.482 Y173.212 E9.53264
G1 X154.837 Y173.18 E9.60137
G1 X153.722 Y173.068 E9.72064
G1 X152.305 Y172.775 E9.87465
G1 X151.757 Y172.622 E9.9352
G1 X149.831 Y172.049 E10.14907
G1 X147.411 Y171.405 E10.4156
G1 X144.973 Y170.829 E10.68223
G1 X142.558 Y170.331 E10.94467
G1 X140.061 Y169.886 E11.21462
G1 X138.532 Y169.647 E11.37933
G1 X137.638 Y169.467 E11.47639
G1 X136.495 Y169.131 E11.60319
G1 X135.646 Y168.798 E11.70025
G1 X134.575 Y168.265 E11.82758
G1 X133.74 Y167.75 E11.93199
G1 X132.841 Y167.08 E12.05133
G1 X132.107 Y166.427 E12.15589
G1 X131.337 Y165.609 E12.27545
G1 X130.725 Y164.831 E12.38081
G1 X130.044 Y163.78 E12.5141
G1 X129.661 Y163.113 E12.59596
G1 X129.279 Y162.407 E12.68139
G1 X128.822 Y161.448 E12.79446
G1 X128.43 Y160.393 E12.91425
G1 X128.169 Y159.439 E13.01951
G1 X127.962 Y158.275 E13.14535
G1 X127.802 Y156.932 E13.2893
G1 X127.671 Y155.564 E13.43556
G1 X127.625 Y154.761 E13.52117
G1 X127.595 Y153.367 E13.66957
G1 X127.583 Y149.513 E14.07976
G1 X127.595 Y146.349 E14.41651
G1 X127.61 Y145.555 E14.50104
G1 X127.646 Y144.864 E14.57468
G1 X127.765 Y143.435 E14.7273
G1 X127.926 Y141.939 E14.88744
G1 X128.063 Y141.037 E14.98455
G1 X128.346 Y139.876 E15.11173
G1 X128.697 Y138.861 E15.22604
G1 X129.203 Y137.754 E15.35558
G1 X129.63 Y136.945 E15.45294
G1 X130.029 Y136.238 E15.53935
G1 X130.639 Y135.281 E15.66014
G1 X131.192 Y134.557 E15.7571
G1 X131.896 Y133.778 E15.86885
G0 F6000 X132.488 Y134.316
G1 F1200 X133.263 Y133.604 E15.98086
G1 X134.044 Y133.007 E16.08549
G1 X134.813 Y132.517 E16.18254
G1 X135.681 Y132.062 E16.28685
G1 X136.654 Y131.66 E16.3989
G1 X137.597 Y131.367 E16.50399
G1 X138.656 Y131.141 E16.61924
G1 X141.371 Y130.702 E16.91196
G1 X143.839 Y130.23 E17.1794
G1 X146.287 Y129.691 E17.44618
G1 X148.66 Y129.098 E17.70652
G1 X151.47 Y128.304 E18.0173
G1 X152.25 Y128.071 E18.10394
G1 X153.169 Y127.839 E18.20482
G1 X154.138 Y127.681 E18.30932
G1 X154.904 Y127.617 E18.39113
G1 X155.877 Y127.573 E18.49479
G1 X156.612 Y127.559 E18.57304
G1 X157.524 Y127.581 E18.67013
G1 X158.5 Y127.687 E18.77462
G1 X159.464 Y127.879 E18.87924
G1 X160.405 Y128.154 E18.98358
G1 X161.385 Y128.539 E19.09564
G1 X162.262 Y128.98 E19.20012
G1 X163.11 Y129.504 E19.30622
G1 X164.173 Y130.326 E19.44923
G1 X164.859 Y130.931 E19.54658
G1 X165.188 Y131.236 E19.59433
G1 X165.901 Y131.961 E19.70256
G1 X166.483 Y132.663 E19.79961
G1 X167.044 Y133.471 E19.90431
G1 X167.556 Y134.371 E20.01451
G1 X167.771 Y134.819 E20.0674
G1 X168.424 Y136.256 E20.23539
G1 X169.534 Y138.6 E20.51143
G1 X170.048 Y139.636 E20.63452
G1 X170.456 Y140.567 E20.7427
G1 X170.771 Y141.498 E20.84731
G1 X171.003 Y142.453 E20.95191
G1 X171.142 Y143.354 E21.04894
G1 X171.198 Y144.035 E21.12167
G1 X171.215 Y144.366 E21.15694
G1 X171.475 Y147.998 E21.54449
G1 X171.567 Y149.084 E21.66049
G1 X171.606 Y150.097 E21.76839
G1 X171.569 Y150.946 E21.85884
G1 X171.324 Y153.919 E22.17633
G1 X171.189 Y156.109 E22.40986
G1 X171.094 Y157.016 E22.50692
G1 X170.892 Y158.05 E22.61905
G1 X170.639 Y158.926 E22.7161
G1 X170.267 Y159.892 E22.82627
G1 X170.056 Y160.344 E22.87937
G1 X169.612 Y161.244 E22.98618
G1 X168.173 Y164.297 E23.3454
G1 X167.779 Y165.169 E23.44724
G1 X167.368 Y165.983 E23.5443
G1 X166.814 Y166.877 E23.65624
G1 X166.267 Y167.607 E23.75332
G1 X165.578 Y168.38 E23.86353
G1 X165.229 Y168.72 E23.91539
G1 X164.563 Y169.336 E24.01195
G1 X164.206 Y169.65 E24.06255
G1 X163.412 Y170.286 E24.17082
G1 X162.654 Y170.793 E24.26788
G1 X161.795 Y171.268 E24.37236
G1 X160.832 Y171.692 E24.48435
G1 X159.968 Y171.985 E24.58145
G1 X158.945 Y172.234 E24.69351
G1 X157.96 Y172.379 E24.79947
G1 X156.608 Y172.438 E24.94351
G1 X155.522 Y172.413 E25.05912
G1 X154.877 Y172.381 E25.12785
G1 X153.883 Y172.284 E25.23415
G1 X152.52 Y172.004 E25.38225
G1 X151.985 Y171.855 E25.44136
G1 X150.054 Y171.281 E25.65577
G1 X147.595 Y170.626 E25.92661
G1 X145.142 Y170.046 E26.19489
G1 X142.717 Y169.546 E26.45841
G1 X140.201 Y169.099 E26.73039
G1 X138.69 Y168.863 E26.89316
G1 X137.796 Y168.683 E26.99022
G1 X136.787 Y168.386 E27.10217
G1 X135.938 Y168.053 E27.19923
G1 X134.995 Y167.584 E27.31132
G1 X134.16 Y167.069 E27.41574
G1 X133.373 Y166.482 E27.52023
G1 X132.639 Y165.829 E27.6248
G1 X131.966 Y165.114 E27.7293
G1 X131.354 Y164.336 E27.83466
G1 X130.738 Y163.381 E27.95561
G1 X130.365 Y162.732 E28.03528
G1 X129.983 Y162.026 E28.12072
G1 X129.571 Y161.167 E28.22211
G1 X129.202 Y160.182 E28.33406
G1 X128.941 Y159.228 E28.43933
G1 X128.75 Y158.137 E28.55722
G1 X128.598 Y156.856 E28.69451
G1 X128.47 Y155.518 E28.83757
G1 X128.425 Y154.744 E28.92009
G1 X128.395 Y153.365 E29.06689
G1 X128.383 Y149.516 E29.47655
G1 X128.395 Y146.364 E29.81203
G1 X128.409 Y145.596 E29.89378
G1 X128.443 Y144.93 E29.96476
G1 X128.56 Y143.52 E30.11535
G1 X128.717 Y142.059 E30.27174
G1 X128.854 Y141.157 E30.36884
G1 X129.103 Y140.135 E30.4808
G1 X129.425 Y139.194 E30.58665
G1 X129.931 Y138.087 E30.7162
G1 X130.327 Y137.338 E30.80637
G1 X130.726 Y136.631 E30.89277
G1 X131.275 Y135.767 E31.00173
G1 X131.828 Y135.043 E31.09869
G1 X132.488 Y134.316 E31.2032
G0 F6000 X133.079 Y134.855
G1 F1200 X133.751 Y134.238 E31.30029
G1 X134.474 Y133.682 E31.39737
G1 X135.243 Y133.192 E31.49442
G1 X136.051 Y132.771 E31.59139
G1 X136.894 Y132.423 E31.68845
G1 X137.764 Y132.149 E31.78553
G1 X138.784 Y131.931 E31.89655
G1 X141.506 Y131.491 E32.19002
G1 X143.989 Y131.016 E32.45908
G1 X146.476 Y130.468 E32.73013
G1 X148.869 Y129.87 E32.99265
G1 X151.699 Y129.071 E33.30563
G1 X152.479 Y128.838 E33.39227
G1 X153.364 Y128.615 E33.48941
G1 X154.264 Y128.471 E33.58642
G1 X154.94 Y128.416 E33.6586
G1 X155.893 Y128.373 E33.76014
G1 X156.593 Y128.359 E33.83465
G1 X157.505 Y128.381 E33.93175
G1 X158.411 Y128.482 E34.02877
G1 X159.305 Y128.663 E34.12586
G1 X160.179 Y128.921 E34.22285
G1 X161.028 Y129.255 E34.31995
G1 X161.844 Y129.662 E34.417
G1 X162.622 Y130.138 E34.51407
G1 X163.644 Y130.926 E34.65143
G1 X164.315 Y131.518 E34.74666
G1 X164.644 Y131.823 E34.79441
G1 X165.285 Y132.472 E34.8915
G1 X165.867 Y133.174 E34.98855
G1 X166.385 Y133.925 E35.08565
G1 X166.835 Y134.718 E35.1827
G1 X167.043 Y135.15 E35.23373
G1 X167.701 Y136.598 E35.40301
G1 X168.817 Y138.956 E35.68066
G1 X169.331 Y139.992 E35.80375
G1 X169.699 Y140.826 E35.90077
G1 X169.994 Y141.689 E35.99784
G1 X170.212 Y142.575 E36.09495
G1 X170.351 Y143.476 E36.19198
G1 X170.399 Y144.076 E36.25605
G1 X170.417 Y144.423 E36.29303
G1 X170.678 Y148.066 E36.68176
G1 X170.77 Y149.152 E36.79776
G1 X170.807 Y150.063 E36.8948
G1 X170.772 Y150.88 E36.98183
G1 X170.527 Y153.853 E37.29933
G1 X170.393 Y156.026 E37.53105
G1 X170.298 Y156.933 E37.62811
G1 X170.123 Y157.828 E37.72517
G1 X169.87 Y158.704 E37.82221
G1 X169.542 Y159.554 E37.91918
G1 X169.339 Y159.99 E37.97037
G1 X168.888 Y160.903 E38.07875
G1 X167.449 Y163.956 E38.43798
G1 X167.065 Y164.808 E38.53744
G1 X166.654 Y165.622 E38.63449
G1 X166.174 Y166.397 E38.73152
G1 X165.627 Y167.127 E38.82861
G1 X165.019 Y167.807 E38.92569
G1 X164.685 Y168.133 E38.97537
G1 X164.035 Y168.735 E39.06966
G1 X163.678 Y169.049 E39.12026
G1 X162.967 Y169.621 E39.21739
G1 X162.209 Y170.128 E39.31444
G1 X161.41 Y170.567 E39.41147
G1 X160.575 Y170.934 E39.50855
G1 X159.711 Y171.227 E39.60565
G1 X158.825 Y171.443 E39.70271
G1 X157.924 Y171.58 E39.79971
G1 X156.626 Y171.638 E39.938
G1 X155.561 Y171.614 E40.05138
G1 X154.951 Y171.584 E40.11638
G1 X154.043 Y171.5 E40.21343
G1 X152.734 Y171.233 E40.35562
G1 X152.213 Y171.088 E40.41318
G1 X150.278 Y170.513 E40.62803
G1 X147.779 Y169.847 E40.90329
G1 X145.326 Y169.268 E41.17154
G1 X142.857 Y168.758 E41.43987
G1 X140.341 Y168.312 E41.71183
G1 X138.848 Y168.079 E41.87265
G1 X137.954 Y167.899 E41.96971
G1 X137.079 Y167.641 E42.06681
G1 X136.23 Y167.308 E42.16387
G1 X135.413 Y166.902 E42.26097
G1 X134.636 Y166.426 E42.35795
G1 X133.903 Y165.883 E42.45504
G1 X133.22 Y165.279 E42.55208
G1 X132.593 Y164.617 E42.64913
G1 X132.026 Y163.902 E42.74625
G1 X131.432 Y162.983 E42.86271
G1 X131.069 Y162.351 E42.94029
G1 X130.687 Y161.645 E43.02572
G1 X130.293 Y160.822 E43.12283
G1 X129.973 Y159.968 E43.2199
G1 X129.729 Y159.09 E43.31689
G1 X129.538 Y157.999 E43.43477
G1 X129.394 Y156.78 E43.56542
G1 X129.269 Y155.471 E43.70537
G1 X129.225 Y154.726 E43.7848
G1 X129.195 Y153.363 E43.9299
G1 X129.183 Y149.519 E44.33903
G1 X129.195 Y146.378 E44.67334
G1 X129.208 Y145.636 E44.75232
G1 X129.24 Y144.996 E44.82052
G1 X129.355 Y143.605 E44.96908
G1 X129.508 Y142.179 E45.12172
G1 X129.645 Y141.277 E45.21882
G1 X129.861 Y140.391 E45.31588
G1 X130.153 Y139.527 E45.41295
G1 X130.659 Y138.42 E45.5425
G1 X131.024 Y137.731 E45.62548
G1 X131.423 Y137.024 E45.71189
G1 X131.911 Y136.253 E45.809
G1 X132.464 Y135.529 E45.90597
G1 X133.079 Y134.855 E46.00308
G1 F2700 E36.00308
;MESH:2dQueen.stl
G0 F6000 X154.05 Y139.706
G0 X156.154 Y140.016
;TYPE:WALL-INNER
G1 F2700 E46.00308
G1 F848.1 X156.014 Y140.016 E46.02416
G1 X155.943 Y140.138 E46.04542
G1 X156.014 Y140.26 E46.06668
G1 X156.154 Y140.26 E46.08776
G1 X156.225 Y140.138 E46.10902
G1 F2700 E36.10902
G0 F6000 X156.535 Y140.55
G0 X157.92 Y144.316
G0 X158.385 Y144.658
G1 F2700 E46.10902
G1 F802.7 X158.237 Y144.658 E46.13257
G1 X158.162 Y144.787 E46.15631
G1 X158.237 Y144.916 E46.18006
G1 X158.385 Y144.916 E46.20361
G1 X158.46 Y144.787 E46.22735
G1 F2700 E36.22735
G0 F6000 X158.746 Y145.373
G0 X158.746 Y149.33
G0 X158.754 Y150.343
G1 F2700 E46.22735
G1 F1391.3 X159.004 Y150.343 E46.2503
G1 X159.241 Y150.273 E46.27298
G1 X159.267 Y150.02 E46.29633
G1 X159.241 Y149.726 E46.32342
G1 X159.003 Y149.653 E46.34628
G1 X158.754 Y149.653 E46.36913
G1 X158.335 Y149.998 E46.41896
G1 X158.754 Y150.343 E46.46878
G1 F2700 E36.46878
G0 F6000 X158.639 Y150.672
G0 X158.678 Y154.609
G0 X158.385 Y155.08
G1 F2700 E46.46878
G1 F802.7 X158.237 Y155.08 E46.49233
G1 X158.162 Y155.209 E46.51608
G1 X158.237 Y155.338 E46.53982
G1 X158.385 Y155.338 E46.56337
G1 X158.46 Y155.209 E46.58711
G1 F2700 E36.58711
G0 F6000 X157.92 Y155.684
G0 X156.467 Y159.424
G0 X156.154 Y159.738
G1 F2700 E46.58711
G1 F849.6 X156.014 Y159.738 E46.60816
G1 X155.943 Y159.86 E46.62938
G1 X156.014 Y159.982 E46.6506
G1 X156.154 Y159.982 E46.67165
G1 X156.225 Y159.86 E46.69287
G1 F2700 E36.69287
G0 F6000 X155.545 Y159.439
G0 X152.746 Y158.419
G0 X150.944 Y157.758
G1 F2700 E46.69287
G1 F1200 X149.532 Y156.93 E46.86708
G1 X149.181 Y156.54 E46.92293
G1 X149.04 Y156.124 E46.96968
G1 X149.06 Y155.675 E47.01751
G1 X149.23 Y155.02 E47.08954
G1 X149.375 Y154.768 E47.12048
G1 X149.592 Y154.533 E47.15452
G1 X149.861 Y154.365 E47.18828
G1 X150.345 Y154.26 E47.24099
G1 X152.525 Y154.241 E47.47302
G1 X150.503 Y153.446 E47.70426
G1 X150.093 Y153.167 E47.75705
G1 X149.906 Y152.911 E47.79079
G1 X149.792 Y152.613 E47.82475
G1 X149.753 Y152.351 E47.85294
G1 X149.825 Y151.537 E47.93991
G1 X150.022 Y151.116 E47.98938
G1 X150.322 Y150.849 E48.03213
G1 X150.745 Y150.667 E48.08114
G1 X153.822 Y149.999 E48.41626
G1 X150.745 Y149.329 E48.75143
G1 X150.322 Y149.147 E48.80044
G1 X150.022 Y148.88 E48.84318
G1 X149.824 Y148.458 E48.8928
G1 X149.754 Y147.639 E48.98028
G1 X149.792 Y147.383 E49.00783
G1 X149.906 Y147.084 E49.04188
G1 X150.094 Y146.828 E49.07569
G1 X150.502 Y146.55 E49.12824
G1 X152.522 Y145.756 E49.35924
G1 X150.344 Y145.736 E49.59106
G1 X149.862 Y145.63 E49.64359
G1 X149.593 Y145.462 E49.67734
G1 X149.375 Y145.229 E49.7113
G1 X149.229 Y144.974 E49.74258
G1 X149.06 Y144.321 E49.81437
G1 X149.04 Y143.872 E49.8622
G1 X149.181 Y143.456 E49.90895
G1 X149.532 Y143.066 E49.9648
G1 X150.95 Y142.237 E50.13962
G1 X149.279 Y142.478 E50.31931
G1 X147.671 Y142.798 E50.49381
G1 X146.593 Y143.523 E50.63207
G1 X145.635 Y144.594 E50.78501
G1 X145.386 Y144.771 E50.81753
G1 X145.11 Y144.877 E50.84899
G1 X144.871 Y144.917 E50.87479
G1 X143.818 Y144.863 E50.98701
G1 X143.509 Y144.806 E51.02045
G1 X143.165 Y144.629 E51.06162
G1 X142.411 Y143.961 E51.16884
G1 X141.447 Y143.377 E51.2888
G1 X141.149 Y143.381 E51.32052
G1 X141.01 Y143.631 E51.35096
G1 X140.796 Y145.744 E51.577
G1 X140.78 Y149.486 E51.97528
G1 X140.796 Y154.253 E52.48264
G1 X141.01 Y156.365 E52.70858
G1 X141.149 Y156.615 E52.73902
G1 X141.447 Y156.619 E52.77074
G1 X142.41 Y156.035 E52.89061
G1 X143.164 Y155.368 E52.99776
G1 X143.512 Y155.189 E53.03941
G1 X143.823 Y155.133 E53.07304
G1 X144.993 Y155.079 E53.1977
G1 X145.385 Y155.228 E53.24233
G1 X145.621 Y155.381 E53.27227
G1 X146.592 Y156.472 E53.42771
G1 X147.671 Y157.198 E53.56613
G1 X149.296 Y157.521 E53.74247
G1 X150.944 Y157.758 E53.91967
G1 F2700 E43.91967
G0 F6000 X152.746 Y158.419
G0 X155.545 Y159.439
G0 X154.259 Y158.961
;TYPE:WALL-OUTER
G1 F2700 E53.91967
G1 F1086 X154.038 Y158.843 E53.94914
G1 F1151.1 X153.032 Y158.127 E54.08614
G1 F1200 X152.238 Y157.587 E54.18834
G1 X149.996 Y156.278 E54.46466
G1 X149.879 Y156.148 E54.48327
G1 X149.832 Y156.01 E54.49879
G1 X149.838 Y155.859 E54.51487
G1 X149.992 Y155.293 E54.5773
G1 X150.191 Y155.095 E54.60718
G1 X150.352 Y155.06 E54.62472
