;FLAVOR:Marlin
;TIME:154
;Filament used: 0.233621m
;Layer height: 0.3
;MINX:139.982
;MINY:139.154
;MINZ:0.32
;MAXX:160.016
;MAXY:160.846
;MAXZ:2.52
;TARGET_MACHINE.NAME:Creality CR-10
;Generated with Cura_SteamEngine 5.7.1
M140 S50
M105
M190 S50
M104 S200
M105
M109 S200
M82 ;absolute extrusion mode
M201 X500.00 Y500.00 Z100.00 E5000.00 ;Setup machine max acceleration
M203 X500.00 Y500.00 Z10.00 E50.00 ;Setup machine max feedrate
M204 P500.00 R1000.00 T500.00 ;Setup Print/Retract/Travel acceleration
M205 X8.00 Y8.00 Z0.40 E5.00 ;Setup Jerk
M220 S100 ;Reset Feedrate
M221 S100 ;Reset Flowrate

G28 ;Home

G92 E0 ;Reset Extruder
G1 Z2.0 F3000 ;Move Z Axis up
G1 X10.1 Y20 Z0.28 F5000.0 ;Move to start position
G1 X10.1 Y200.0 Z0.28 F1500.0 E15 ;Draw the first line
G1 X10.4 Y200.0 Z0.28 F5000.0 ;Move to side a little
G1 X10.4 Y20 Z0.28 F1500.0 E30 ;Draw the second line
G92 E0 ;Reset Extruder
G1 Z2.0 F3000 ;Move Z Axis up

G92 E0
G92 E0
G1 F2700 E-0.001
;LAYER_COUNT:7
;LAYER:0
M107
G1 F300 Z0.72
;MESH:2dQueen.stl
G0 F6000 X143.982 Y140.016 Z0.72
;TYPE:WALL-INNER
G1 F300 Z0.32
G1 F2700 E0
G1 F849.6 X143.842 Y140.016 E0.02105
G1 X143.771 Y140.138 E0.04227
G1 X143.842 Y140.26 E0.06349
G1 X143.982 Y140.26 E0.08454
G1 X144.053 Y140.138 E0.10576
G1 F2700 E0.10476
G1 F300 Z0.72
G0 F6000 X141.761 Y144.658 Z0.72
G1 F300 Z0.32
G1 F2700 E0.10576
G1 F804 X141.613 Y144.658 E0.12927
G1 X141.538 Y144.787 E0.15297
G1 X141.613 Y144.916 E0.17667
G1 X141.761 Y144.916 E0.20018
G1 X141.836 Y144.787 E0.22389
G1 F2700 E0.22289
G1 F300 Z0.72
G0 F6000 X141.242 Y150.343 Z0.72
G1 F300 Z0.32
G1 F2700 E0.22389
G1 F1391.3 X141.661 Y149.998 E0.27371
G1 X141.242 Y149.653 E0.32353
G1 X140.992 Y149.653 E0.34648
G1 X140.749 Y149.737 E0.37009
G1 X140.729 Y149.972 E0.39174
G1 X140.758 Y150.273 E0.4195
G1 X140.992 Y150.343 E0.44192
G1 X141.242 Y150.343 E0.46487
G1 F2700 E0.46387
G1 F300 Z0.72
G0 F6000 X141.761 Y155.08 Z0.72
G1 F300 Z0.32
G1 F2700 E0.46487
G1 F804 X141.613 Y155.08 E0.48838
G1 X141.538 Y155.209 E0.51208
G1 X141.613 Y155.338 E0.53578
G1 X141.761 Y155.338 E0.55929
G1 X141.836 Y155.209 E0.583
G1 F2700 E0.582
G1 F300 Z0.72
G0 F6000 X143.982 Y159.738 Z0.72
G1 F300 Z0.32
G1 F2700 E0.583
G1 F848.1 X143.842 Y159.738 E0.60408
G1 X143.771 Y159.86 E0.62534
G1 X143.842 Y159.982 E0.6466
G1 X143.982 Y159.982 E0.66768
G1 X144.053 Y159.86 E0.68894
G1 F2700 E0.68794
G1 F300 Z0.72
G0 F6000 X154.665 Y150.918 Z0.72
G1 F300 Z0.32
G1 F2700 E0.68894
G1 F1040.1 X155.016 Y150.909 E0.73206
G1 X155.02 Y149.999 E0.8438
G1 F1059.6 X155.076 Y149.471 E0.9078
G1 F1079.9 X155.074 Y149.037 E0.95913
G1 X154.672 Y149.029 E1.00669
G1 X154.272 Y148.974 E1.05444
G1 X154.196 Y149.371 E1.10225
G1 F1059.6 X154.118 Y149.853 E1.1611
G1 F1040.1 X154.072 Y149.979 E1.17757
G1 X154.251 Y150.619 E1.25918
G1 X154.319 Y150.962 E1.30212
G1 X154.665 Y150.918 E1.34495
G1 F2700 E1.34395
G1 F300 Z0.72
G0 F6000 X153.519 Y152.11 Z0.72
G1 F300 Z0.32
G1 F2700 E1.34495
G1 F1072.6 X154.098 Y151.934 E1.417
G1 X154.447 Y151.862 E1.45944
G1 X154.751 Y151.823 E1.49593
G1 X155.386 Y151.806 E1.57157
G1 X155.922 Y151.831 E1.63546
G1 X155.929 Y150.002 E1.85324
G1 F1089.7 X155.954 Y149.467 E1.91602
G1 F1106 X155.948 Y148.14 E2.06926
G1 X155.403 Y148.168 E2.13228
G1 X154.754 Y148.154 E2.20724
G1 X154.449 Y148.115 E2.24275
G1 X154.099 Y148.043 E2.28401
G1 X153.498 Y147.86 E2.35656
G1 X153.444 Y148.515 E2.43246
G1 X153.401 Y148.869 E2.47364
G1 F1089.7 X153.255 Y149.567 E2.55722
G1 F1072.6 X153.083 Y149.998 E2.61248
G1 X153.255 Y150.429 E2.66773
G1 X153.365 Y150.824 E2.71655
G1 X153.425 Y151.125 E2.7531
G1 X153.467 Y151.479 E2.79555
G1 X153.519 Y152.11 E2.87093
G1 F2700 E2.86993
G1 F300 Z0.72
G0 F6000 X152.748 Y153.605 Z0.72
G1 F300 Z0.32
G1 F2700 E2.87093
G1 F1145.6 X152.958 Y153.427 E2.90163
G1 X153.474 Y153.093 E2.97015
G1 X153.947 Y152.884 E3.02781
G1 X154.306 Y152.774 E3.06967
G1 X154.724 Y152.688 E3.11725
G1 X155.345 Y152.671 E3.18651
G1 X156.289 Y152.715 E3.29186
G1 X156.785 Y152.804 E3.34805
G1 F1152.5 X156.802 Y149.463 E3.71831
G1 F1159.4 X156.792 Y147.183 E3.96947
G1 X156.304 Y147.273 E4.02413
G1 X155.36 Y147.321 E4.12826
G1 X154.733 Y147.308 E4.19734
G1 X154.304 Y147.22 E4.24558
G1 X153.945 Y147.111 E4.28691
G1 X153.473 Y146.9 E4.34386
G1 X152.958 Y146.566 E4.41148
G1 X152.745 Y146.384 E4.44234
G1 X152.534 Y146.71 E4.48512
G1 X152.644 Y147.433 E4.56568
G1 X152.639 Y147.951 E4.62275
G1 X152.599 Y148.447 E4.67756
G1 X152.564 Y148.734 E4.70941
G1 X152.512 Y148.998 E4.73905
G1 F1152.5 X152.414 Y149.367 E4.78136
G1 F1145.6 X152.26 Y149.721 E4.8244
G1 X152.108 Y149.998 E4.85963
G1 X152.26 Y150.275 E4.89485
G1 X152.411 Y150.623 E4.93715
G1 X152.555 Y151.139 E4.99687
G1 X152.604 Y151.548 E5.0428
G1 X152.644 Y152.045 E5.09839
G1 X152.649 Y152.562 E5.15603
G1 X152.541 Y153.285 E5.23753
G1 X152.748 Y153.605 E5.28002
G1 F2700 E5.27902
G1 F300 Z0.72
G0 F6000 X152.453 Y155.136 Z0.72
G1 F300 Z0.32
G1 F2700 E5.28002
G1 F1200 X153.085 Y154.425 E5.38127
G1 X153.372 Y154.132 E5.42492
G1 X153.859 Y153.816 E5.48671
G1 X154.225 Y153.654 E5.52931
G1 X154.503 Y153.569 E5.56025
G1 X154.911 Y153.5 E5.60429
G1 X155.307 Y153.49 E5.64645
G1 X156.251 Y153.534 E5.74703
G1 X156.977 Y153.664 E5.82553
G1 X157.6 Y153.986 E5.90017
G1 X157.616 Y149.46 E6.38189
G1 X157.601 Y146.01 E6.74908
G1 X156.985 Y146.328 E6.82286
G1 X156.262 Y146.46 E6.90109
G1 X155.319 Y146.509 E7.00159
G1 X154.911 Y146.5 E7.04502
G1 X154.5 Y146.43 E7.0894
G1 X154.222 Y146.345 E7.12034
G1 X153.856 Y146.182 E7.16298
G1 X153.375 Y145.871 E7.22394
G1 X153.081 Y145.571 E7.26865
G1 X152.452 Y144.861 E7.3696
G1 X152.345 Y145.262 E7.41378
G1 X152.186 Y145.705 E7.46387
G1 X151.998 Y146.062 E7.50682
G1 X151.747 Y146.381 E7.55002
G1 X151.59 Y146.533 E7.57328
G1 X151.679 Y146.732 E7.59648
G1 X151.761 Y147.014 E7.62773
G1 X151.831 Y147.484 E7.67831
G1 X151.828 Y147.886 E7.7211
G1 X151.776 Y148.526 E7.78944
G1 X151.696 Y148.936 E7.8339
G1 X151.521 Y149.367 E7.88341
G1 X151.379 Y149.628 E7.91503
G1 X151.104 Y149.998 E7.9641
G1 X151.379 Y150.368 E8.01316
G1 X151.521 Y150.629 E8.04479
G1 X151.655 Y150.959 E8.08269
G1 X151.724 Y151.206 E8.10999
G1 X151.777 Y151.474 E8.13907
G1 X151.828 Y152.111 E8.20708
G1 X151.831 Y152.511 E8.24965
G1 X151.761 Y152.982 E8.30034
G1 X151.679 Y153.262 E8.33139
G1 X151.59 Y153.462 E8.35469
G1 X151.747 Y153.616 E8.37809
G1 X152.007 Y153.943 E8.42256
G1 X152.185 Y154.291 E8.46416
G1 X152.344 Y154.734 E8.51425
G1 X152.453 Y155.136 E8.55859
G1 F2700 E8.55759
G1 F300 Z0.72
G0 F6000 X151.657 Y156.515 Z0.72
G1 F300 Z0.32
G1 F2700 E8.55859
G1 F1200 X152.012 Y156.444 E8.59712
G1 X152.874 Y155.865 E8.70764
G1 X153.842 Y154.777 E8.86263
G1 X154.235 Y154.522 E8.91249
G1 X154.591 Y154.364 E8.95395
G1 X154.986 Y154.296 E8.99661
G1 X155.27 Y154.289 E9.02684
G1 X156.214 Y154.333 E9.12742
G1 X156.732 Y154.426 E9.18344
G1 X157.343 Y154.74 E9.25655
G1 X158.066 Y155.391 E9.3601
G1 X158.268 Y155.514 E9.38527
G1 X158.4 Y154.211 E9.52466
G1 X158.416 Y149.457 E10.03065
G1 X158.4 Y145.786 E10.42136
G1 X158.269 Y144.48 E10.56106
G1 X158.065 Y144.604 E10.58647
G1 X157.341 Y145.257 E10.69024
G1 X156.738 Y145.567 E10.7624
G1 X156.222 Y145.662 E10.81825
G1 X155.278 Y145.71 E10.91885
G1 X154.987 Y145.704 E10.94983
G1 X154.595 Y145.637 E10.99215
G1 X154.233 Y145.477 E11.03428
G1 X153.948 Y145.292 E11.07044
G1 X153.68 Y145.04 E11.10959
G1 X152.872 Y144.13 E11.23912
G1 X152.012 Y143.552 E11.3494
G1 X151.658 Y143.481 E11.38783
G1 X151.751 Y143.756 E11.41872
G1 X151.719 Y144.504 E11.49841
G1 X151.572 Y145.055 E11.5591
G1 X151.459 Y145.371 E11.59482
G1 X151.222 Y145.779 E11.64504
G1 X150.912 Y146.08 E11.69103
G1 X150.517 Y146.326 E11.74056
G1 X150.792 Y146.701 E11.79005
G1 X150.965 Y147.09 E11.83536
G1 X151.033 Y147.534 E11.88317
G1 X151.03 Y147.821 E11.91372
G1 X150.964 Y148.551 E11.99173
G1 X150.859 Y148.886 E12.0291
G1 X150.698 Y149.208 E12.06741
G1 X150.507 Y149.468 E12.10175
G1 X150.126 Y149.807 E12.15603
G1 X149.682 Y149.998 E12.20747
G1 X150.126 Y150.189 E12.25891
G1 X150.507 Y150.528 E12.31319
G1 X150.757 Y150.868 E12.35811
G1 X150.895 Y151.211 E12.39746
G1 X150.971 Y151.521 E12.43143
G1 X151.03 Y152.175 E12.50132
G1 X151.033 Y152.461 E12.53176
G1 X150.968 Y152.898 E12.57878
G1 X150.792 Y153.294 E12.62491
G1 X150.516 Y153.669 E12.67446
G1 X150.913 Y153.916 E12.72423
G1 X151.145 Y154.143 E12.75877
G1 X151.42 Y154.521 E12.80853
G1 X151.572 Y154.941 E12.85606
G1 X151.719 Y155.491 E12.91666
G1 X151.751 Y156.24 E12.99645
G1 X151.657 Y156.515 E13.02738
G1 F2700 E13.02638
G1 F300 Z0.72
G0 F6000 X149.053 Y157.758 Z0.72
G1 F300 Z0.32
G1 F2700 E13.02738
G1 F1200 X150.717 Y157.518 E13.20632
G1 X152.325 Y157.198 E13.38081
G1 X153.404 Y156.472 E13.51923
G1 X154.375 Y155.381 E13.67468
G1 X154.611 Y155.228 E13.70461
G1 X155.006 Y155.078 E13.74958
G1 X156.176 Y155.132 E13.87424
G1 X156.487 Y155.188 E13.90787
G1 X156.835 Y155.367 E13.94952
G1 X157.587 Y156.036 E14.05665
G1 X158.549 Y156.62 E14.17643
G1 X158.847 Y156.616 E14.20815
G1 X158.986 Y156.365 E14.23868
G1 X159.2 Y154.253 E14.46462
G1 X159.216 Y149.453 E14.9755
G1 X159.2 Y145.744 E15.37026
G1 X158.987 Y143.63 E15.5964
G1 X158.848 Y143.379 E15.62694
G1 X158.549 Y143.376 E15.65876
G1 X157.586 Y143.96 E15.77863
G1 X156.835 Y144.629 E15.88568
G1 X156.491 Y144.806 E15.92685
G1 X156.181 Y144.863 E15.9604
G1 X155.109 Y144.918 E16.07464
G1 X154.767 Y144.841 E16.11195
G1 X154.386 Y144.631 E16.15826
G1 X153.403 Y143.523 E16.3159
G1 X152.325 Y142.798 E16.45417
G1 X150.7 Y142.475 E16.63051
G1 X149.051 Y142.239 E16.8078
G1 X150.466 Y143.064 E16.98213
G1 X150.818 Y143.454 E17.03805
G1 X150.96 Y143.871 E17.08494
G1 X150.941 Y144.32 E17.13277
G1 X150.765 Y144.978 E17.20526
G1 X150.621 Y145.229 E17.23606
G1 X150.404 Y145.463 E17.27003
G1 X150.134 Y145.63 E17.30381
G1 X149.652 Y145.736 E17.35634
G1 X147.474 Y145.756 E17.58816
G1 X149.494 Y146.55 E17.81917
G1 X149.902 Y146.828 E17.87171
G1 X150.09 Y147.084 E17.90552
G1 X150.204 Y147.383 E17.93958
G1 X150.243 Y147.644 E17.96766
G1 X150.181 Y148.348 E18.04288
G1 X150.114 Y148.594 E18.07002
G1 X149.903 Y148.943 E18.11342
G1 X149.674 Y149.147 E18.14606
G1 X149.251 Y149.329 E18.19508
G1 X146.174 Y149.999 E18.53024
G1 X149.251 Y150.667 E18.86536
G1 X149.674 Y150.849 E18.91437
G1 X149.973 Y151.115 E18.95697
G1 X150.171 Y151.537 E19.00658
G1 X150.243 Y152.351 E19.09356
G1 X150.204 Y152.613 E19.12175
G1 X150.09 Y152.911 E19.15571
G1 X149.902 Y153.166 E19.18943
G1 X149.493 Y153.446 E19.24218
G1 X147.471 Y154.241 E19.47342
G1 X149.651 Y154.26 E19.70545
G1 X150.134 Y154.366 E19.75808
G1 X150.404 Y154.533 E19.79187
G1 X150.677 Y154.853 E19.83664
G1 X150.799 Y155.148 E19.87062
G1 X150.941 Y155.675 E19.92871
G1 X150.96 Y156.125 E19.97665
G1 X150.818 Y156.54 E20.02333
G1 X150.466 Y156.932 E20.0794
G1 X149.053 Y157.758 E20.2536
G1 F2700 E20.2526
G1 F300 Z0.72
G0 F6000 X145.741 Y158.96 Z0.72
;TYPE:WALL-OUTER
G1 F300 Z0.32
G1 F2700 E20.2536
G1 F1090.9 X146.073 Y158.942 E20.29253
G1 F1158 X147.238 Y158.828 E20.42163
G1 F1200 X150.844 Y158.309 E20.80938
G1 X152.639 Y157.951 E21.00419
G1 X153.934 Y157.08 E21.1703
G1 X154.904 Y155.993 E21.32535
G1 X155.138 Y155.889 E21.35261
G1 X156.214 Y155.935 E21.46723
G1 X156.359 Y156.01 E21.48461
G1 X157.108 Y156.681 E21.59164
G1 X158.33 Y157.422 E21.74374
G1 X159.322 Y157.41 E21.84933
G1 X159.766 Y156.609 E21.9468
G1 X160 Y154.295 E22.19435
G1 X160.016 Y149.45 E22.71001
G1 X160 Y145.702 E23.10893
G1 X159.766 Y143.386 E23.35668
G1 X159.322 Y142.585 E23.45415
G1 X158.33 Y142.574 E23.55974
G1 X157.108 Y143.315 E23.71184
G1 X156.359 Y143.986 E23.81887
G1 X156.214 Y144.061 E23.83625
G1 X155.138 Y144.111 E23.95089
G1 X154.911 Y144.017 E23.97704
G1 X153.934 Y142.916 E24.13371
G1 X152.639 Y142.045 E24.29981
G1 X150.844 Y141.687 E24.49462
G1 X147.232 Y141.169 E24.88299
G1 F1166.5 X146.075 Y141.049 E25.01035
G1 F1104.7 X145.684 Y141.02 E25.05568
G1 F1099.7 X145.957 Y141.162 E25.09142
G1 F1160.8 X146.966 Y141.873 E25.22723
G1 F1200 X147.758 Y142.412 E25.32919
G1 X150.004 Y143.717 E25.60566
G1 X150.121 Y143.847 E25.62428
G1 X150.168 Y143.986 E25.63989
G1 X150.162 Y144.136 E25.65587
G1 X150.004 Y144.703 E25.71852
G1 X149.805 Y144.901 E25.74839
G1 X149.644 Y144.936 E25.76593
G1 F1221.4 X146.392 Y144.952 E26.106
G1 F1266.5 X143.14 Y144.968 E26.43395
G1 F1281.7 X143.282 Y144.989 E26.44825
G1 F1254.9 X146.235 Y146.139 E26.77078
G1 F1218.3 X149.189 Y147.29 E27.10314
G1 F1200 X149.388 Y147.468 E27.13156
G1 X149.436 Y147.634 E27.14995
G1 X149.386 Y148.25 E27.21573
G1 X149.337 Y148.367 E27.22923
G1 F1117.6 X149.189 Y148.521 E27.25364
G1 F1030 X147.629 Y148.89 E27.45241
G1 F997.9 X146.068 Y149.26 E27.65773
G1 F968.7 X144.507 Y149.63 E27.86924
G1 F940.3 X142.946 Y149.999 E28.08712
G1 X143.711 Y150.181 E28.19393
G1 F968.7 X144.478 Y150.362 E28.29783
G1 F997.9 X145.245 Y150.543 E28.3987
G1 F1030 X146.012 Y150.724 E28.49641
G1 F1063.1 X146.779 Y150.905 E28.59109
G1 F1099.7 X147.546 Y151.086 E28.68262
G1 F1137.4 X148.313 Y151.267 E28.7711
G1 F1179.4 X149.08 Y151.448 E28.85645
G1 F1200 X149.299 Y151.577 E28.8835
G1 X149.386 Y151.749 E28.90401
G1 X149.436 Y152.361 E28.96937
G1 X149.388 Y152.528 E28.98786
G1 X149.183 Y152.709 E29.01697
G1 F1209.1 X143.25 Y155.024 E29.68972
G1 X149.644 Y155.06 E30.36515
G1 F1200 X149.805 Y155.095 E30.38269
G1 X150.007 Y155.281 E30.41191
G1 X150.162 Y155.859 E30.4756
G1 X150.168 Y156.01 E30.49169
G1 X150.121 Y156.148 E30.5072
G1 X150.004 Y156.279 E30.5259
G1 X147.758 Y157.587 E30.80253
G1 X146.967 Y158.124 E30.90428
G1 F1149.7 X145.958 Y158.843 E31.04192
G1 F1083.5 X145.741 Y158.96 E31.07098
G1 F2700 E31.06998
G1 F300 Z0.72
G0 F6000 X144.434 Y160.807 Z0.72
G1 F300 Z0.32
G1 F2700 E31.07098
G1 F1200 X144.888 Y160.557 E31.12614
G1 X144.876 Y159.779 E31.20896
G1 F1167.9 X144.993 Y159.476 E31.24448
G1 F1109.8 X145.541 Y159.043 E31.32485
G1 F1107.3 X145.214 Y159.166 E31.36515
G1 F1153.8 X144.981 Y159.185 E31.39102
G1 F1188.1 X143.939 Y158.815 E31.50989
G1 F1200 X143.223 Y159.092 E31.5916
G1 X142.802 Y159.547 E31.65757
G1 X142.811 Y160.372 E31.74539
G1 X143.336 Y160.846 E31.82067
G1 X144.434 Y160.807 E31.9376
G1 F2700 E31.9366
G1 F300 Z0.72
G0 F6000 X141.631 Y156.293 Z0.72
G1 F300 Z0.32
G1 F2700 E31.9376
G1 F1200 X142.3 Y156.045 E32.01354
G1 X142.722 Y155.644 E32.0755
G1 X142.718 Y155.356 E32.10616
G1 F1207.5 X142.779 Y155.197 E32.12417
G1 F1230.8 X142.869 Y155.108 E32.1373
G1 F1263.2 X143.119 Y155.03 E32.16378
G1 F1251.6 X142.835 Y154.916 E32.19501
G1 F1212.1 X142.623 Y154.519 E32.24243
G1 F1200 X142.309 Y154.218 E32.28873
G1 X141.131 Y154.206 E32.41411
G1 X140.524 Y154.608 E32.4916
G1 X140.404 Y155.269 E32.5631
G1 X141.045 Y156.004 E32.6669
G1 X141.631 Y156.293 E32.73644
G1 F2700 E32.73544
G1 F300 Z0.72
G0 F6000 X141.508 Y151.088 Z0.72
G1 F300 Z0.32
G1 F2700 E32.73644
G1 F1200 X142.154 Y150.559 E32.82531
G1 F1126.8 X142.73 Y150.042 E32.91304
G1 F989.7 X142.855 Y150 E32.93006
G1 X142.729 Y149.958 E32.9472
G1 F1126.8 X142.152 Y149.436 E33.03539
G1 F1200 X141.508 Y148.908 E33.12403
G1 X140.896 Y148.908 E33.18916
G1 X140.484 Y149.016 E33.2345
G1 X140.168 Y149.212 E33.27407
G1 X140.017 Y149.549 E33.31338
G1 X139.982 Y149.972 E33.35855
G1 X140.021 Y150.445 E33.40906
G1 X140.169 Y150.785 E33.44853
G1 X140.488 Y150.98 E33.48832
G1 X140.896 Y151.088 E33.53324
G1 X141.508 Y151.088 E33.59838
G1 F2700 E33.59738
G1 F300 Z0.72
G0 F6000 X142.308 Y145.778 Z0.72
G1 F300 Z0.32
G1 F2700 E33.59838
G1 F1200 X142.619 Y145.477 E33.64445
G1 F1213.7 X142.837 Y145.08 E33.69211
G1 F1254.9 X143.099 Y144.969 E33.72107
G1 F1268.2 X142.873 Y144.892 E33.74511
G1 F1235.5 X142.782 Y144.805 E33.75813
G1 F1209.1 X142.718 Y144.643 E33.77653
G1 F1200 X142.722 Y144.352 E33.8075
G1 X142.3 Y143.951 E33.86946
G1 X141.631 Y143.703 E33.9454
G1 X141.045 Y143.992 E34.01494
G1 X140.404 Y144.727 E34.11874
G1 X140.524 Y145.388 E34.19024
G1 X141.131 Y145.79 E34.26773
G1 X142.308 Y145.778 E34.39301
G1 F2700 E34.39201
G1 F300 Z0.72
G0 F6000 X145.54 Y140.953 Z0.72
G1 F300 Z0.32
G1 F2700 E34.39301
G1 F1104.7 X144.992 Y140.52 E34.47375
G1 F1166.5 X144.876 Y140.217 E34.50928
G1 F1200 X144.888 Y139.439 E34.59209
