;FLAVOR:Marlin
;TIME:759
;Filament used: 1.72891m
;Layer height: 0.3
;MINX:128.317
;MINY:128.313
;MINZ:0.32
;MAXX:171.689
;MAXY:171.685
;MAXZ:10.32
;TARGET_MACHINE.NAME:Creality CR-10
;Generated with Cura_SteamEngine 5.7.1
M140 S50
M105
M190 S50
M104 S200
M105
M109 S200
M82 ;absolute extrusion mode
M201 X500.00 Y500.00 Z100.00 E5000.00 ;Setup machine max acceleration
M203 X500.00 Y500.00 Z10.00 E50.00 ;Setup machine max feedrate
M204 P500.00 R1000.00 T500.00 ;Setup Print/Retract/Travel acceleration
M205 X8.00 Y8.00 Z0.40 E5.00 ;Setup Jerk
M220 S100 ;Reset Feedrate
M221 S100 ;Reset Flowrate

G28 ;Home

G92 E0 ;Reset Extruder
G1 Z2.0 F3000 ;Move Z Axis up
G1 X10.1 Y20 Z0.28 F5000.0 ;Move to start position
G1 X10.1 Y200.0 Z0.28 F1500.0 E15 ;Draw the first line
G1 X10.4 Y200.0 Z0.28 F5000.0 ;Move to side a little
G1 X10.4 Y20 Z0.28 F1500.0 E30 ;Draw the second line
G92 E0 ;Reset Extruder
G1 Z2.0 F3000 ;Move Z Axis up

G92 E0
G92 E0
G1 F2700 E-0.001
;LAYER_COUNT:33
;LAYER:0
M107
G1 F300 Z0.72
G0 F6000 X134.692 Y134.642 Z0.72
;TYPE:SKIRT
G1 F300 Z0.32
G1 F2700 E0
G1 F1200 X135.214 Y134.138 E0.07723
G1 X135.601 Y133.787 E0.13283
G1 X136.203 Y133.272 E0.21715
G1 X136.613 Y132.942 E0.27317
G1 X137.242 Y132.466 E0.35712
G1 X137.663 Y132.167 E0.41208
G1 X138.274 Y131.759 E0.49028
G1 X138.744 Y131.466 E0.54923
G1 X139.465 Y131.048 E0.63793
G1 X139.918 Y130.801 E0.69284
G1 X140.578 Y130.468 E0.77152
G1 X141.108 Y130.223 E0.83367
G1 X141.99 Y129.849 E0.93563
G1 X142.578 Y129.624 E1.00264
G1 X143.404 Y129.342 E1.09554
G1 X143.967 Y129.171 E1.15816
G1 X144.753 Y128.959 E1.24481
G1 X145.22 Y128.847 E1.29592
G1 X145.866 Y128.711 E1.36618
G1 X146.343 Y128.624 E1.41779
G1 X147.054 Y128.515 E1.49434
G1 X147.627 Y128.445 E1.55578
G1 X148.594 Y128.36 E1.6591
G1 X149.154 Y128.329 E1.71879
G1 X149.841 Y128.313 E1.79193
G1 X150.366 Y128.317 E1.84781
G1 X151.208 Y128.347 E1.93749
G1 X151.771 Y128.386 E1.99755
G1 X152.564 Y128.466 E2.08238
G1 X153.106 Y128.537 E2.14056
G1 X153.859 Y128.66 E2.22176
G1 X154.39 Y128.763 E2.27933
G1 X155.135 Y128.931 E2.36062
G1 X155.643 Y129.061 E2.41643
G1 X156.4 Y129.279 E2.50027
G1 X156.917 Y129.446 E2.5581
G1 X157.681 Y129.719 E2.64445
G1 X158.135 Y129.894 E2.69623
G1 X158.645 Y130.108 E2.7551
G1 X159.108 Y130.319 E2.80925
G1 X159.854 Y130.682 E2.89755
G1 X160.324 Y130.928 E2.95401
G1 X160.975 Y131.294 E3.0335
G1 X161.474 Y131.598 E3.09569
G1 X162.266 Y132.116 E3.19641
G1 X162.772 Y132.472 E3.26226
G1 X163.387 Y132.937 E3.34432
G1 X163.816 Y133.283 E3.40298
G1 X164.445 Y133.823 E3.49121
G1 X164.791 Y134.137 E3.54094
G1 X165.183 Y134.512 E3.59868
G1 X165.523 Y134.856 E3.65016
G1 X166.1 Y135.471 E3.73991
G1 X166.445 Y135.861 E3.79533
G1 X166.902 Y136.411 E3.87144
G1 X167.219 Y136.815 E3.92609
G1 X167.698 Y137.465 E4.01203
G1 X168.005 Y137.908 E4.06939
G1 X168.411 Y138.535 E4.1489
G1 X168.698 Y139.011 E4.20805
G1 X169.113 Y139.75 E4.29826
G1 X169.378 Y140.258 E4.35924
G1 X169.691 Y140.907 E4.43593
G1 X169.929 Y141.446 E4.49864
G1 X170.279 Y142.309 E4.59776
G1 X170.492 Y142.896 E4.66422
G1 X170.749 Y143.689 E4.75294
G1 X170.886 Y144.154 E4.80454
G1 X171.044 Y144.751 E4.87027
G1 X171.15 Y145.197 E4.91906
G1 X171.299 Y145.907 E4.99627
G1 X171.397 Y146.439 E5.05385
G1 X171.547 Y147.517 E5.16969
G1 X171.603 Y148.078 E5.22969
G1 X171.663 Y148.968 E5.32463
G1 X171.683 Y149.489 E5.38012
G1 X171.689 Y150.202 E5.45601
G1 X171.677 Y150.733 E5.51254
G1 X171.635 Y151.531 E5.59759
G1 X171.591 Y152.066 E5.65473
G1 X171.503 Y152.843 E5.73795
G1 X171.422 Y153.391 E5.79691
G1 X171.269 Y154.249 E5.88967
G1 X171.152 Y154.802 E5.94983
G1 X170.983 Y155.49 E6.02523
G1 X170.848 Y155.982 E6.07953
G1 X170.614 Y156.741 E6.16407
G1 X170.449 Y157.226 E6.21859
G1 X170.178 Y157.952 E6.30107
G1 X169.97 Y158.463 E6.35979
G1 X169.643 Y159.198 E6.44541
G1 X169.412 Y159.675 E6.50182
G1 X169.055 Y160.361 E6.58413
G1 X168.817 Y160.788 E6.63616
G1 X168.493 Y161.334 E6.70373
G1 X168.199 Y161.797 E6.7621
G1 X167.689 Y162.547 E6.85864
G1 X167.34 Y163.027 E6.9218
G1 X166.842 Y163.666 E7.00802
G1 X166.496 Y164.081 E7.06553
G1 X165.996 Y164.646 E7.14583
G1 X165.606 Y165.06 E7.20637
G1 X164.987 Y165.676 E7.29931
G1 X164.608 Y166.031 E7.35458
G1 X164.107 Y166.474 E7.42576
G1 X163.712 Y166.802 E7.48041
G1 X163.05 Y167.321 E7.56994
G1 X162.606 Y167.648 E7.62862
G1 X161.943 Y168.104 E7.71427
G1 X161.55 Y168.359 E7.76413
G1 X161.101 Y168.634 E7.82017
G1 X160.682 Y168.875 E7.87161
G1 X159.939 Y169.276 E7.96148
G1 X159.461 Y169.514 E8.01831
G1 X158.753 Y169.842 E8.10136
G1 X158.263 Y170.051 E8.15805
G1 X157.549 Y170.33 E8.23964
G1 X157.008 Y170.525 E8.30085
G1 X156.019 Y170.835 E8.41116
G1 X155.512 Y170.974 E8.46711
G1 X154.738 Y171.162 E8.55189
G1 X154.25 Y171.266 E8.60499
G1 X153.228 Y171.445 E8.71542
G1 X152.521 Y171.54 E8.79135
G1 X151.936 Y171.602 E8.85396
G1 X150.823 Y171.671 E8.97264
G1 X150.239 Y171.685 E9.03482
G1 X149.353 Y171.676 E9.12912
G1 X148.819 Y171.654 E9.18601
G1 X148.114 Y171.604 E9.26123
G1 X147.632 Y171.557 E9.31277
G1 X146.891 Y171.463 E9.39227
G1 X146.306 Y171.369 E9.45533
G1 X145.388 Y171.19 E9.55488
G1 X144.846 Y171.066 E9.61405
G1 X144.236 Y170.906 E9.68117
G1 X143.8 Y170.779 E9.72951
G1 X143.038 Y170.537 E9.8146
G1 X142.548 Y170.366 E9.86984
G1 X141.919 Y170.124 E9.94157
G1 X141.484 Y169.944 E9.99167
G1 X140.818 Y169.646 E10.06933
G1 X140.344 Y169.416 E10.1254
G1 X139.615 Y169.036 E10.2129
G1 X139.135 Y168.766 E10.27152
G1 X138.458 Y168.358 E10.35564
G1 X138.017 Y168.073 E10.41153
G1 X137.407 Y167.654 E10.49029
G1 X136.924 Y167.297 E10.55422
G1 X136.157 Y166.689 E10.65839
G1 X135.682 Y166.285 E10.72476
G1 X135.111 Y165.765 E10.80696
G1 X134.728 Y165.394 E10.86371
G1 X134.19 Y164.842 E10.94575
G1 X133.822 Y164.44 E11.00375
G1 X133.284 Y163.813 E11.09169
G1 X132.948 Y163.396 E11.14868
G1 X132.508 Y162.816 E11.22617
G1 X132.193 Y162.372 E11.28411
G1 X131.718 Y161.658 E11.37538
G1 X131.435 Y161.203 E11.43241
G1 X131.044 Y160.53 E11.51525
G1 X130.781 Y160.043 E11.57416
G1 X130.46 Y159.401 E11.65055
G1 X130.241 Y158.93 E11.70584
G1 X129.928 Y158.202 E11.79018
G1 X129.741 Y157.733 E11.84392
G1 X129.531 Y157.155 E11.90937
G1 X129.393 Y156.744 E11.95551
G1 X129.173 Y156.032 E12.03483
G1 X129.01 Y155.43 E12.10121
G1 X128.774 Y154.419 E12.2117
G1 X128.663 Y153.865 E12.27184
G1 X128.51 Y152.886 E12.3773
G1 X128.424 Y152.158 E12.45532
G1 X128.376 Y151.604 E12.51451
G1 X128.329 Y150.734 E12.60724
G1 X128.317 Y150.181 E12.66611
G1 X128.324 Y149.442 E12.74476
G1 X128.346 Y148.901 E12.80239
G1 X128.406 Y148.053 E12.89287
G1 X128.457 Y147.538 E12.94795
G1 X128.549 Y146.826 E13.02436
G1 X128.635 Y146.293 E13.08183
G1 X128.781 Y145.534 E13.16409
G1 X128.905 Y144.985 E13.22399
G1 X129.106 Y144.204 E13.30982
G1 X129.271 Y143.641 E13.37227
G1 X129.556 Y142.775 E13.4693
G1 X129.746 Y142.255 E13.52822
G1 X130.002 Y141.617 E13.60139
G1 X130.197 Y141.167 E13.65359
G1 X130.521 Y140.472 E13.7352
G1 X130.755 Y140.009 E13.79042
G1 X131.099 Y139.373 E13.86737
G1 X131.356 Y138.93 E13.92188
G1 X131.795 Y138.22 E14.01073
G1 X132.106 Y137.753 E14.07045
G1 X132.556 Y137.119 E14.15319
G1 X132.882 Y136.689 E14.21063
G1 X133.382 Y136.07 E14.29532
G1 X133.745 Y135.647 E14.35464
G1 X134.296 Y135.046 E14.44142
G1 X134.692 Y134.642 E14.50163
G0 F6000 X135.247 Y135.218
G1 F1200 X135.753 Y134.73 E14.57645
G1 X136.121 Y134.395 E14.62942
G1 X136.705 Y133.895 E14.71124
G1 X137.096 Y133.58 E14.76468
G1 X137.706 Y133.118 E14.84612
G1 X138.108 Y132.832 E14.89863
G1 X138.697 Y132.438 E14.97406
G1 X139.146 Y132.158 E15.03037
G1 X139.848 Y131.75 E15.11679
G1 X140.279 Y131.515 E15.16904
G1 X140.914 Y131.194 E15.24477
G1 X141.421 Y130.959 E15.30425
G1 X142.276 Y130.596 E15.40311
G1 X142.837 Y130.381 E15.46705
G1 X143.637 Y130.107 E15.55705
G1 X144.175 Y129.943 E15.61691
G1 X144.94 Y129.737 E15.70124
G1 X145.386 Y129.63 E15.75005
G1 X146.01 Y129.498 E15.81793
G1 X146.465 Y129.415 E15.86716
G1 X147.151 Y129.309 E15.94104
G1 X147.697 Y129.242 E15.99959
G1 X148.639 Y129.159 E16.10024
G1 X149.173 Y129.129 E16.15716
G1 X149.836 Y129.113 E16.22775
G1 X150.338 Y129.116 E16.28118
G1 X151.153 Y129.145 E16.36797
G1 X151.691 Y129.182 E16.42537
G1 X152.46 Y129.259 E16.50762
G1 X152.977 Y129.327 E16.56312
G1 X153.73 Y129.45 E16.64433
G1 X154.215 Y129.544 E16.69691
G1 X154.937 Y129.706 E16.77566
G1 X155.422 Y129.83 E16.82894
G1 X156.155 Y130.041 E16.91013
G1 X156.649 Y130.2 E16.96536
G1 X157.393 Y130.465 E17.04942
G1 X157.825 Y130.632 E17.09872
G1 X158.335 Y130.846 E17.15758
G1 X158.758 Y131.038 E17.20702
G1 X159.484 Y131.391 E17.29294
G1 X159.932 Y131.625 E17.34674
G1 X160.559 Y131.978 E17.42332
G1 X161.036 Y132.268 E17.48273
G1 X161.828 Y132.786 E17.58346
G1 X162.29 Y133.111 E17.64358
G1 X162.885 Y133.56 E17.72291
G1 X163.295 Y133.89 E17.77893
G1 X163.908 Y134.416 E17.8649
G1 X164.239 Y134.716 E17.91244
G1 X164.615 Y135.075 E17.96777
G1 X164.94 Y135.403 E18.01692
G1 X165.501 Y136.001 E18.10419
G1 X165.83 Y136.373 E18.15704
G1 X166.273 Y136.905 E18.23073
G1 X166.575 Y137.29 E18.2828
G1 X167.041 Y137.921 E18.36629
G1 X167.334 Y138.343 E18.42097
G1 X167.726 Y138.948 E18.4977
G1 X168 Y139.403 E18.55423
G1 X168.415 Y140.142 E18.64443
G1 X168.657 Y140.606 E18.70013
G1 X168.97 Y141.255 E18.77682
G1 X169.188 Y141.747 E18.8341
G1 X169.527 Y142.583 E18.93011
G1 X169.731 Y143.143 E18.99354
G1 X169.982 Y143.915 E19.07994
G1 X170.113 Y144.359 E19.12921
G1 X170.266 Y144.936 E19.19275
G1 X170.367 Y145.362 E19.23934
G1 X170.512 Y146.052 E19.31439
G1 X170.61 Y146.584 E19.37196
G1 X170.751 Y147.597 E19.48082
G1 X170.805 Y148.132 E19.53805
G1 X170.864 Y148.999 E19.63054
G1 X170.883 Y149.496 E19.68347
G1 X170.889 Y150.185 E19.75681
G1 X170.878 Y150.692 E19.81078
G1 X170.838 Y151.465 E19.89316
G1 X170.796 Y151.976 E19.94774
G1 X170.711 Y152.727 E20.02818
G1 X170.634 Y153.251 E20.08455
G1 X170.486 Y154.084 E20.17459
G1 X170.375 Y154.612 E20.23202
G1 X170.212 Y155.278 E20.30499
G1 X170.083 Y155.747 E20.35676
G1 X169.857 Y156.483 E20.43871
G1 X169.699 Y156.947 E20.49088
G1 X169.437 Y157.651 E20.57083
G1 X169.239 Y158.138 E20.62678
G1 X168.922 Y158.85 E20.70973
G1 X168.702 Y159.306 E20.76362
G1 X168.356 Y159.972 E20.8435
G1 X168.129 Y160.38 E20.89319
G1 X167.818 Y160.905 E20.95813
G1 X167.537 Y161.347 E21.01388
G1 X167.027 Y162.097 E21.11041
G1 X166.709 Y162.535 E21.16802
G1 X166.227 Y163.154 E21.25152
G1 X165.896 Y163.552 E21.30661
G1 X165.414 Y164.098 E21.38413
G1 X165.042 Y164.493 E21.44188
G1 X164.439 Y165.093 E21.53242
G1 X164.078 Y165.432 E21.58512
G1 X163.595 Y165.859 E21.65374
G1 X163.218 Y166.173 E21.70596
G1 X162.576 Y166.677 E21.79283
G1 X162.152 Y166.989 E21.84886
G1 X161.507 Y167.433 E21.9322
G1 X161.132 Y167.677 E21.97982
G1 X160.701 Y167.941 E22.03361
G1 X160.302 Y168.171 E22.08263
G1 X159.581 Y168.56 E22.16982
G1 X159.125 Y168.788 E22.22408
G1 X158.439 Y169.106 E22.30456
G1 X157.971 Y169.306 E22.35873
G1 X157.277 Y169.578 E22.43806
G1 X156.768 Y169.762 E22.49567
G1 X155.807 Y170.064 E22.60288
G1 X155.323 Y170.197 E22.6563
G1 X154.571 Y170.38 E22.73867
G1 X154.112 Y170.478 E22.78863
G1 X153.12 Y170.652 E22.89582
G1 X152.435 Y170.745 E22.9694
G1 X151.887 Y170.804 E23.02806
G1 X150.803 Y170.871 E23.14365
G1 X150.246 Y170.885 E23.20295
G1 X149.386 Y170.877 E23.29449
G1 X148.875 Y170.856 E23.34892
G1 X148.192 Y170.808 E23.42179
G1 X147.732 Y170.763 E23.47099
G1 X147.017 Y170.673 E23.54769
G1 X146.459 Y170.584 E23.60783
G1 X145.566 Y170.41 E23.70466
G1 X145.048 Y170.292 E23.7612
G1 X144.459 Y170.138 E23.826
G1 X144.042 Y170.017 E23.87221
G1 X143.302 Y169.782 E23.95485
G1 X142.835 Y169.619 E24.00749
G1 X142.225 Y169.385 E24.07703
G1 X141.81 Y169.213 E24.12484
G1 X141.167 Y168.926 E24.19979
G1 X140.713 Y168.706 E24.25348
G1 X140.006 Y168.338 E24.33831
G1 X139.548 Y168.081 E24.39421
G1 X138.891 Y167.685 E24.47585
G1 X138.47 Y167.414 E24.52914
G1 X137.882 Y167.01 E24.60507
G1 X137.421 Y166.67 E24.66604
G1 X136.654 Y166.062 E24.77021
G1 X136.22 Y165.693 E24.83084
G1 X135.667 Y165.19 E24.9104
G1 X135.301 Y164.836 E24.9646
G1 X134.78 Y164.301 E25.04408
G1 X134.429 Y163.918 E25.09937
G1 X133.907 Y163.311 E25.18458
G1 X133.585 Y162.912 E25.23915
G1 X133.16 Y162.352 E25.31397
G1 X132.859 Y161.929 E25.36923
G1 X132.397 Y161.235 E25.45796
G1 X132.127 Y160.801 E25.51236
G1 X131.748 Y160.149 E25.59263
G1 X131.497 Y159.685 E25.64878
G1 X131.176 Y159.043 E25.72517
G1 X130.976 Y158.613 E25.77565
G1 X130.671 Y157.906 E25.8576
G1 X130.493 Y157.459 E25.9088
G1 X130.289 Y156.9 E25.97214
G1 X130.157 Y156.507 E26.01626
G1 X129.945 Y155.823 E26.09248
G1 X129.789 Y155.248 E26.15589
G1 X129.558 Y154.26 E26.26388
G1 X129.453 Y153.741 E26.32024
G1 X129.304 Y152.792 E26.42248
G1 X129.221 Y152.089 E26.49782
G1 X129.175 Y151.561 E26.55423
G1 X129.129 Y150.716 E26.6443
G1 X129.117 Y150.188 E26.70051
G1 X129.123 Y149.474 E26.77651
G1 X129.144 Y148.957 E26.83158
G1 X129.202 Y148.131 E26.91971
G1 X129.25 Y147.641 E26.97211
G1 X129.339 Y146.953 E27.04594
G1 X129.421 Y146.444 E27.10082
G1 X129.567 Y145.685 E27.18308
G1 X129.68 Y145.184 E27.23774
G1 X129.874 Y144.428 E27.32081
G1 X130.031 Y143.891 E27.38036
G1 X130.308 Y143.049 E27.4747
G1 X130.489 Y142.552 E27.531
G1 X130.736 Y141.935 E27.60173
G1 X130.922 Y141.505 E27.65159
G1 X131.236 Y140.832 E27.73064
G1 X131.459 Y140.389 E27.78342
G1 X131.792 Y139.773 E27.85795
G1 X132.036 Y139.351 E27.90983
G1 X132.462 Y138.662 E27.99605
G1 X132.758 Y138.216 E28.05302
G1 X133.194 Y137.602 E28.13317
G1 X133.505 Y137.191 E28.18803
G1 X133.989 Y136.591 E28.27007
G1 X134.335 Y136.188 E28.32661
G1 X134.886 Y135.587 E28.41339
G1 X135.247 Y135.218 E28.46833
G1 F2700 E28.46733
G1 F300 Z0.72
;MESH:cube v3.stl
G0 F6000 X150.368 Y157.79 Z0.72
;TYPE:WALL-INNER
G1 F300 Z0.32
G1 F2700 E28.46833
G1 F1200 X149.63 Y157.79 E28.54688
G1 X148.906 Y157.722 E28.62427
G1 X148.23 Y157.593 E28.69752
G1 X147.486 Y157.383 E28.7798
G1 X146.755 Y157.095 E28.86342
G1 X146.074 Y156.742 E28.94506
G1 X145.47 Y156.347 E29.02187
G1 X144.894 Y155.902 E29.09934
G1 X144.361 Y155.385 E29.17837
G1 X143.875 Y154.83 E29.25689
G1 X143.455 Y154.236 E29.33432
G1 X143.039 Y153.52 E29.42245
G1 X142.783 Y152.952 E29.48876
G1 X142.559 Y152.334 E29.55872
G1 X142.473 Y152.041 E29.59122
G1 X142.333 Y151.42 E29.65898
G1 X142.235 Y150.729 E29.73326
G1 X142.196 Y149.996 E29.81138
G1 X142.236 Y149.259 E29.88994
G1 X142.336 Y148.552 E29.96594
G1 X142.504 Y147.836 E30.04421
G1 X142.783 Y147.044 E30.13358
G1 X143.074 Y146.404 E30.20841
G1 X143.448 Y145.766 E30.28712
G1 X143.886 Y145.157 E30.36696
G1 X144.354 Y144.613 E30.44334
G1 X144.881 Y144.111 E30.5208
G1 X145.469 Y143.654 E30.60007
G1 X146.083 Y143.252 E30.67818
G1 X146.723 Y142.923 E30.75477
G1 X147.421 Y142.632 E30.83525
G1 X148.238 Y142.401 E30.92562
G1 X148.752 Y142.3 E30.98137
G1 X149.032 Y142.259 E31.01149
G1 X149.555 Y142.211 E31.06739
G1 X150.368 Y142.206 E31.15392
G1 X151.114 Y142.271 E31.23362
G1 X151.817 Y142.413 E31.30995
G1 X152.564 Y142.625 E31.3926
G1 X153.205 Y142.889 E31.46638
G1 X153.93 Y143.261 E31.55311
G1 X154.565 Y143.674 E31.63373
G1 X154.987 Y143.999 E31.69042
G1 X155.225 Y144.204 E31.72385
G1 X155.647 Y144.615 E31.78655
G1 X156.127 Y145.169 E31.86456
G1 X156.592 Y145.826 E31.95023
G1 X156.922 Y146.402 E32.02089
G1 X157.239 Y147.083 E32.10083
G1 X157.48 Y147.768 E32.17812
G1 X157.667 Y148.547 E32.26339
G1 X157.774 Y149.292 E32.34349
G1 X157.8 Y150 E32.4189
G1 X157.778 Y150.653 E32.48844
G1 X157.666 Y151.453 E32.57441
G1 X157.494 Y152.19 E32.65496
G1 X157.262 Y152.85 E32.72942
G1 X156.924 Y153.596 E32.81659
G1 X156.59 Y154.174 E32.88764
G1 X156.127 Y154.829 E32.97301
G1 X155.647 Y155.386 E33.05127
G1 X155.128 Y155.881 E33.1276
G1 X154.557 Y156.33 E33.20492
G1 X154.025 Y156.68 E33.27269
G1 X153.785 Y156.819 E33.30221
G1 X153.244 Y157.097 E33.36695
G1 X152.522 Y157.384 E33.44964
G1 X151.811 Y157.584 E33.52825
G1 X151.078 Y157.725 E33.6077
G1 X150.368 Y157.79 E33.68358
G0 F6000 X150.334 Y156.993
G1 F1200 X149.615 Y156.987 E33.76011
G1 X149.016 Y156.929 E33.82416
G1 X148.4 Y156.811 E33.89091
G1 X147.738 Y156.623 E33.96416
G1 X147.072 Y156.356 E34.04053
