;FLAVOR:Marlin
;TIME:116
;Filament used: 0.21039m
;Layer height: 0.3
;MINX:140.956
;MINY:141.884
;MINZ:0.32
;MAXX:159.044
;MAXY:158.112
;MAXZ:2.52
;TARGET_MACHINE.NAME:Creality CR-10
;Generated with Cura_SteamEngine 5.7.1
M140 S50
M105
M190 S50
M104 S200
M105
M109 S200
M82 ;absolute extrusion mode
M201 X500.00 Y500.00 Z100.00 E5000.00 ;Setup machine max acceleration
M203 X500.00 Y500.00 Z10.00 E50.00 ;Setup machine max feedrate
M204 P500.00 R1000.00 T500.00 ;Setup Print/Retract/Travel acceleration
M205 X8.00 Y8.00 Z0.40 E5.00 ;Setup Jerk
M220 S100 ;Reset Feedrate
M221 S100 ;Reset Flowrate

G28 ;Home

G92 E0 ;Reset Extruder
G1 Z2.0 F3000 ;Move Z Axis up
G1 X10.1 Y20 Z0.28 F5000.0 ;Move to start position
G1 X10.1 Y200.0 Z0.28 F1500.0 E15 ;Draw the first line
G1 X10.4 Y200.0 Z0.28 F5000.0 ;Move to side a little
G1 X10.4 Y20 Z0.28 F1500.0 E30 ;Draw the second line
G92 E0 ;Reset Extruder
G1 Z2.0 F3000 ;Move Z Axis up

G92 E0
G92 E0
G1 F2700 E-0.001
;LAYER_COUNT:7
;LAYER:0
M107
G1 F300 Z0.72
;MESH:2dRook.stl
G0 F6000 X158.228 Y142.7 Z0.72
;TYPE:WALL-INNER
G1 F300 Z0.32
G1 F2700 E0
G1 F1153.8 X158.228 Y143.444 E0.08235
G1 F1141.5 X158.219 Y143.655 E0.10598
G1 F2700 E0.10498
G1 F300 Z0.72
G0 F6000 X154.291 Y150.65 Z0.72
G1 F300 Z0.32
G1 F2700 E0.10598
G1 F1245.1 X154.291 Y149.707 E0.20271
G1 X153.856 Y149.8 E0.24834
G1 F1263.2 X153.196 Y149.808 E0.31508
G1 F1280 X147.028 Y149.808 E0.93052
G1 X146.925 Y150.144 E0.96559
G1 X146.983 Y150.3 E0.98219
G1 X147.049 Y150.556 E1.00857
G1 F1263.2 X153.856 Y150.564 E1.69684
G1 F1245.1 X154.291 Y150.65 E1.74232
G0 F6000 X155.065 Y151.702
G1 F1233.9 X155.065 Y148.636 E2.05967
G1 X154.456 Y148.882 E2.12765
G1 X153.757 Y149.032 E2.20165
G1 F1245.1 X153.478 Y149.048 E2.23031
G1 F1258.2 X146.453 Y149.053 E2.94342
G1 F1261.5 X146.253 Y149.788 E3.02054
G1 X146.115 Y150.13 E3.05788
G1 X146.267 Y150.54 E3.10215
G1 X146.423 Y151.143 E3.16521
G1 X146.439 Y151.311 E3.1823
G1 X153.196 Y151.311 E3.8664
G1 F1248.4 X153.757 Y151.332 E3.92384
G1 F1233.9 X154.331 Y151.446 E3.98441
G1 X155.065 Y151.702 E4.06487
G1 F2700 E4.06387
G1 F300 Z0.72
G0 F6000 X155.849 Y153.069 Z0.72
G1 F300 Z0.32
G1 F2700 E4.06487
G1 F1213.7 X155.849 Y147.162 E4.68649
G1 X155.477 Y147.467 E4.73712
G1 X154.85 Y147.881 E4.81618
G1 X154.231 Y148.132 E4.88648
G1 F1216.7 X153.563 Y148.274 E4.95816
G1 F1221.4 X145.74 Y148.279 E5.77621
G1 F1222.9 X145.653 Y149.057 E5.85797
G1 X145.501 Y149.615 E5.91837
G1 X145.259 Y150.143 E5.97903
G1 X145.509 Y150.691 E6.04193
G1 X145.662 Y151.282 E6.10569
G1 X145.738 Y152.084 E6.18982
G1 X153.196 Y152.084 E6.96871
G1 F1221.4 X153.597 Y152.098 E7.01067
G1 F1216.7 X154.128 Y152.203 E7.06749
G1 F1213.7 X154.634 Y152.379 E7.12387
G1 X155.156 Y152.661 E7.1863
G1 X155.782 Y153.069 E7.26494
G1 X155.849 Y153.069 E7.27199
G0 F6000 X156.644 Y153.864
G1 F1200 X156.644 Y146.244 E8.083
G1 X155.714 Y146.244 E8.18199
G1 X154.973 Y146.853 E8.28407
G1 X154.484 Y147.175 E8.34639
G1 X154.002 Y147.37 E8.40173
G1 X153.476 Y147.483 E8.45899
G1 X145.828 Y147.487 E9.27298
G1 X144.928 Y147.32 E9.37041
G1 X144.927 Y148.445 E9.49014
G1 X144.876 Y148.904 E9.5393
G1 X144.775 Y149.276 E9.58032
G1 X144.625 Y149.628 E9.62105
G1 X144.462 Y149.907 E9.65544
G1 X144.273 Y150.144 E9.6877
G1 X144.462 Y150.381 E9.71996
G1 X144.625 Y150.66 E9.75436
G1 X144.783 Y151.038 E9.79796
G1 X144.883 Y151.424 E9.8404
G1 X144.928 Y151.904 E9.89171
G1 X144.928 Y153.071 E10.01592
G1 X145.331 Y152.935 E10.06119
G1 X145.884 Y152.876 E10.12038
G1 X153.47 Y152.881 E10.92777
G1 X153.922 Y152.971 E10.97683
G1 X154.316 Y153.108 E11.02122
G1 X154.723 Y153.328 E11.07046
G1 X155.546 Y153.864 E11.175
G1 X156.644 Y153.864 E11.29186
G1 F2700 E11.29086
G1 F300 Z0.72
G0 F6000 X144.045 Y154.652 Z0.72
G1 F300 Z0.32
G1 F2700 E11.29186
G1 F1200 X144.585 Y154.176 E11.36847
G1 X145.048 Y153.869 E11.4276
G1 X145.496 Y153.718 E11.47792
G1 X145.89 Y153.676 E11.52009
G1 X153.388 Y153.679 E12.31812
G1 X153.715 Y153.744 E12.35361
G1 X153.996 Y153.842 E12.38528
G1 X154.287 Y153.998 E12.42042
G1 X155.309 Y154.664 E12.55025
G1 X157.012 Y154.664 E12.73151
G1 X157.444 Y154.749 E12.77837
G1 X157.444 Y145.358 E13.77787
G1 X157.012 Y145.444 E13.82476
G1 X155.428 Y145.444 E13.99334
G1 X154.465 Y146.234 E14.12592
G1 X154.116 Y146.465 E14.17046
G1 X153.772 Y146.604 E14.20995
G1 X153.392 Y146.685 E14.2513
G1 X145.852 Y146.687 E15.0538
G1 X145.248 Y146.575 E15.11918
G1 X144.578 Y146.178 E15.20207
G1 X144.038 Y145.695 E15.27918
G1 X144.128 Y146.104 E15.32375
G1 X144.127 Y148.421 E15.57036
G1 X144.091 Y148.749 E15.60548
G1 X144.019 Y149.014 E15.6347
G1 X143.865 Y149.377 E15.67667
G1 X143.576 Y149.741 E15.72614
G1 X143.142 Y150.085 E15.78508
G1 X142.967 Y150.144 E15.80474
G1 X143.142 Y150.203 E15.82439
G1 X143.576 Y150.547 E15.88333
G1 X143.866 Y150.913 E15.93303
G1 X144.025 Y151.292 E15.97678
G1 X144.096 Y151.568 E16.00711
G1 X144.128 Y151.911 E16.04377
G1 X144.129 Y154.272 E16.29506
G1 X144.045 Y154.652 E16.33648
G1 F2700 E16.33548
G1 F300 Z0.72
G0 F6000 X158.228 Y156.664 Z0.72
G1 F300 Z0.32
G1 F2700 E16.33648
G1 F1176.5 X158.244 Y155.853 E16.42454
G1 F1192.5 X158.239 Y144.254 E17.66677
G1 F1156.6 X158.219 Y143.655 E17.73295
G1 X157.978 Y144.167 E17.79544
G1 F1192.5 X157.474 Y144.552 E17.86336
G1 F1200 X157.012 Y144.644 E17.9135
G1 X155.142 Y144.644 E18.11253
G1 X153.958 Y145.616 E18.27557
G1 X153.649 Y145.819 E18.31492
G1 X153.274 Y145.886 E18.35546
G1 X145.876 Y145.888 E19.14285
G1 X145.513 Y145.821 E19.18214
G1 X145.111 Y145.582 E19.23191
G1 X144.907 Y145.399 E19.26108
G1 F1132.1 X144.22 Y144.849 E19.36036
G1 F1011.6 X143.879 Y144.615 E19.41258
G1 F962.9 X143.392 Y144.173 E19.49981
G1 F967.7 X141.852 Y144.172 E19.70306
G1 X141.852 Y144.808 E19.78699
G1 X142.162 Y144.808 E19.82791
G1 X142.906 Y145.066 E19.93183
G1 F962.9 X143.152 Y145.297 E19.97659
G1 F1011.6 X143.258 Y145.567 E20.01322
G1 F1132.1 X143.328 Y146.104 E20.07431
G1 F1200 X143.328 Y148.397 E20.31836
G1 X143.263 Y148.753 E20.35688
G1 X143.129 Y149.023 E20.38896
G1 X142.997 Y149.189 E20.41153
G1 X142.736 Y149.395 E20.44692
G1 X142.253 Y149.56 E20.50124
G1 X141.756 Y149.56 E20.55414
G1 X141.756 Y150.728 E20.67845
G1 X142.253 Y150.728 E20.73135
G1 X142.736 Y150.893 E20.78568
G1 X142.997 Y151.099 E20.82106
G1 X143.129 Y151.265 E20.84364
G1 X143.263 Y151.535 E20.87572
G1 X143.328 Y151.928 E20.91811
G1 X143.329 Y154.272 E21.16759
G1 F1192.5 X143.221 Y154.781 E21.22332
G1 F1075 X142.981 Y155.238 E21.28464
G1 F982.6 X142.914 Y155.295 E21.29608
G1 F1079.9 X142.297 Y155.469 E21.3719
G1 F1204.5 X141.753 Y155.469 E21.42958
G1 F1209.1 X141.753 Y156.263 E21.51345
G1 F1200 X142.405 Y156.257 E21.58285
G1 F1076.2 X143.212 Y156.171 E21.67916
G1 F981.6 X143.396 Y156.171 E21.7031
G1 F982.6 X143.625 Y155.97 E21.74271
G1 F1075 X144.237 Y155.542 E21.83143
G1 F1192.5 X145.114 Y154.776 E21.95614
G1 F1200 X145.392 Y154.592 E21.99162
G1 X145.735 Y154.476 E22.03016
G1 X153.304 Y154.476 E22.83575
G1 X153.728 Y154.589 E22.88245
G1 X155.072 Y155.464 E23.05314
G1 X157.012 Y155.464 E23.25962
G1 X157.474 Y155.555 E23.30973
G1 X157.973 Y155.943 E23.37701
G1 F1176.5 X158.228 Y156.664 E23.46003
G1 F1153.8 X158.228 Y157.296 E23.52999
G0 F6000 X157.412 Y158.112
;TYPE:WALL-OUTER
G1 F1200 X159.044 Y158.112 E23.70369
G1 X159.044 Y141.884 E25.43087
G1 X157.412 Y141.884 E25.60457
G1 X157.407 Y143.513 E25.77795
G1 X157.333 Y143.684 E25.79778
G1 X157.166 Y143.814 E25.82031
G1 X157.012 Y143.844 E25.837
G1 X154.856 Y143.844 E26.06647
G1 X153.45 Y144.998 E26.26007
G1 X153.282 Y145.088 E26.28035
G1 X145.816 Y145.088 E27.07498
G1 X145.645 Y144.986 E27.09617
G1 X143.735 Y143.277 E27.36895
G1 X140.956 Y143.276 E27.66473
G1 X140.956 Y145.704 E27.92314
G1 X142.139 Y145.704 E28.04905
G1 X142.368 Y145.783 E28.07484
G1 X142.491 Y145.931 E28.09532
G1 X142.528 Y146.104 E28.11415
G1 X142.528 Y148.457 E28.36458
G1 X142.418 Y148.637 E28.38703
G1 X142.179 Y148.757 E28.4155
G1 X140.956 Y148.76 E28.54567
G1 X140.956 Y151.528 E28.84027
G1 X142.179 Y151.531 E28.97044
G1 X142.331 Y151.583 E28.98754
G1 X142.485 Y151.746 E29.0114
G1 X142.522 Y151.856 E29.02375
G1 X142.529 Y154.272 E29.2809
G1 X142.491 Y154.441 E29.29933
G1 X142.372 Y154.59 E29.31963
G1 X142.197 Y154.667 E29.33998
G1 X140.956 Y154.672 E29.47206
G1 X140.956 Y157.06 E29.72622
G1 X143.732 Y157.06 E30.02168
G1 X145.699 Y155.326 E30.30076
G1 X145.849 Y155.276 E30.31759
G1 X153.318 Y155.277 E31.11254
G1 X154.835 Y156.264 E31.30516
G1 X157.012 Y156.264 E31.53686
G1 X157.166 Y156.294 E31.55356
G1 X157.333 Y156.423 E31.57602
G1 X157.412 Y156.664 E31.60301
G1 X157.412 Y158.112 E31.75713
G1 F2700 E31.75613
G1 F300 Z0.72
;MESH:NONMESH
G0 F6000 X158.228 Y142.7 Z0.72
;TIME_ELAPSED:22.419355
;LAYER:1
M106 S127.5
;MESH:2dRook.stl
G0 F7500 X158.228 Y142.7 Z1.02
;TYPE:WALL-INNER
G1 F300 Z0.62
G1 F2700 E31.75713
G1 F1298.1 X158.228 Y143.444 E31.83433
G1 F1284.2 X158.219 Y143.655 E31.85649
G1 F2700 E31.85549
G1 F300 Z1.02
G0 F7500 X154.291 Y150.65 Z1.02
G1 F300 Z0.62
G1 F2700 E31.85649
G1 F1400.8 X154.291 Y149.707 E31.94717
G1 X153.856 Y149.8 E31.98995
G1 F1421.1 X153.196 Y149.808 E32.05251
G1 F1440 X147.028 Y149.808 E32.62949
G1 X146.925 Y150.144 E32.66237
G1 X146.983 Y150.3 E32.67794
G1 X147.049 Y150.556 E32.70267
G1 F1421.1 X153.856 Y150.564 E33.34791
G1 F1400.8 X154.291 Y150.65 E33.39055
G0 F7500 X155.065 Y151.702
G1 F1388.2 X155.065 Y148.636 E33.68807
G1 X154.456 Y148.882 E33.7518
G1 X153.757 Y149.032 E33.82117
G1 F1400.8 X153.478 Y149.048 E33.84805
G1 F1415.5 X146.453 Y149.053 E34.51659
G1 F1419.2 X146.253 Y149.788 E34.58889
G1 X146.115 Y150.13 E34.62389
G1 X146.267 Y150.54 E34.66539
G1 X146.423 Y151.143 E34.72451
G1 X146.439 Y151.311 E34.74053
G1 X153.196 Y151.311 E35.38188
G1 F1404.4 X153.757 Y151.332 E35.43572
G1 F1388.2 X154.331 Y151.446 E35.49251
G1 X155.065 Y151.702 E35.56794
G1 F2700 E35.56694
G1 F300 Z1.02
G0 F7500 X155.849 Y153.069 Z1.02
G1 F300 Z0.62
G1 F2700 E35.56794
G1 F1365.4 X155.849 Y147.162 E36.15072
G1 X155.477 Y147.467 E36.19817
G1 X154.85 Y147.881 E36.2723
G1 X154.231 Y148.132 E36.3382
G1 F1368.8 X153.563 Y148.274 E36.40541
G1 F1374 X145.74 Y148.279 E37.17233
G1 F1375.8 X145.653 Y149.057 E37.24898
G1 X145.501 Y149.615 E37.3056
G1 X145.259 Y150.143 E37.36247
G1 X145.509 Y150.691 E37.42144
G1 X145.662 Y151.282 E37.48121
G1 X145.738 Y152.084 E37.56009
G1 X153.196 Y152.084 E38.2903
G1 F1374 X153.597 Y152.098 E38.32963
G1 F1368.8 X154.128 Y152.203 E38.3829
G1 F1365.4 X154.634 Y152.379 E38.43576
G1 X155.156 Y152.661 E38.49429
G1 X155.782 Y153.069 E38.56801
G1 X155.849 Y153.069 E38.57462
G0 F7500 X156.644 Y153.864
G1 F1350 X156.644 Y146.244 E39.33495
G1 X155.714 Y146.244 E39.42774
G1 X154.973 Y146.853 E39.52345
G1 X154.484 Y147.175 E39.58187
G1 X154.002 Y147.37 E39.63375
G1 X153.476 Y147.483 E39.68743
G1 X145.828 Y147.487 E40.45055
G1 X144.928 Y147.32 E40.54188
G1 X144.927 Y148.445 E40.65414
G1 X144.876 Y148.904 E40.70022
G1 X144.775 Y149.276 E40.73868
G1 X144.625 Y149.628 E40.77686
G1 X144.462 Y149.907 E40.8091
G1 X144.273 Y150.144 E40.83935
G1 X144.462 Y150.381 E40.86959
G1 X144.625 Y150.66 E40.90184
G1 X144.783 Y151.038 E40.94272
G1 X144.883 Y151.424 E40.9825
G1 X144.928 Y151.904 E41.03061
G1 X144.928 Y153.071 E41.14705
G1 X145.331 Y152.935 E41.18949
G1 X145.884 Y152.876 E41.24498
G1 X153.47 Y152.881 E42.00192
G1 X153.922 Y152.971 E42.0479
G1 X154.316 Y153.108 E42.08952
G1 X154.723 Y153.328 E42.13569
G1 X155.546 Y153.864 E42.23369
G1 X156.644 Y153.864 E42.34325
G1 F2700 E42.34225
G1 F300 Z1.02
G0 F7500 X144.045 Y154.652 Z1.02
G1 F300 Z0.62
G1 F2700 E42.34325
G1 F1350 X144.585 Y154.176 E42.41507
G1 X145.048 Y153.869 E42.4705
G1 X145.496 Y153.718 E42.51768
G1 X145.89 Y153.676 E42.55721
G1 X153.388 Y153.679 E43.30537
G1 X153.715 Y153.744 E43.33863
G1 X153.996 Y153.842 E43.36833
G1 X154.287 Y153.998 E43.40127
G1 X155.309 Y154.664 E43.52299
G1 X157.012 Y154.664 E43.69292
G1 X157.444 Y154.749 E43.73685
G1 X157.444 Y145.358 E44.67389
G1 X157.012 Y145.444 E44.71784
G1 X155.428 Y145.444 E44.87589
G1 X154.465 Y146.234 E45.00017
G1 X154.116 Y146.465 E45.04193
G1 X153.772 Y146.604 E45.07896
G1 X153.392 Y146.685 E45.11772
G1 X145.852 Y146.687 E45.87007
G1 X145.248 Y146.575 E45.93136
G1 X144.578 Y146.178 E46.00907
G1 X144.038 Y145.695 E46.08136
G1 X144.128 Y146.104 E46.12315
G1 X144.127 Y148.421 E46.35434
G1 X144.091 Y148.749 E46.38726
G1 X144.019 Y149.014 E46.41466
G1 X143.865 Y149.377 E46.45401
G1 X143.576 Y149.741 E46.50038
G1 X143.142 Y150.085 E46.55564
G1 X142.967 Y150.144 E46.57407
G1 X143.142 Y150.203 E46.5925
G1 X143.576 Y150.547 E46.64775
G1 X143.866 Y150.913 E46.69435
G1 X144.025 Y151.292 E46.73536
G1 X144.096 Y151.568 E46.76379
G1 X144.128 Y151.911 E46.79817
G1 X144.129 Y154.272 E47.03375
G1 X144.045 Y154.652 E47.07258
G1 F2700 E47.07158
G1 F300 Z1.02
G0 F7500 X158.228 Y156.664 Z1.02
G1 F300 Z0.62
G1 F2700 E47.07258
G1 F1323.5 X158.244 Y155.853 E47.15514
G1 F1341.6 X158.239 Y144.254 E48.31972
G1 F1301.2 X158.219 Y143.655 E48.38177
G1 X157.978 Y144.167 E48.44035
G1 F1341.6 X157.474 Y144.552 E48.50403
G1 F1350 X157.012 Y144.644 E48.55103
G1 X155.142 Y144.644 E48.73762
G1 X153.958 Y145.616 E48.89047
G1 X153.748 Y145.754 E48.91555
G1 X153.317 Y145.886 E48.96052
G1 X145.876 Y145.888 E49.70299
G1 X145.513 Y145.821 E49.73982
G1 X145.111 Y145.582 E49.78649
G1 X144.907 Y145.399 E49.81383
G1 F1273.6 X144.22 Y144.849 E49.90691
G1 F1138 X143.879 Y144.615 E49.95586
G1 F1083.2 X143.392 Y144.173 E50.03764
G1 F1088.7 X141.852 Y144.172 E50.22819
G1 X141.852 Y144.808 E50.30688
G1 X142.162 Y144.808 E50.34523
G1 X142.906 Y145.066 E50.44266
G1 F1083.2 X143.152 Y145.297 E50.48463
G1 F1138 X143.258 Y145.567 E50.51896
G1 F1273.6 X143.328 Y146.104 E50.57624
G1 F1350 X143.328 Y148.397 E50.80503
G1 X143.263 Y148.753 E50.84114
G1 X143.129 Y149.023 E50.87122
G1 X142.997 Y149.189 E50.89238
G1 X142.736 Y149.395 E50.92556
G1 X142.253 Y149.56 E50.97649
G1 X141.756 Y149.56 E51.02608
G1 X141.756 Y150.728 E51.14262
G1 X142.253 Y150.728 E51.19221
G1 X142.736 Y150.893 E51.24314
G1 X142.997 Y151.099 E51.27632
G1 X143.129 Y151.265 E51.29748
G1 X143.263 Y151.535 E51.32755
G1 X143.328 Y151.928 E51.3673
G1 X143.329 Y154.272 E51.60119
G1 F1341.6 X143.221 Y154.781 E51.65343
G1 F1209.4 X142.981 Y155.238 E51.71092
G1 F1105.4 X142.914 Y155.295 E51.72164
G1 F1214.8 X142.297 Y155.469 E51.79272
G1 F1355.1 X141.753 Y155.469 E51.8468
G1 F1360.2 X141.753 Y156.263 E51.92543
G1 F1350 X142.405 Y156.257 E51.99049
G1 F1210.8 X143.212 Y156.171 E52.08078
G1 F1104.3 X143.396 Y156.171 E52.10323
G1 F1105.4 X143.625 Y155.97 E52.14036
G1 F1209.4 X144.237 Y155.542 E52.22354
G1 F1341.6 X145.114 Y154.776 E52.34045
G1 F1350 X145.392 Y154.592 E52.37371
G1 X145.735 Y154.476 E52.40984
G1 X153.304 Y154.476 E53.16508
G1 X153.728 Y154.589 E53.20887
G1 X155.072 Y155.464 E53.36889
G1 X157.012 Y155.464 E53.56246
G1 X157.474 Y155.555 E53.60944
G1 X157.973 Y155.943 E53.67252
G1 F1323.5 X158.228 Y156.664 E53.75035
G1 F1298.1 X158.228 Y157.296 E53.81593
G0 F7500 X157.412 Y158.112
;TYPE:WALL-OUTER
G1 F1350 X159.044 Y158.112 E53.97878
G1 X159.044 Y141.884 E55.59801
G1 X157.412 Y141.884 E55.76085
G1 X157.407 Y143.513 E55.9234
G1 X157.333 Y143.684 E55.94199
G1 X157.166 Y143.814 E55.96311
G1 X157.012 Y143.844 E55.97876
G1 X154.856 Y143.844 E56.19389
G1 X153.45 Y144.998 E56.37538
G1 X153.282 Y145.088 E56.3944
G1 X145.816 Y145.088 E57.13936
G1 X145.645 Y144.986 E57.15923
G1 X143.735 Y143.277 E57.41496
G1 X140.956 Y143.276 E57.69225
G1 X140.956 Y145.704 E57.93452
G1 X142.139 Y145.704 E58.05256
G1 X142.368 Y145.783 E58.07673
G1 X142.491 Y145.931 E58.09593
G1 X142.528 Y146.104 E58.11358
G1 X142.528 Y148.457 E58.34837
G1 X142.418 Y148.637 E58.36941
G1 X142.179 Y148.757 E58.3961
G1 X140.956 Y148.76 E58.51813
G1 X140.956 Y151.528 E58.79432
G1 X142.179 Y151.531 E58.91635
G1 X142.331 Y151.583 E58.93238
G1 X142.485 Y151.746 E58.95476
G1 X142.522 Y151.856 E58.96634
G1 X142.529 Y154.272 E59.20741
G1 X142.491 Y154.441 E59.22469
G1 X142.372 Y154.59 E59.24372
G1 X142.197 Y154.667 E59.2628
G1 X140.956 Y154.672 E59.38663
G1 X140.956 Y157.06 E59.6249
G1 X143.732 Y157.06 E59.90189
G1 X145.699 Y155.326 E60.16353
