;FLAVOR:Marlin
;TIME:169
;Filament used: 0.152777m
;Layer height: 0.3
;MINX:131.956
;MINY:145.5
;MINZ:0.32
;MAXX:168.04
;MAXY:154.5
;MAXZ:5.52
;TARGET_MACHINE.NAME:Creality CR-10
;Generated with Cura_SteamEngine 5.7.1
M140 S50
M105
M190 S50
M104 S200
M105
M109 S200
M82 ;absolute extrusion mode
M201 X500.00 Y500.00 Z100.00 E5000.00 ;Setup machine max acceleration
M203 X500.00 Y500.00 Z10.00 E50.00 ;Setup machine max feedrate
M204 P500.00 R1000.00 T500.00 ;Setup Print/Retract/Travel acceleration
M205 X8.00 Y8.00 Z0.40 E5.00 ;Setup Jerk
M220 S100 ;Reset Feedrate
M221 S100 ;Reset Flowrate

G28 ;Home

G92 E0 ;Reset Extruder
G1 Z2.0 F3000 ;Move Z Axis up
G1 X10.1 Y20 Z0.28 F5000.0 ;Move to start position
G1 X10.1 Y200.0 Z0.28 F1500.0 E15 ;Draw the first line
G1 X10.4 Y200.0 Z0.28 F5000.0 ;Move to side a little
G1 X10.4 Y20 Z0.28 F1500.0 E30 ;Draw the second line
G92 E0 ;Reset Extruder
G1 Z2.0 F3000 ;Move Z Axis up

G92 E0
G92 E0
G1 F2700 E-0.001
;LAYER_COUNT:17
;LAYER:0
M106 S255
G1 F300 Z0.72
;MESH:Body1.stl
G0 F6000 X168.04 Y145.5 Z0.72
;TYPE:WALL-OUTER
G1 F300 Z0.32
G1 F2700 E0
G1 F477.6 X159.453 Y145.503 E1.14813
G1 F440.4 X159.126 Y145.586 E1.19705
G1 F442.4 X159.04 Y146 E1.25809
G1 F478.6 X159.037 Y154.087 E2.33722
G1 F440.8 X158.954 Y154.414 E2.3861
G1 F440 X158.627 Y154.497 E2.43506
G1 F477.6 X150.54 Y154.5 E3.51634
G1 F442.4 X150.126 Y154.414 E3.57738
G1 F440.4 X150.043 Y154.087 E3.6263
G1 F477.6 X150.04 Y146 E4.70758
G1 F442 X149.954 Y145.586 E4.76867
G1 X149.54 Y145.5 E4.82977
G1 F477.6 X141.369 Y145.503 E5.92228
G1 F440.4 X141.042 Y145.586 E5.9712
G1 F442.4 X140.956 Y146 E6.03223
G1 F478.6 X140.953 Y154.087 E7.11136
G1 F440.8 X140.87 Y154.414 E7.16024
G1 F440 X140.543 Y154.497 E7.20921
G1 F477.6 X132.456 Y154.5 E8.29049
G1 F442.4 X132.042 Y154.414 E8.35152
G1 F440.4 X131.959 Y154.087 E8.40045
G1 F477.6 X131.956 Y145.5 E9.54858
G1 F2700 E9.54758
G1 F300 Z0.72
;MESH:NONMESH
G0 F6000 X168.04 Y145.5 Z0.72
;TIME_ELAPSED:14.149913
;LAYER:1
;MESH:Body1.stl
G0 F7500 X168.04 Y145.5 Z1.02
;TYPE:WALL-OUTER
G1 F300 Z0.62
G1 F2700 E9.54858
G1 F477.6 X159.453 Y145.503 E10.62495
G1 F440.4 X159.126 Y145.586 E10.67082
G1 F442.4 X159.04 Y146 E10.72804
G1 F478.6 X159.037 Y154.087 E11.73972
G1 F440.8 X158.954 Y154.414 E11.78554
G1 F440 X158.627 Y154.497 E11.83145
G1 F477.6 X150.54 Y154.5 E12.84515
G1 F442.4 X150.126 Y154.414 E12.90237
G1 F440.4 X150.043 Y154.087 E12.94824
G1 F477.6 X150.04 Y146 E13.96193
G1 F442 X149.954 Y145.586 E14.01921
G1 X149.54 Y145.5 E14.07648
G1 F477.6 X141.369 Y145.503 E15.10071
G1 F440.4 X141.042 Y145.586 E15.14658
G1 F442.4 X140.956 Y146 E15.2038
G1 F478.6 X140.953 Y154.087 E16.21548
G1 F440.8 X140.87 Y154.414 E16.2613
G1 F440 X140.543 Y154.497 E16.30721
G1 F477.6 X132.456 Y154.5 E17.32091
G1 F442.4 X132.042 Y154.414 E17.37813
G1 F440.4 X131.959 Y154.087 E17.424
G1 F477.6 X131.956 Y145.5 E18.50037
G1 F2700 E18.49937
G1 F300 Z1.02
;MESH:NONMESH
G0 F7500 X168.04 Y145.5 Z1.02
;TIME_ELAPSED:23.886625
;LAYER:2
;MESH:Body1.stl
G0 F9000 X168.04 Y145.5 Z1.32
;TYPE:WALL-OUTER
G1 F300 Z0.92
G1 F2700 E18.50037
G1 F477.6 X159.453 Y145.503 E19.57674
G1 F440.4 X159.126 Y145.586 E19.62261
G1 F442.4 X159.04 Y146 E19.67983
G1 F478.6 X159.037 Y154.087 E20.69151
G1 F440.8 X158.954 Y154.414 E20.73733
G1 F440 X158.627 Y154.497 E20.78324
G1 F477.6 X150.54 Y154.5 E21.79694
G1 F442.4 X150.126 Y154.414 E21.85416
G1 F440.4 X150.043 Y154.087 E21.90003
G1 F477.6 X150.04 Y146 E22.91373
G1 F442 X149.954 Y145.586 E22.971
G1 X149.54 Y145.5 E23.02827
G1 F477.6 X141.369 Y145.503 E24.0525
G1 F440.4 X141.042 Y145.586 E24.09837
G1 F442.4 X140.956 Y146 E24.15559
G1 F478.6 X140.953 Y154.087 E25.16727
G1 F440.8 X140.87 Y154.414 E25.21309
G1 F440 X140.543 Y154.497 E25.259
G1 F477.6 X132.456 Y154.5 E26.2727
G1 F442.4 X132.042 Y154.414 E26.32992
G1 F440.4 X131.959 Y154.087 E26.37579
G1 F477.6 X131.956 Y145.5 E27.45216
G1 F2700 E27.45116
G1 F300 Z1.32
;MESH:NONMESH
G0 F9000 X168.04 Y145.5 Z1.32
;TIME_ELAPSED:33.621933
;LAYER:3
;MESH:Body1.stl
G0 X168.04 Y145.5 Z1.62
;TYPE:WALL-OUTER
G1 F300 Z1.22
G1 F2700 E27.45216
G1 F477.6 X159.453 Y145.503 E28.52853
G1 F440.4 X159.126 Y145.586 E28.5744
G1 F442.4 X159.04 Y146 E28.63162
G1 F478.6 X159.037 Y154.087 E29.6433
G1 F440.8 X158.954 Y154.414 E29.68912
G1 F440 X158.627 Y154.497 E29.73503
G1 F477.6 X150.54 Y154.5 E30.74873
G1 F442.4 X150.126 Y154.414 E30.80595
G1 F440.4 X150.043 Y154.087 E30.85182
G1 F477.6 X150.04 Y146 E31.86552
G1 F442 X149.954 Y145.586 E31.92279
G1 X149.54 Y145.5 E31.98006
G1 F477.6 X141.369 Y145.503 E33.00429
G1 F440.4 X141.042 Y145.586 E33.05016
G1 F442.4 X140.956 Y146 E33.10738
G1 F478.6 X140.953 Y154.087 E34.11906
G1 F440.8 X140.87 Y154.414 E34.16488
G1 F440 X140.543 Y154.497 E34.21079
G1 F477.6 X132.456 Y154.5 E35.22449
G1 F442.4 X132.042 Y154.414 E35.28171
G1 F440.4 X131.959 Y154.087 E35.32758
G1 F477.6 X131.956 Y145.5 E36.40395
G1 F2700 E36.40295
G1 F300 Z1.62
;MESH:NONMESH
G0 F9000 X168.04 Y145.5 Z1.62
;TIME_ELAPSED:43.357240
;LAYER:4
;MESH:Body1.stl
G0 X168.04 Y145.5 Z1.92
;TYPE:WALL-OUTER
G1 F300 Z1.52
G1 F2700 E36.40395
G1 F477.6 X159.453 Y145.503 E37.48032
G1 F440.4 X159.126 Y145.586 E37.52619
G1 F442.4 X159.04 Y146 E37.58341
G1 F478.6 X159.037 Y154.087 E38.59509
G1 F440.8 X158.954 Y154.414 E38.64092
G1 F440 X158.627 Y154.497 E38.68682
G1 F477.6 X150.54 Y154.5 E39.70052
G1 F442.4 X150.126 Y154.414 E39.75774
G1 F440.4 X150.043 Y154.087 E39.80361
G1 F477.6 X150.04 Y146 E40.81731
G1 F442 X149.954 Y145.586 E40.87458
G1 X149.54 Y145.5 E40.93186
G1 F477.6 X141.369 Y145.503 E41.95608
G1 F440.4 X141.042 Y145.586 E42.00195
G1 F442.4 X140.956 Y146 E42.05917
G1 F478.6 X140.953 Y154.087 E43.07085
G1 F440.8 X140.87 Y154.414 E43.11668
G1 F440 X140.543 Y154.497 E43.16258
G1 F477.6 X132.456 Y154.5 E44.17628
G1 F442.4 X132.042 Y154.414 E44.2335
G1 F440.4 X131.959 Y154.087 E44.27937
G1 F477.6 X131.956 Y145.5 E45.35574
G1 F2700 E45.35474
G1 F300 Z1.92
;MESH:NONMESH
G0 F9000 X168.04 Y145.5 Z1.92
;TIME_ELAPSED:53.092547
;LAYER:5
;MESH:Body1.stl
G0 X168.04 Y145.5 Z2.22
;TYPE:WALL-OUTER
G1 F300 Z1.82
G1 F2700 E45.35574
G1 F477.6 X159.453 Y145.503 E46.43212
G1 F440.4 X159.126 Y145.586 E46.47798
G1 F442.4 X159.04 Y146 E46.5352
G1 F478.6 X159.037 Y154.087 E47.54688
G1 F440.8 X158.954 Y154.414 E47.59271
G1 F440 X158.627 Y154.497 E47.63861
G1 F477.6 X150.54 Y154.5 E48.65231
G1 F442.4 X150.126 Y154.414 E48.70953
G1 F440.4 X150.043 Y154.087 E48.7554
G1 F477.6 X150.04 Y146 E49.7691
G1 F442 X149.954 Y145.586 E49.82637
G1 X149.54 Y145.5 E49.88365
G1 F477.6 X141.369 Y145.503 E50.90788
G1 F440.4 X141.042 Y145.586 E50.95374
G1 F442.4 X140.956 Y146 E51.01096
G1 F478.6 X140.953 Y154.087 E52.02264
G1 F440.8 X140.87 Y154.414 E52.06847
G1 F440 X140.543 Y154.497 E52.11437
G1 F477.6 X132.456 Y154.5 E53.12807
G1 F442.4 X132.042 Y154.414 E53.18529
G1 F440.4 X131.959 Y154.087 E53.23116
G1 F477.6 X131.956 Y145.5 E54.30753
G1 F2700 E54.30653
G1 F300 Z2.22
;MESH:NONMESH
G0 F9000 X168.04 Y145.5 Z2.22
;TIME_ELAPSED:62.827854
;LAYER:6
;MESH:Body1.stl
G0 X168.04 Y145.5 Z2.52
;TYPE:WALL-OUTER
G1 F300 Z2.12
G1 F2700 E54.30753
G1 F477.6 X159.453 Y145.503 E55.38391
G1 F440.4 X159.126 Y145.586 E55.42977
G1 F442.4 X159.04 Y146 E55.48699
G1 F478.6 X159.037 Y154.087 E56.49867
G1 F440.8 X158.954 Y154.414 E56.5445
G1 F440 X158.627 Y154.497 E56.59041
G1 F477.6 X150.54 Y154.5 E57.6041
G1 F442.4 X150.126 Y154.414 E57.66133
G1 F440.4 X150.043 Y154.087 E57.70719
G1 F477.6 X150.04 Y146 E58.72089
G1 F442 X149.954 Y145.586 E58.77816
G1 X149.54 Y145.5 E58.83544
G1 F477.6 X141.369 Y145.503 E59.85967
G1 F440.4 X141.042 Y145.586 E59.90553
G1 F442.4 X140.956 Y146 E59.96275
G1 F478.6 X140.953 Y154.087 E60.97443
G1 F440.8 X140.87 Y154.414 E61.02026
G1 F440 X140.543 Y154.497 E61.06617
G1 F477.6 X132.456 Y154.5 E62.07986
G1 F442.4 X132.042 Y154.414 E62.13709
G1 F440.4 X131.959 Y154.087 E62.18295
G1 F477.6 X131.956 Y145.5 E63.25932
G1 F2700 E63.25832
G1 F300 Z2.52
;MESH:NONMESH
G0 F9000 X168.04 Y145.5 Z2.52
;TIME_ELAPSED:72.563161
;LAYER:7
;MESH:Body1.stl
G0 X168.04 Y145.5 Z2.82
;TYPE:WALL-OUTER
G1 F300 Z2.42
G1 F2700 E63.25932
G1 F477.6 X159.453 Y145.503 E64.3357
G1 F440.4 X159.126 Y145.586 E64.38156
G1 F442.4 X159.04 Y146 E64.43878
G1 F478.6 X159.037 Y154.087 E65.45047
G1 F440.8 X158.954 Y154.414 E65.49629
G1 F440 X158.627 Y154.497 E65.5422
G1 F477.6 X150.54 Y154.5 E66.5559
G1 F442.4 X150.126 Y154.414 E66.61312
G1 F440.4 X150.043 Y154.087 E66.65898
G1 F477.6 X150.04 Y146 E67.67268
G1 F442 X149.954 Y145.586 E67.72996
G1 X149.54 Y145.5 E67.78723
G1 F477.6 X141.369 Y145.503 E68.81146
G1 F440.4 X141.042 Y145.586 E68.85732
G1 F442.4 X140.956 Y146 E68.91454
G1 F478.6 X140.953 Y154.087 E69.92623
G1 F440.8 X140.87 Y154.414 E69.97205
G1 F440 X140.543 Y154.497 E70.01796
G1 F477.6 X132.456 Y154.5 E71.03166
G1 F442.4 X132.042 Y154.414 E71.08888
G1 F440.4 X131.959 Y154.087 E71.13474
G1 F477.6 X131.956 Y145.5 E72.21112
G1 F2700 E72.21012
G1 F300 Z2.82
;MESH:NONMESH
G0 F9000 X168.04 Y145.5 Z2.82
;TIME_ELAPSED:82.298468
;LAYER:8
;MESH:Body1.stl
G0 X168.04 Y145.5 Z3.12
;TYPE:WALL-OUTER
G1 F300 Z2.72
G1 F2700 E72.21112
G1 F477.6 X159.453 Y145.503 E73.28749
G1 F440.4 X159.126 Y145.586 E73.33335
G1 F442.4 X159.04 Y146 E73.39058
G1 F478.6 X159.037 Y154.087 E74.40226
G1 F440.8 X158.954 Y154.414 E74.44808
G1 F440 X158.627 Y154.497 E74.49399
G1 F477.6 X150.54 Y154.5 E75.50769
G1 F442.4 X150.126 Y154.414 E75.56491
G1 F440.4 X150.043 Y154.087 E75.61077
G1 F477.6 X150.04 Y146 E76.62447
G1 F442 X149.954 Y145.586 E76.68175
G1 X149.54 Y145.5 E76.73902
G1 F477.6 X141.369 Y145.503 E77.76325
G1 F440.4 X141.042 Y145.586 E77.80911
G1 F442.4 X140.956 Y146 E77.86634
G1 F478.6 X140.953 Y154.087 E78.87802
G1 F440.8 X140.87 Y154.414 E78.92384
G1 F440 X140.543 Y154.497 E78.96975
G1 F477.6 X132.456 Y154.5 E79.98345
G1 F442.4 X132.042 Y154.414 E80.04067
G1 F440.4 X131.959 Y154.087 E80.08653
G1 F477.6 X131.956 Y145.5 E81.16291
G1 F2700 E81.16191
G1 F300 Z3.12
;MESH:NONMESH
G0 F9000 X168.04 Y145.5 Z3.12
;TIME_ELAPSED:92.033775
;LAYER:9
;MESH:Body1.stl
G0 X168.04 Y145.5 Z3.42
;TYPE:WALL-OUTER
G1 F300 Z3.02
G1 F2700 E81.16291
G1 F477.6 X159.453 Y145.503 E82.23928
G1 F440.4 X159.126 Y145.586 E82.28515
G1 F442.4 X159.04 Y146 E82.34237
G1 F478.6 X159.037 Y154.087 E83.35405
G1 F440.8 X158.954 Y154.414 E83.39987
G1 F440 X158.627 Y154.497 E83.44578
G1 F477.6 X150.54 Y154.5 E84.45948
G1 F442.4 X150.126 Y154.414 E84.5167
G1 F440.4 X150.043 Y154.087 E84.56257
G1 F477.6 X150.04 Y146 E85.57626
G1 F442 X149.954 Y145.586 E85.63354
G1 X149.54 Y145.5 E85.69081
G1 F477.6 X141.369 Y145.503 E86.71504
G1 F440.4 X141.042 Y145.586 E86.76091
G1 F442.4 X140.956 Y146 E86.81813
G1 F478.6 X140.953 Y154.087 E87.82981
G1 F440.8 X140.87 Y154.414 E87.87563
G1 F440 X140.543 Y154.497 E87.92154
G1 F477.6 X132.456 Y154.5 E88.93524
G1 F442.4 X132.042 Y154.414 E88.99246
G1 F440.4 X131.959 Y154.087 E89.03833
G1 F477.6 X131.956 Y145.5 E90.1147
G1 F2700 E90.1137
G1 F300 Z3.42
;MESH:NONMESH
G0 F9000 X168.04 Y145.5 Z3.42
;TIME_ELAPSED:101.769083
;LAYER:10
;MESH:Body1.stl
G0 X168.04 Y145.5 Z3.72
;TYPE:WALL-OUTER
G1 F300 Z3.32
G1 F2700 E90.1147
G1 F477.6 X159.453 Y145.503 E91.19107
G1 F440.4 X159.126 Y145.586 E91.23694
G1 F442.4 X159.04 Y146 E91.29416
G1 F478.6 X159.037 Y154.087 E92.30584
G1 F440.8 X158.954 Y154.414 E92.35166
G1 F440 X158.627 Y154.497 E92.39757
G1 F477.6 X150.54 Y154.5 E93.41127
G1 F442.4 X150.126 Y154.414 E93.46849
G1 F440.4 X150.043 Y154.087 E93.51436
G1 F477.6 X150.04 Y146 E94.52806
G1 F442 X149.954 Y145.586 E94.58533
G1 X149.54 Y145.5 E94.6426
G1 F477.6 X141.369 Y145.503 E95.66683
G1 F440.4 X141.042 Y145.586 E95.7127
G1 F442.4 X140.956 Y146 E95.76992
G1 F478.6 X140.953 Y154.087 E96.7816
G1 F440.8 X140.87 Y154.414 E96.82742
G1 F440 X140.543 Y154.497 E96.87333
G1 F477.6 X132.456 Y154.5 E97.88703
G1 F442.4 X132.042 Y154.414 E97.94425
G1 F440.4 X131.959 Y154.087 E97.99012
G1 F477.6 X131.956 Y145.5 E99.06649
G1 F2700 E99.06549
G1 F300 Z3.72
;MESH:NONMESH
G0 F9000 X168.04 Y145.5 Z3.72
;TIME_ELAPSED:111.504390
;LAYER:11
;MESH:Body1.stl
G0 X168.04 Y145.5 Z4.02
;TYPE:WALL-OUTER
G1 F300 Z3.62
G1 F2700 E99.06649
G1 F477.6 X159.453 Y145.503 E100.14286
G1 F440.4 X159.126 Y145.586 E100.18873
G1 F442.4 X159.04 Y146 E100.24595
G1 F478.6 X159.037 Y154.087 E101.25763
G1 F440.8 X158.954 Y154.414 E101.30345
G1 F440 X158.627 Y154.497 E101.34936
G1 F477.6 X150.54 Y154.5 E102.36306
G1 F442.4 X150.126 Y154.414 E102.42028
G1 F440.4 X150.043 Y154.087 E102.46615
G1 F477.6 X150.04 Y146 E103.47985
G1 F442 X149.954 Y145.586 E103.53712
G1 X149.54 Y145.5 E103.59439
G1 F477.6 X141.369 Y145.503 E104.61862
G1 F440.4 X141.042 Y145.586 E104.66449
G1 F442.4 X140.956 Y146 E104.72171
G1 F478.6 X140.953 Y154.087 E105.73339
G1 F440.8 X140.87 Y154.414 E105.77921
G1 F440 X140.543 Y154.497 E105.82512
G1 F477.6 X132.456 Y154.5 E106.83882
G1 F442.4 X132.042 Y154.414 E106.89604
G1 F440.4 X131.959 Y154.087 E106.94191
G1 F477.6 X131.956 Y145.5 E108.01828
G1 F2700 E108.01728
G1 F300 Z4.02
;MESH:NONMESH
G0 F9000 X168.04 Y145.5 Z4.02
;TIME_ELAPSED:121.239697
;LAYER:12
;MESH:Body1.stl
G0 X168.04 Y145.5 Z4.32
;TYPE:WALL-OUTER
G1 F300 Z3.92
G1 F2700 E108.01828
G1 F477.6 X159.453 Y145.503 E109.09465
G1 F440.4 X159.126 Y145.586 E109.14052
G1 F442.4 X159.04 Y146 E109.19774
G1 F478.6 X159.037 Y154.087 E110.20942
G1 F440.8 X158.954 Y154.414 E110.25525
G1 F440 X158.627 Y154.497 E110.30115
G1 F477.6 X150.54 Y154.5 E111.31485
G1 F442.4 X150.126 Y154.414 E111.37207
G1 F440.4 X150.043 Y154.087 E111.41794
G1 F477.6 X150.04 Y146 E112.43164
G1 F442 X149.954 Y145.586 E112.48891
G1 X149.54 Y145.5 E112.54619
G1 F477.6 X141.369 Y145.503 E113.57041
G1 F440.4 X141.042 Y145.586 E113.61628
G1 F442.4 X140.956 Y146 E113.6735
G1 F478.6 X140.953 Y154.087 E114.68518
G1 F440.8 X140.87 Y154.414 E114.73101
G1 F440 X140.543 Y154.497 E114.77691
G1 F477.6 X132.456 Y154.5 E115.79061
G1 F442.4 X132.042 Y154.414 E115.84783
G1 F440.4 X131.959 Y154.087 E115.8937
G1 F477.6 X131.956 Y145.5 E116.97007
G1 F2700 E116.96907
G1 F300 Z4.32
;MESH:NONMESH
G0 F9000 X168.04 Y145.5 Z4.32
;TIME_ELAPSED:130.975004
;LAYER:13
;MESH:Body1.stl
G0 X168.04 Y145.5 Z4.62
;TYPE:WALL-OUTER
G1 F300 Z4.22
G1 F2700 E116.97007
G1 F477.6 X159.453 Y145.503 E118.04645
G1 F440.4 X159.126 Y145.586 E118.09231
G1 F442.4 X159.04 Y146 E118.14953
G1 F478.6 X159.037 Y154.087 E119.16121
G1 F440.8 X158.954 Y154.414 E119.20704
G1 F440 X158.627 Y154.497 E119.25294
G1 F477.6 X150.54 Y154.5 E120.26664
G1 F442.4 X150.126 Y154.414 E120.32386
G1 F440.4 X150.043 Y154.087 E120.36973
G1 F477.6 X150.04 Y146 E121.38343
G1 F442 X149.954 Y145.586 E121.4407
G1 X149.54 Y145.5 E121.49798
G1 F477.6 X141.369 Y145.503 E122.52221
G1 F440.4 X141.042 Y145.586 E122.56807
G1 F442.4 X140.956 Y146 E122.62529
G1 F478.6 X140.953 Y154.087 E123.63697
G1 F440.8 X140.87 Y154.414 E123.6828
G1 F440 X140.543 Y154.497 E123.7287
G1 F477.6 X132.456 Y154.5 E124.7424
G1 F442.4 X132.042 Y154.414 E124.79962
G1 F440.4 X131.959 Y154.087 E124.84549
G1 F477.6 X131.956 Y145.5 E125.92186
G1 F2700 E125.92086
G1 F300 Z4.62
;MESH:NONMESH
G0 F9000 X168.04 Y145.5 Z4.62
;TIME_ELAPSED:140.710311
;LAYER:14
;MESH:Body1.stl
G0 X168.04 Y145.5 Z4.92
;TYPE:WALL-OUTER
G1 F300 Z4.52
G1 F2700 E125.92186
G1 F477.6 X159.453 Y145.503 E126.99824
G1 F440.4 X159.126 Y145.586 E127.0441
G1 F442.4 X159.04 Y146 E127.10132
G1 F478.6 X159.037 Y154.087 E128.113
G1 F440.8 X158.954 Y154.414 E128.15883
G1 F440 X158.627 Y154.497 E128.20474
G1 F477.6 X150.54 Y154.5 E129.21843
G1 F442.4 X150.126 Y154.414 E129.27566
G1 F440.4 X150.043 Y154.087 E129.32152
G1 F477.6 X150.04 Y146 E130.33522
G1 F442 X149.954 Y145.586 E130.39249
G1 X149.54 Y145.5 E130.44977
G1 F477.6 X141.369 Y145.503 E131.474
G1 F440.4 X141.042 Y145.586 E131.51986
G1 F442.4 X140.956 Y146 E131.57708
G1 F478.6 X140.953 Y154.087 E132.58876
G1 F440.8 X140.87 Y154.414 E132.63459
G1 F440 X140.543 Y154.497 E132.6805
G1 F477.6 X132.456 Y154.5 E133.69419
G1 F442.4 X132.042 Y154.414 E133.75142
G1 F440.4 X131.959 Y154.087 E133.79728
G1 F477.6 X131.956 Y145.5 E134.87365
G1 F2700 E134.87265
G1 F300 Z4.92
;MESH:NONMESH
G0 F9000 X168.04 Y145.5 Z4.92
