;FLAVOR:Marlin
;TIME:584
;Filament used: 1.29011m
;Layer height: 0.32
;MINX:2.161
;MINY:24.242
;MINZ:0.32
;MAXX:17.838
;MAXY:85.28
;MAXZ:6.28
;TARGET_MACHINE.NAME:Creality CR-10S Pro
;POSTPROCESSED
;  [SearchAndReplace]
;Generated with Cura_SteamEngine 5.6.0
M104 S228
M105
M109 S228
M82 ;absolute extrusion mode
M201 X500.00 Y500.00 Z100.00 E5000.00 ;Setup machine max acceleration
M203 X500.00 Y500.00 Z10.00 E50.00 ;Setup machine max feedrate
M204 P500.00 R1000.00 T500.00 ;Setup Print/Retract/Travel acceleration
M205 X8.00 Y8.00 Z0.40 E5.00 ;Setup Jerk
M220 S100 ;Reset Feedrate
M221 S100 ;Reset Flowrate

G28 ;Home
;G29 ;Auto bed Level
M420 S1 ;Save and use mesh

G92 E0 ;Reset Extruder
G1 Z2.0 F3000 ;Move Z Axis up
G1 X10.1 Y20 Z0.28 F5000.0 ;Move to start position
G1 X10.1 Y200.0 Z0.28 F1500.0 E15 ;Draw the first line
G1 X10.4 Y200.0 Z0.28 F5000.0 ;Move to side a little
G1 X10.4 Y20 Z0.28 F1500.0 E30 ;Draw the second line
G92 E0 ;Reset Extruder
G1 Z2.0 F3000 ;Move Z Axis up

G92 E0
G92 E0
G1 F1500 E-6.5
;LAYER_COUNT:19
;LAYER:0
M107
G1 F300 Z0.52
;MESH:Sono v1.stl
G0 F6000 X15.922 Y25.551 Z0.52
;TYPE:WALL-INNER
G1 F300 Z0.32
G1 F1500 E0
G1 F1320.1 X16.116 Y25.933 E0.05181
G1 F1298.7 X16.271 Y26.266 E0.09697
G1 F1290.3 X16.394 Y26.572 E0.13777
G1 F1284.8 X16.516 Y26.95 E0.18713
G1 F1283.4 X16.603 Y27.287 E0.23042
G1 X16.687 Y27.718 E0.28504
G1 F1300.1 X16.792 Y28.47 E0.37828
G1 F1339.3 X16.858 Y29.192 E0.46471
G1 F1340.8 X16.867 Y29.513 E0.50294
G1 F1312.9 X16.829 Y30.226 E0.58977
G1 F1286.2 X16.76 Y30.733 E0.65328
G1 F1250 X16.679 Y31.092 E0.70028
G1 F1218.3 X16.586 Y31.402 E0.7427
G1 F1170.7 X16.359 Y32.026 E0.83324
G1 F1100.9 X16.177 Y32.369 E0.88955
G1 F1029.2 X15.835 Y32.853 E0.98148
G1 F982 X15.468 Y33.185 E1.06194
G1 F951.6 X15.188 Y33.402 E1.12137
G1 F919.5 X14.649 Y33.656 E1.22482
G1 F886.9 X14.393 Y33.735 E1.27305
G1 F866.4 X13.991 Y33.802 E1.34814
G1 F867.7 X13.684 Y33.834 E1.40493
G1 F866.4 X13.411 Y33.841 E1.45525
G1 F851.1 X12.797 Y33.776 E1.57108
G1 F824.7 X12.406 Y33.666 E1.6497
G1 F803.2 X11.876 Y33.415 E1.76626
G1 F800.5 X11.605 Y33.218 E1.83308
G1 F801.6 X11.382 Y33.016 E1.893
G1 F810.3 X11.179 Y32.796 E1.95198
G1 F829.9 X10.957 Y32.499 E2.02332
G1 F850.5 X10.811 Y32.26 E2.07589
G1 F870.8 X10.621 Y31.916 E2.14794
G1 F882.4 X10.404 Y31.475 E2.23687
G1 F894.9 X10.11 Y30.833 E2.36284
G1 F918.8 X9.308 Y28.903 E2.72598
G1 F925.9 X8.958 Y28.152 E2.86884
G1 F917.4 X8.819 Y27.881 E2.92184
G1 F903.6 X8.421 Y27.21 E3.05968
G1 F867.7 X8.152 Y26.878 E3.1383
G1 F829.9 X7.835 Y26.549 E3.22619
G1 F811.4 X7.471 Y26.311 E3.31176
G1 F813.6 X7.169 Y26.163 E3.37776
G1 F829.3 X6.833 Y26.04 E3.44664
G1 F845.7 X6.143 Y25.966 E3.57765
G1 F860.8 X5.743 Y25.978 E3.65187
G1 F870.2 X5.284 Y26.059 E3.73738
G1 F888.2 X4.996 Y26.164 E3.79248
G1 F928.1 X4.618 Y26.363 E3.86596
G1 F974.8 X4.391 Y26.544 E3.91351
G1 F1017.8 X4.055 Y26.847 E3.98448
G1 F1095.9 X3.772 Y27.24 E4.05503
G1 F1181.1 X3.548 Y27.649 E4.11806
G1 F1259.2 X3.337 Y28.225 E4.19584
G1 F1354.4 X3.195 Y28.756 E4.26063
G1 F1393.7 X3.12 Y29.343 E4.32841
G1 F1392.1 X3.098 Y29.72 E4.37172
G1 F1397 X3.127 Y30.458 E4.45613
G1 F1420.1 X3.193 Y31.033 E4.52119
G1 F1425.2 X3.244 Y31.288 E4.55032
G1 F1428.6 X3.344 Y31.699 E4.59759
G1 F1432 X3.52 Y32.27 E4.66421
G1 F1403.5 X3.89 Y33.14 E4.77175
G1 F1379.3 X3.945 Y33.249 E4.78588
G1 F1500 E-1.71412
G1 F300 Z0.52
G0 F6000 X15.298 Y34.647 Z0.52
;TYPE:WALL-OUTER
G1 F300 Z0.32
G1 F1500 E4.78588
G1 F1200 X15.851 Y34.34 E4.87003
G1 X16.325 Y33.921 E4.95419
G1 X16.541 Y33.702 E4.99512
G1 X16.73 Y33.474 E5.03452
G1 X16.885 Y33.246 E5.0712
G1 X17.036 Y32.982 E5.11166
G1 X17.316 Y32.406 E5.19686
G1 X17.545 Y31.679 E5.29827
G1 X17.64 Y31.317 E5.34806
G1 X17.705 Y31.001 E5.39098
G1 X17.759 Y30.613 E5.4431
G1 X17.792 Y30.218 E5.49583
G1 X17.822 Y29.5 E5.59144
G1 X17.743 Y28.378 E5.74108
G1 X17.644 Y27.573 E5.84899
G1 X17.582 Y27.233 E5.89497
G1 X17.492 Y26.842 E5.94834
G1 X17.403 Y26.527 E5.99189
G1 X17.285 Y26.194 E6.03889
G1 X17.151 Y25.873 E6.08517
G1 X16.973 Y25.501 E6.14004
G1 X16.786 Y25.149 E6.19307
G1 X16.406 Y24.503 E6.29278
G1 X16.243 Y24.243 E6.3336
G1 X14.65 Y25.218 E6.58208
G1 X14.997 Y25.828 E6.67545
G1 X15.134 Y26.092 E6.71502
G1 X15.382 Y26.635 E6.79444
G1 X15.483 Y26.896 E6.83167
G1 X15.585 Y27.221 E6.87699
G1 X15.66 Y27.502 E6.91568
G1 X15.771 Y28.071 E6.99281
G1 X15.854 Y28.659 E7.07181
G1 X15.919 Y29.259 E7.1521
G1 X15.898 Y29.857 E7.23171
G1 X15.869 Y30.177 E7.27446
G1 X15.817 Y30.494 E7.31719
G1 X15.754 Y30.743 E7.35137
G1 X15.645 Y31.071 E7.39735
G1 X15.407 Y31.641 E7.47953
G1 X15.078 Y32.05 E7.54936
G1 X14.688 Y32.38 E7.61733
G1 X14.145 Y32.572 E7.69395
G1 X13.555 Y32.655 E7.77322
G1 X12.963 Y32.557 E7.85305
G1 X12.463 Y32.312 E7.92713
G1 X12.073 Y31.95 E7.99792
G1 X11.868 Y31.692 E8.04176
G1 X11.613 Y31.27 E8.10736
G1 X11.146 Y30.305 E8.24999
G1 X10.256 Y28.215 E8.5522
G1 X9.995 Y27.65 E8.635
G1 X9.839 Y27.341 E8.68105
G1 X9.376 Y26.508 E8.80784
G1 X9.115 Y26.144 E8.86743
G1 X8.95 Y25.94 E8.90234
G1 X8.741 Y25.715 E8.9432
G1 X8.463 Y25.493 E8.99053
G1 X8.095 Y25.23 E9.0507
G1 X7.639 Y25.023 E9.11733
G1 X7.27 Y24.885 E9.16974
G1 X6.909 Y24.816 E9.21864
G1 X6.615 Y24.784 E9.25798
G1 X6.126 Y24.76 E9.32312
G1 X5.473 Y24.811 E9.41026
G1 X5.197 Y24.855 E9.44744
G1 X4.918 Y24.926 E9.48574
G1 X4.68 Y25.02 E9.51979
G1 X4.422 Y25.153 E9.5584
G1 X3.914 Y25.47 E9.63807
G1 X3.495 Y25.881 E9.71615
G1 X3.304 Y26.092 E9.75402
G1 X3.131 Y26.319 E9.79199
G1 X2.986 Y26.548 E9.82805
G1 X2.858 Y26.795 E9.86506
G1 X2.605 Y27.355 E9.94681
G1 X2.419 Y27.974 E10.0328
G1 X2.337 Y28.308 E10.07856
G1 X2.272 Y28.628 E10.122
G1 X2.227 Y28.949 E10.16512
G1 X2.161 Y29.705 E10.26608
G1 X2.206 Y30.546 E10.37813
G1 X2.277 Y31.131 E10.45653
G1 X2.348 Y31.506 E10.50731
G1 X2.424 Y31.817 E10.5499
G1 X2.6 Y32.432 E10.63501
G1 X2.861 Y33.113 E10.73203
G1 X2.991 Y33.421 E10.77651
G1 X3.137 Y33.726 E10.8215
G1 X3.312 Y34.049 E10.87037
G1 X3.622 Y34.552 E10.94898
G1 X5.195 Y33.571 E11.19561
G1 X4.865 Y32.998 E11.28358
G1 X4.729 Y32.727 E11.32392
G1 X4.379 Y31.941 E11.43839
G1 X4.227 Y31.449 E11.5069
G1 X4.103 Y30.899 E11.58191
G1 X4.05 Y30.404 E11.64814
G1 X4.028 Y29.937 E11.71034
G1 X4.044 Y29.424 E11.77862
G1 X4.109 Y28.941 E11.84346
G1 X4.281 Y28.415 E11.91709
G1 X4.5 Y27.949 E11.98559
G1 X4.813 Y27.608 E12.04717
G1 X5.11 Y27.378 E12.09714
G1 X5.45 Y27.238 E12.14606
G1 X5.981 Y27.157 E12.21752
G1 X6.572 Y27.243 E12.29698
G1 X7.023 Y27.481 E12.36482
G1 X7.269 Y27.706 E12.40918
G1 X7.527 Y27.996 E12.46082
G1 X7.675 Y28.213 E12.49576
G1 X7.841 Y28.498 E12.53964
G1 X8.059 Y28.93 E12.60402
G1 X8.282 Y29.406 E12.67395
G1 X8.459 Y29.829 E12.73495
G1 X9.086 Y31.401 E12.96012
G1 X9.343 Y31.988 E13.04537
G1 X9.623 Y32.566 E13.13081
G1 X9.913 Y33.122 E13.21424
G1 X10.18 Y33.516 E13.27756
G1 X10.48 Y33.883 E13.34062
G1 X10.829 Y34.195 E13.4029
G1 X11.225 Y34.49 E13.4686
G1 X11.736 Y34.736 E13.54405
G1 X11.999 Y34.841 E13.58173
G1 X12.279 Y34.924 E13.62058
G1 X12.538 Y34.974 E13.65567
G1 X12.834 Y35.008 E13.69531
G1 X13.42 Y35.04 E13.77339
G1 X14.116 Y34.991 E13.86622
G1 X14.44 Y34.945 E13.90975
G1 X14.723 Y34.879 E13.94841
G1 X15.009 Y34.78 E13.98868
G1 X15.298 Y34.647 E14.031
G1 F1500 E7.531
G1 F300 Z0.52
G0 F6000 X13.871 Y49.646 Z0.52
;TYPE:WALL-INNER
G1 F300 Z0.32
G1 F1500 E14.031
G1 F939.7 X14.298 Y49.403 E14.11447
G1 F970.9 X14.556 Y49.241 E14.16457
G1 F991.7 X14.885 Y49.006 E14.22965
G1 F1011.8 X15.14 Y48.789 E14.28248
G1 F1035.4 X15.376 Y48.551 E14.33417
G1 F1071.4 X15.626 Y48.256 E14.39178
G1 F1139.6 X16.088 Y47.624 E14.50146
G1 F1232 X16.451 Y46.844 E14.61294
G1 F1294.5 X16.583 Y46.505 E14.6578
G1 F1328.9 X16.698 Y46.126 E14.70539
G1 F1359 X16.781 Y45.736 E14.75223
G1 F1382.5 X16.836 Y45.326 E14.8
G1 F1397 X16.894 Y44.465 E14.89862
G1 F1392.1 X16.858 Y43.893 E14.96434
G1 F1362.1 X16.796 Y43.321 E15.03178
G1 F1327.4 X16.697 Y42.809 E15.0945
G1 F1294.5 X16.611 Y42.514 E15.1324
G1 F1275.2 X16.501 Y42.207 E15.17322
G1 F1253.9 X16.377 Y41.935 E15.21128
G1 F1201.2 X16.14 Y41.491 E15.27817
G1 F1127.8 X15.937 Y41.17 E15.33194
G1 F1076.2 X15.728 Y40.908 E15.38165
G1 F1038.1 X15.374 Y40.503 E15.46438
G1 F1001.7 X14.991 Y40.125 E15.55015
G1 F970.1 X14.656 Y39.894 E15.61711
G1 F936 X14.265 Y39.665 E15.6944
G1 F903.6 X13.625 Y39.334 E15.8217
G1 F894.2 X13.107 Y39.132 E15.92097
G1 F898.9 X12.743 Y39.011 E15.98909
G1 F888.9 X12.306 Y38.89 E16.07053
G1 F877.8 X11.866 Y38.795 E16.1524
G1 F869.6 X11.157 Y38.705 E16.28361
G1 F863.9 X10.016 Y38.64 E16.49481
G1 F859 X9.428 Y38.663 E16.60417
G1 F857.1 X8.621 Y38.72 E16.75486
G1 F861.5 X8.011 Y38.804 E16.86897
G1 F872.7 X7.509 Y38.921 E16.96326
G1 F888.2 X6.903 Y39.116 E17.07769
G1 F898.2 X6.124 Y39.458 E17.2289
G1 F928.8 X5.463 Y39.856 E17.36153
G1 F979.6 X5.128 Y40.079 E17.42711
G1 F1011.8 X4.899 Y40.267 E17.47386
G1 F1029.2 X4.63 Y40.549 E17.53432
G1 F1056.3 X4.374 Y40.854 E17.5945
G1 F1105 X4.102 Y41.21 E17.65923
G1 F1148.3 X3.922 Y41.472 E17.70342
G1 F1201.2 X3.76 Y41.77 E17.74851
G1 F1279.3 X3.531 Y42.25 E17.81487
G1 F1323 X3.403 Y42.605 E17.86041
G1 F1337.8 X3.312 Y42.902 E17.89748
G1 F1355.9 X3.206 Y43.435 E17.96146
G1 F1369.9 X3.141 Y43.963 E18.02346
G1 F1382.5 X3.096 Y44.628 E18.10043
G1 F1385.7 X3.135 Y45.196 E18.16603
G1 F1365.2 X3.17 Y45.55 E18.20763
G1 F1330.4 X3.238 Y46.004 E18.26272
G1 F1301.5 X3.35 Y46.516 E18.32701
G1 F1276.6 X3.451 Y46.779 E18.36224
G1 F1246.1 X3.66 Y47.254 E18.42872
G1 F1215.8 X3.782 Y47.482 E18.46268
G1 F1134.2 X4.069 Y47.94 E18.53876
G1 F1061.9 X4.269 Y48.189 E18.58677
G1 F1030.9 X4.558 Y48.519 E18.6547
G1 F1002.5 X4.983 Y48.956 E18.75178
G1 F966.2 X5.339 Y49.197 E18.82281
G1 F928.1 X5.651 Y49.381 E18.88512
G1 F898.9 X6.367 Y49.751 E19.02827
G1 F889.5 X6.882 Y49.949 E19.12729
G1 F894.9 X7.247 Y50.072 E19.19601
G1 F885 X7.831 Y50.226 E19.30496
G1 F872.1 X8.118 Y50.284 E19.35856
G1 F863.9 X8.567 Y50.346 E19.44232
G1 F860.2 X9.036 Y50.391 E19.52977
G1 F861.5 X9.875 Y50.435 E19.68547
G1 F857.1 X10.171 Y50.439 E19.74061
G1 F855.3 X11.093 Y50.389 E19.91295
G1 F860.8 X11.785 Y50.311 E20.0421
G1 F862.7 X12.41 Y50.177 E20.1604
G1 F876.6 X12.958 Y50.006 E20.26495
G1 F908.4 X13.601 Y49.77 E20.38533
G1 F923.1 X13.871 Y49.646 E20.43671
G0 F6000 X14.424 Y50.662
;TYPE:WALL-OUTER
G1 F1200 X14.648 Y50.516 E20.47229
G1 X14.66 Y50.516 E20.47388
G1 X15.204 Y50.144 E20.56156
G1 X15.588 Y49.85 E20.6259
G1 X15.911 Y49.558 E20.68383
G1 X16.203 Y49.233 E20.74196
G1 X16.481 Y48.864 E20.80342
G1 X16.977 Y48.102 E20.92438
G1 X17.355 Y47.196 E21.05499
G1 X17.497 Y46.79 E21.11221
G1 X17.621 Y46.339 E21.17444
G1 X17.708 Y45.879 E21.23672
G1 X17.764 Y45.41 E21.29956
G1 X17.823 Y44.472 E21.4246
G1 X17.799 Y43.961 E21.49266
G1 X17.735 Y43.196 E21.59479
G1 X17.657 Y42.705 E21.66093
G1 X17.544 Y42.246 E21.72382
G1 X17.459 Y41.99 E21.75971
G1 X17.271 Y41.519 E21.82718
G1 X17.024 Y40.993 E21.90449
G1 X16.836 Y40.619 E21.96018
G1 X16.566 Y40.253 E22.02069
G1 X16.201 Y39.789 E22.09923
G1 X15.753 Y39.317 E22.18581
G1 X15.316 Y38.975 E22.25963
G1 X14.923 Y38.716 E22.32225
G1 X14.516 Y38.48 E22.38484
G1 X14.114 Y38.261 E22.44575
G1 X13.615 Y38.075 E22.51659
G1 X13.08 Y37.891 E22.59186
G1 X12.61 Y37.749 E22.65718
G1 X12.09 Y37.628 E22.72821
G1 X11.569 Y37.547 E22.79836
G1 X11.045 Y37.496 E22.8684
G1 X9.943 Y37.442 E23.01519
G1 X9.344 Y37.466 E23.09494
G1 X8.497 Y37.527 E23.20792
G1 X7.937 Y37.604 E23.28313
G1 X7.667 Y37.657 E23.31973
G1 X7.4 Y37.722 E23.35629
G1 X7.149 Y37.796 E23.39111
G1 X6.592 Y37.993 E23.46971
G1 X6.06 Y38.212 E23.54625
G1 X5.566 Y38.43 E23.61808
G1 X4.8 Y38.946 E23.74096
G1 X4.423 Y39.235 E23.80416
G1 X4.077 Y39.55 E23.86641
G1 X3.795 Y39.864 E23.92256
G1 X3.512 Y40.243 E23.98548
G1 X3.232 Y40.661 E24.05242
G1 X3.017 Y41.002 E24.10605
G1 X2.639 Y41.908 E24.23666
G1 X2.493 Y42.322 E24.29506
G1 X2.374 Y42.759 E24.35531
G1 X2.284 Y43.231 E24.41924
G1 X2.208 Y43.886 E24.50697
G1 X2.171 Y44.618 E24.60448
G1 X2.23 Y45.64 E24.74067
G1 X2.293 Y46.156 E24.80983
G1 X2.408 Y46.729 E24.88758
G1 X2.534 Y47.112 E24.94122
G1 X2.711 Y47.556 E25.00481
G1 X3.159 Y48.49 E25.14263
G1 X3.713 Y49.214 E25.26391
G1 X4.003 Y49.544 E25.32236
G1 X4.325 Y49.85 E25.38146
G1 X4.677 Y50.125 E25.44089
G1 X5.053 Y50.37 E25.50059
G1 X5.879 Y50.831 E25.62644
G1 X6.884 Y51.187 E25.76829
G1 X7.403 Y51.341 E25.84031
G1 X7.894 Y51.455 E25.90737
G1 X8.419 Y51.535 E25.97802
G1 X8.95 Y51.586 E26.04899
G1 X10.179 Y51.645 E26.21269
G1 X11.217 Y51.58 E26.35105
G1 X11.777 Y51.521 E26.42597
G1 X12.053 Y51.48 E26.46309
G1 X12.347 Y51.421 E26.50299
G1 X12.833 Y51.304 E26.56949
G1 X12.842 Y51.291 E26.57159
G1 X13.399 Y51.094 E26.6502
G1 X13.934 Y50.876 E26.72705
G1 X14.424 Y50.662 E26.79819
G1 F1500 E20.29819
G1 F300 Z0.52
G0 F6000 X14.286 Y48.085 Z0.52
G1 F300 Z0.32
G1 F1500 E26.79819
G1 F1200 X13.997 Y48.279 E26.8445
G1 X13.705 Y48.446 E26.88925
G1 X13.14 Y48.719 E26.97273
G1 X12.38 Y48.954 E27.07857
G1 X11.996 Y49.051 E27.13126
G1 X11.606 Y49.127 E27.18412
G1 X11.187 Y49.181 E27.24033
G1 X10.805 Y49.21 E27.29129
G1 X9.926 Y49.241 E27.40831
G1 X8.945 Y49.184 E27.53904
G1 X8.376 Y49.118 E27.61525
G1 X8.084 Y49.07 E27.65462
G1 X7.791 Y49.005 E27.69455
G1 X7.523 Y48.931 E27.73154
G1 X7.272 Y48.848 E27.76671
G1 X6.731 Y48.623 E27.84466
G1 X6.219 Y48.375 E27.92035
G1 X5.703 Y48.097 E27.99833
G1 X5.301 Y47.717 E28.07192
G1 X4.957 Y47.356 E28.13826
G1 X4.57 Y46.87 E28.22091
G1 X4.266 Y46.215 E28.31698
G1 X4.135 Y45.63 E28.39674
G1 X4.066 Y45.12 E28.46521
G1 X4.028 Y44.655 E28.52728
G1 X4.064 Y44.131 E28.59716
G1 X4.12 Y43.663 E28.65986
G1 X4.218 Y43.174 E28.72621
G1 X4.395 Y42.656 E28.79904
G1 X4.659 Y42.184 E28.87099
G1 X4.954 Y41.792 E28.93626
G1 X5.278 Y41.428 E29.00109
G1 X5.662 Y41.038 E29.07391
G1 X6.18 Y40.744 E29.15315
G1 X6.682 Y40.483 E29.22842
G1 X7.256 Y40.227 E29.31204
G1 X7.703 Y40.089 E29.37428
G1 X8.277 Y39.97 E29.45227
G1 X8.835 Y39.902 E29.52705
G1 X9.378 Y39.866 E29.59945
G1 X10.068 Y39.84 E29.69132
G1 X11.048 Y39.897 E29.82192
G1 X11.731 Y39.974 E29.91336
G1 X12.19 Y40.073 E29.97583
G1 X12.472 Y40.151 E30.01476
G1 X12.724 Y40.234 E30.05005
G1 X13.275 Y40.462 E30.12939
G1 X13.782 Y40.712 E30.20459
G1 X14.288 Y40.978 E30.28065
G1 X14.695 Y41.365 E30.35536
G1 X15.041 Y41.732 E30.42247
G1 X15.324 Y42.09 E30.48318
G1 X15.598 Y42.566 E30.55625
G1 X15.767 Y43.038 E30.62295
G1 X15.865 Y43.493 E30.68487
G1 X15.927 Y43.973 E30.74926
G1 X15.967 Y44.447 E30.81255
G1 X15.925 Y45.113 E30.90133
G1 X15.879 Y45.46 E30.9479
G1 X15.794 Y45.847 E31.00061
G1 X15.691 Y46.157 E31.04407
G1 X15.544 Y46.496 E31.09323
G1 X15.239 Y47.082 E31.18112
G1 X14.786 Y47.622 E31.27489
G1 X14.544 Y47.869 E31.3209
G1 X14.286 Y48.085 E31.36566
G1 F1500 E24.86566
G1 F300 Z0.52
G0 F6000 X16.371 Y56.267 Z0.52
;TYPE:WALL-INNER
G1 F300 Z0.32
G1 F1500 E31.36566
G1 F1232.5 X8.645 Y56.267 E32.61658
G1 F1220.5 X8.365 Y56.278 E32.6624
G1 F1500 E26.1624
G1 F300 Z0.52
G0 F6000 X6.108 Y57.413 Z0.52
G1 F300 Z0.32
G1 F1500 E32.6624
G1 F994.7 X6.013 Y57.575 E32.70008
G1 X5.826 Y57.575 E32.73759
G1 X5.732 Y57.413 E32.77517
G1 X5.827 Y57.251 E32.81285
G1 X6.013 Y57.251 E32.85016
G1 F1500 E26.35016
G1 F300 Z0.52
G0 F6000 X7.63 Y59.862 Z0.52
G1 F300 Z0.32
G1 F1500 E32.85016
G1 F1328.6 X7.202 Y59.342 E32.95132
G1 F1457.7 X6.996 Y58.697 E33.04402
G1 F1500 X7.03 Y58.141 E33.11812
G1 X7.19 Y57.508 E33.20499
G1 X7.418 Y57.011 E33.27773
G1 F1425.9 X7.89 Y56.518 E33.37326
G1 F1278.8 X8.365 Y56.278 E33.45631
G1 X7.81 Y56.21 E33.54357
G1 F1425.9 X6.975 Y56.158 E33.66066
G1 F1500 X3.515 Y56.159 E34.12098
G1 X3.515 Y57.376 E34.28289
G1 X6.302 Y59.138 E34.72156
G1 F1457.7 X7 Y59.546 E34.83225
G1 F1328.6 X7.63 Y59.862 E34.93811
G1 F1237.6 X8.025 Y60.094 E35.01197
G1 F1204.8 X9.665 Y61.105 E35.33109
G1 F1195.2 X11.96 Y62.557 E35.78452
G1 F1212.6 X12.465 Y62.866 E35.88196
G1 F1500 E29.38196
G1 F300 Z0.52
G0 F6000 X14.253 Y65.143 Z0.52
G1 F300 Z0.32
G1 F1500 E35.88196
G1 F992.1 X14.065 Y65.143 E35.91977
G1 X13.97 Y65.306 E35.95772
G1 X14.065 Y65.469 E35.99568
G1 X14.253 Y65.469 E36.03349
G1 X14.348 Y65.306 E36.07144
G1 F1500 E29.57144
G1 F300 Z0.52
G0 F6000 X16.48 Y66.563 Z0.52
G1 F300 Z0.32
