;FLAVOR:Marlin
;TIME:514
;Filament used: 0.397853m
;Layer height: 0.2
;MINX:1.935
;MINY:22.011
;MINZ:0.2
;MAXX:31.528
;MAXY:51.606
;MAXZ:4
;TARGET_MACHINE.NAME:Creality Ender-3
;Generated with Cura_SteamEngine 5.6.0
M140 S50
M105
M190 S50
M104 S200
M105
M109 S200
M82 ;absolute extrusion mode
; Ender 3 Custom Start G-code
G92 E0 ; Reset Extruder
G28 ; Home all axes
G1 Z2.0 F3000 ; Move Z Axis up little to prevent scratching of Heat Bed
G1 X0.1 Y20 Z0.3 F5000.0 ; Move to start position
G1 X0.1 Y200.0 Z0.3 F1500.0 E15 ; Draw the first line
G1 X0.4 Y200.0 Z0.3 F5000.0 ; Move to side a little
G1 X0.4 Y20 Z0.3 F1500.0 E30 ; Draw the second line
G92 E0 ; Reset Extruder
G1 Z2.0 F3000 ; Move Z Axis up little to prevent scratching of Heat Bed
G1 X5 Y20 Z0.3 F5000.0 ; Move over to prevent blob squish
G92 E0
G92 E0
G1 F2700 E-5
;LAYER_COUNT:20
;LAYER:0
M107
G1 F300 Z0.4
;MESH:Body1.stl
G0 F6000 X22.29 Y47.892 Z0.4
;TYPE:WALL-INNER
G1 F300 Z0.2
G1 F2700 E0
G1 F1200 X22.93 Y47.549 E0.02415
G1 X23.558 Y47.161 E0.0487
G1 X24.178 Y46.723 E0.07395
G1 X24.741 Y46.274 E0.0979
G1 X25.296 Y45.775 E0.12273
G1 X25.818 Y45.247 E0.14742
G1 X26.318 Y44.674 E0.17271
G1 X26.749 Y44.117 E0.19614
G1 X27.177 Y43.49 E0.22139
G1 X27.558 Y42.854 E0.24605
G1 X27.891 Y42.215 E0.27001
G1 X28.202 Y41.519 E0.29537
G1 X28.469 Y40.805 E0.32072
G1 X28.683 Y40.114 E0.34478
G1 X28.859 Y39.396 E0.36937
G1 X28.993 Y38.664 E0.39412
G1 X29.082 Y37.929 E0.41874
G1 X29.127 Y37.189 E0.4434
G1 X29.127 Y36.447 E0.46808
G1 X29.082 Y35.689 E0.49334
G1 X28.993 Y34.953 E0.518
G1 X28.86 Y34.222 E0.54271
G1 X28.689 Y33.523 E0.56664
G1 X28.509 Y32.942 E0.58687
G1 X28.517 Y32.931 E0.58732
G1 X28.21 Y32.118 E0.61623
G1 X27.904 Y31.428 E0.64133
G1 X27.567 Y30.778 E0.66569
G1 X27.175 Y30.124 E0.69105
G1 X26.759 Y29.512 E0.71566
G1 X26.319 Y28.944 E0.73956
G1 X25.829 Y28.383 E0.76433
G1 X25.293 Y27.839 E0.78973
G1 X24.757 Y27.356 E0.81373
G1 X24.178 Y26.893 E0.83839
G1 X23.557 Y26.456 E0.86364
G1 X22.924 Y26.065 E0.88839
G1 X22.145 Y25.646 E0.91781
G1 X22.133 Y25.653 E0.91827
G1 X21.595 Y25.404 E0.93799
G1 X20.907 Y25.133 E0.96258
G1 X20.22 Y24.91 E0.98661
G1 X19.501 Y24.723 E1.01131
G1 X18.774 Y24.579 E1.03596
G1 X17.937 Y24.464 E1.06406
G1 X17.93 Y24.471 E1.06439
G1 X17.301 Y24.423 E1.08538
G1 X16.572 Y24.412 E1.10962
G1 X15.798 Y24.445 E1.13539
G1 X15.08 Y24.521 E1.15941
G1 X14.337 Y24.644 E1.18445
G1 X13.605 Y24.811 E1.20943
G1 X12.913 Y25.013 E1.2334
G1 X12.214 Y25.264 E1.25811
G1 X11.549 Y25.547 E1.28214
G1 X10.85 Y25.896 E1.30813
G1 X10.21 Y26.266 E1.33272
G1 X9.591 Y26.675 E1.35739
G1 X9.013 Y27.109 E1.38143
G1 X8.43 Y27.602 E1.40683
G1 X7.902 Y28.106 E1.4311
G1 X7.398 Y28.65 E1.45577
G1 X6.928 Y29.223 E1.48042
G1 X6.491 Y29.823 E1.50511
G1 X6.087 Y30.458 E1.53014
G1 X5.734 Y31.091 E1.55425
G1 X5.413 Y31.756 E1.57881
G1 X5.131 Y32.443 E1.60351
G1 X4.886 Y33.157 E1.62861
G1 X4.686 Y33.881 E1.65359
G1 X4.54 Y34.566 E1.67689
G1 X4.426 Y35.319 E1.70222
G1 X4.358 Y36.059 E1.72694
G1 X4.336 Y36.798 E1.75153
G1 X4.358 Y37.559 E1.77685
G1 X4.423 Y38.28 E1.80093
G1 X4.534 Y39.022 E1.82588
G1 X4.686 Y39.734 E1.85009
G1 X4.89 Y40.469 E1.87546
G1 X5.124 Y41.157 E1.89963
G1 X5.404 Y41.842 E1.92425
G1 X5.735 Y42.528 E1.94958
G1 X6.077 Y43.141 E1.97293
G1 X6.492 Y43.794 E1.99866
G1 X6.927 Y44.392 E2.02326
G1 X7.398 Y44.965 E2.04793
G1 X7.9 Y45.507 E2.0725
G1 X8.431 Y46.015 E2.09694
G1 X8.998 Y46.496 E2.12167
G1 X9.575 Y46.93 E2.14568
G1 X10.212 Y47.351 E2.17108
G1 X10.852 Y47.722 E2.19568
G1 X11.527 Y48.059 E2.22078
G1 X12.215 Y48.352 E2.24565
G1 X12.894 Y48.598 E2.26967
G1 X13.605 Y48.806 E2.29431
G1 X14.339 Y48.972 E2.31934
G1 X15.059 Y49.093 E2.34362
G1 X15.78 Y49.169 E2.36773
G1 X16.556 Y49.206 E2.39357
G1 X17.277 Y49.194 E2.41756
G1 X18.03 Y49.137 E2.44267
G1 X18.777 Y49.037 E2.46774
G1 X19.481 Y48.898 E2.49161
G1 X20.22 Y48.705 E2.51701
G1 X20.91 Y48.482 E2.54113
G1 X21.616 Y48.205 E2.56635
G1 X22.29 Y47.892 E2.59107
G0 F6000 X22.469 Y48.25
G1 F1200 X23.129 Y47.895 E2.616
G1 X23.778 Y47.495 E2.64135
G1 X24.418 Y47.043 E2.66741
G1 X25 Y46.579 E2.69217
G1 X25.572 Y46.065 E2.71775
G1 X26.111 Y45.519 E2.74327
G1 X26.628 Y44.928 E2.76938
G1 X27.073 Y44.352 E2.79359
G1 X27.514 Y43.705 E2.81963
G1 X27.908 Y43.049 E2.84509
G1 X28.251 Y42.389 E2.86982
G1 X28.572 Y41.671 E2.89598
G1 X28.848 Y40.935 E2.92213
G1 X29.068 Y40.221 E2.94698
G1 X29.251 Y39.48 E2.97236
G1 X29.388 Y38.724 E2.99792
G1 X29.48 Y37.966 E3.02331
G1 X29.527 Y37.201 E3.04881
G1 X29.527 Y36.435 E3.07428
G1 X29.48 Y35.653 E3.10034
G1 X29.388 Y34.893 E3.1258
G1 X29.252 Y34.139 E3.15128
G1 X29.074 Y33.416 E3.17605
G1 X28.891 Y32.824 E3.19666
G1 X28.9 Y32.812 E3.19716
G1 X28.58 Y31.966 E3.22724
G1 X28.264 Y31.255 E3.25312
G1 X27.916 Y30.583 E3.27829
G1 X27.513 Y29.909 E3.30441
G1 X27.083 Y29.277 E3.32983
G1 X26.628 Y28.69 E3.35453
G1 X26.122 Y28.111 E3.38011
G1 X25.57 Y27.55 E3.40629
G1 X25.016 Y27.05 E3.43111
G1 X24.418 Y26.573 E3.45655
G1 X23.778 Y26.122 E3.48259
G1 X23.124 Y25.719 E3.50814
G1 X22.314 Y25.283 E3.53874
G1 X22.301 Y25.291 E3.53924
G1 X21.753 Y25.036 E3.55935
G1 X21.042 Y24.757 E3.58475
G1 X20.332 Y24.526 E3.60958
G1 X19.591 Y24.333 E3.63505
G1 X18.84 Y24.184 E3.66052
G1 X17.968 Y24.065 E3.68979
G1 X17.96 Y24.072 E3.69014
G1 X17.32 Y24.023 E3.71149
G1 X16.567 Y24.012 E3.73654
G1 X15.768 Y24.046 E3.76314
G1 X15.026 Y24.125 E3.78796
G1 X14.26 Y24.251 E3.81378
G1 X13.504 Y24.424 E3.83957
G1 X12.789 Y24.632 E3.86434
G1 X12.067 Y24.891 E3.88985
G1 X11.382 Y25.184 E3.91463
G1 X10.661 Y25.543 E3.94142
G1 X9.999 Y25.925 E3.96684
G1 X9.361 Y26.348 E3.9923
G1 X8.763 Y26.796 E4.01715
G1 X8.162 Y27.305 E4.04335
G1 X7.617 Y27.825 E4.0684
G1 X7.097 Y28.387 E4.09387
G1 X6.611 Y28.979 E4.11934
G1 X6.161 Y29.598 E4.1448
G1 X5.744 Y30.253 E4.17062
G1 X5.379 Y30.907 E4.19553
G1 X5.047 Y31.593 E4.22088
G1 X4.757 Y32.302 E4.24636
G1 X4.504 Y33.039 E4.27227
G1 X4.297 Y33.785 E4.29802
G1 X4.146 Y34.494 E4.32213
G1 X4.028 Y35.27 E4.34824
G1 X3.959 Y36.035 E4.37379
G1 X3.936 Y36.797 E4.39914
G1 X3.959 Y37.583 E4.4253
G1 X4.026 Y38.328 E4.45018
G1 X4.14 Y39.093 E4.4759
G1 X4.297 Y39.83 E4.50096
G1 X4.507 Y40.587 E4.52709
G1 X4.75 Y41.298 E4.55208
G1 X5.039 Y42.004 E4.57746
G1 X5.379 Y42.712 E4.60358
G1 X5.733 Y43.346 E4.62773
G1 X6.161 Y44.019 E4.65426
G1 X6.61 Y44.637 E4.67966
G1 X7.096 Y45.229 E4.70514
G1 X7.614 Y45.788 E4.73049
G1 X8.164 Y46.312 E4.75575
G1 X8.748 Y46.808 E4.78124
G1 X9.344 Y47.256 E4.80604
G1 X10.001 Y47.691 E4.83224
G1 X10.662 Y48.074 E4.85765
G1 X11.359 Y48.423 E4.88358
G1 X12.069 Y48.725 E4.90924
G1 X12.769 Y48.978 E4.934
G1 X13.505 Y49.193 E4.9595
G1 X14.261 Y49.365 E4.98529
G1 X15.005 Y49.49 E5.01038
G1 X15.75 Y49.568 E5.03529
G1 X16.55 Y49.606 E5.06193
G1 X17.295 Y49.594 E5.08671
G1 X18.071 Y49.535 E5.1126
G1 X18.843 Y49.432 E5.1385
G1 X19.57 Y49.288 E5.16315
G1 X20.332 Y49.09 E5.18934
G1 X21.045 Y48.859 E5.21427
G1 X21.773 Y48.573 E5.24028
G1 X22.469 Y48.25 E5.2658
G0 F6000 X22.648 Y48.608
G1 F1200 X23.329 Y48.242 E5.29152
G1 X23.999 Y47.829 E5.31769
G1 X24.658 Y47.363 E5.34454
G1 X25.259 Y46.884 E5.3701
G1 X25.848 Y46.354 E5.39645
G1 X26.404 Y45.792 E5.42275
G1 X26.937 Y45.182 E5.44969
G1 X27.397 Y44.588 E5.47468
G1 X27.851 Y43.921 E5.50151
G1 X28.257 Y43.244 E5.52777
G1 X28.612 Y42.563 E5.55331
G1 X28.942 Y41.822 E5.58029
G1 X29.226 Y41.064 E5.60722
G1 X29.454 Y40.328 E5.63284
G1 X29.642 Y39.563 E5.65904
G1 X29.784 Y38.784 E5.68538
G1 X29.879 Y38.002 E5.71158
G1 X29.927 Y37.213 E5.73787
G1 X29.927 Y36.423 E5.76415
G1 X29.879 Y35.617 E5.791
G1 X29.784 Y34.833 E5.81727
G1 X29.643 Y34.056 E5.84353
G1 X29.46 Y33.309 E5.86911
G1 X29.274 Y32.706 E5.8901
G1 X29.283 Y32.694 E5.8906
G1 X28.951 Y31.814 E5.92188
G1 X28.625 Y31.081 E5.94857
G1 X28.266 Y30.388 E5.97452
G1 X27.85 Y29.694 E6.00144
G1 X27.407 Y29.042 E6.02765
G1 X26.937 Y28.435 E6.05319
G1 X26.415 Y27.839 E6.07954
G1 X25.846 Y27.261 E6.10651
G1 X25.275 Y26.745 E6.13211
G1 X24.659 Y26.253 E6.15833
G1 X23.998 Y25.788 E6.18521
G1 X23.324 Y25.372 E6.21156
G1 X22.484 Y24.92 E6.24328
G1 X22.47 Y24.928 E6.24382
G1 X21.91 Y24.668 E6.26435
G1 X21.177 Y24.38 E6.29055
G1 X20.444 Y24.142 E6.31618
G1 X19.68 Y23.943 E6.34244
G1 X18.906 Y23.79 E6.36868
G1 X17.998 Y23.665 E6.39917
G1 X17.99 Y23.673 E6.39954
G1 X17.338 Y23.624 E6.42129
G1 X16.561 Y23.611 E6.44714
G1 X15.739 Y23.647 E6.4745
G1 X14.973 Y23.728 E6.50012
G1 X14.183 Y23.858 E6.52675
G1 X13.404 Y24.037 E6.55334
G1 X12.666 Y24.251 E6.57889
G1 X11.921 Y24.519 E6.60523
G1 X11.214 Y24.82 E6.63078
G1 X10.471 Y25.191 E6.6584
G1 X9.789 Y25.585 E6.6846
G1 X9.13 Y26.02 E6.71086
G1 X8.514 Y26.483 E6.73649
G1 X7.895 Y27.007 E6.76347
G1 X7.332 Y27.545 E6.78937
G1 X6.795 Y28.124 E6.81563
G1 X6.294 Y28.734 E6.84189
G1 X5.83 Y29.372 E6.86813
G1 X5.4 Y30.047 E6.89475
G1 X5.023 Y30.722 E6.92046
G1 X4.681 Y31.431 E6.94664
G1 X4.382 Y32.161 E6.97288
G1 X4.122 Y32.92 E6.99957
G1 X3.909 Y33.69 E7.02614
G1 X3.752 Y34.422 E7.05104
G1 X3.631 Y35.222 E7.07795
G1 X3.559 Y36.011 E7.1043
G1 X3.535 Y36.797 E7.13045
G1 X3.559 Y37.607 E7.15741
G1 X3.628 Y38.375 E7.18305
G1 X3.746 Y39.164 E7.20959
G1 X3.909 Y39.925 E7.23547
G1 X4.125 Y40.705 E7.26239
G1 X4.375 Y41.438 E7.28815
G1 X4.673 Y42.167 E7.31434
G1 X5.024 Y42.896 E7.34126
G1 X5.389 Y43.551 E7.3662
G1 X5.831 Y44.245 E7.39356
G1 X6.293 Y44.882 E7.41973
G1 X6.795 Y45.492 E7.44601
G1 X7.329 Y46.069 E7.47216
G1 X7.896 Y46.609 E7.4982
G1 X8.498 Y47.121 E7.52449
G1 X9.113 Y47.583 E7.55007
G1 X9.79 Y48.032 E7.57709
G1 X10.472 Y48.426 E7.60329
G1 X11.191 Y48.786 E7.63003
G1 X11.922 Y49.097 E7.65645
G1 X12.645 Y49.358 E7.68202
G1 X13.404 Y49.58 E7.70832
G1 X14.184 Y49.758 E7.73493
G1 X14.951 Y49.886 E7.76079
G1 X15.719 Y49.967 E7.78648
G1 X16.544 Y50.006 E7.81395
G1 X17.314 Y49.994 E7.83956
G1 X18.113 Y49.933 E7.86621
G1 X18.908 Y49.827 E7.89289
G1 X19.66 Y49.678 E7.91839
G1 X20.444 Y49.474 E7.94533
G1 X21.18 Y49.236 E7.97106
G1 X21.931 Y48.941 E7.9979
G1 X22.648 Y48.608 E8.02419
G0 F6000 X22.827 Y48.966
G1 F1200 X23.529 Y48.589 E8.05069
G1 X24.219 Y48.163 E8.07766
G1 X24.898 Y47.683 E8.10532
G1 X25.517 Y47.19 E8.13164
G1 X26.125 Y46.644 E8.15882
G1 X26.697 Y46.064 E8.18591
G1 X27.246 Y45.437 E8.21363
G1 X27.72 Y44.823 E8.23943
G1 X28.189 Y44.137 E8.26707
G1 X28.606 Y43.44 E8.29408
G1 X28.972 Y42.737 E8.32045
G1 X29.312 Y41.974 E8.34823
G1 X29.605 Y41.193 E8.37597
G1 X29.84 Y40.435 E8.40237
G1 X30.034 Y39.647 E8.42936
G1 X30.18 Y38.844 E8.4565
G1 X30.278 Y38.038 E8.48351
G1 X30.327 Y37.226 E8.51057
G1 X30.327 Y36.412 E8.53764
G1 X30.278 Y35.581 E8.56533
G1 X30.18 Y34.774 E8.59237
G1 X30.035 Y33.972 E8.61947
G1 X29.846 Y33.202 E8.64584
G1 X29.656 Y32.588 E8.66722
G1 X29.665 Y32.575 E8.66775
G1 X29.321 Y31.662 E8.7002
G1 X28.985 Y30.908 E8.72765
G1 X28.615 Y30.194 E8.7544
G1 X28.188 Y29.479 E8.7821
G1 X27.731 Y28.806 E8.80915
G1 X27.246 Y28.181 E8.83547
G1 X26.709 Y27.566 E8.86262
G1 X26.123 Y26.971 E8.8904
G1 X25.534 Y26.44 E8.91677
G1 X24.899 Y25.933 E8.9438
G1 X24.218 Y25.454 E8.97149
G1 X23.524 Y25.025 E8.99863
G1 X22.653 Y24.557 E9.03152
G1 X22.639 Y24.565 E9.03205
G1 X22.068 Y24.3 E9.05299
G1 X21.312 Y24.003 E9.08001
G1 X20.556 Y23.758 E9.10644
G1 X19.77 Y23.553 E9.13345
G1 X18.973 Y23.395 E9.16048
G1 X18.029 Y23.265 E9.19217
G1 X18.02 Y23.274 E9.1926
G1 X17.356 Y23.224 E9.21474
G1 X16.555 Y23.211 E9.24139
G1 X15.709 Y23.248 E9.26955
G1 X14.919 Y23.331 E9.29597
G1 X14.106 Y23.466 E9.32338
G1 X13.303 Y23.649 E9.35078
G1 X12.542 Y23.871 E9.37714
G1 X11.775 Y24.146 E9.40424
G1 X11.046 Y24.457 E9.4306
G1 X10.282 Y24.838 E9.459
G1 X9.578 Y25.245 E9.48605
G1 X8.899 Y25.693 E9.5131
G1 X8.264 Y26.17 E9.53952
G1 X7.627 Y26.71 E9.56729
G1 X7.047 Y27.264 E9.59397
G1 X6.494 Y27.861 E9.62104
G1 X5.978 Y28.489 E9.64807
G1 X5.499 Y29.147 E9.67514
G1 X5.056 Y29.842 E9.70255
G1 X4.668 Y30.537 E9.72903
G1 X4.316 Y31.268 E9.75601
G1 X4.008 Y32.02 E9.78304
G1 X3.74 Y32.802 E9.81053
G1 X3.52 Y33.595 E9.8379
G1 X3.359 Y34.351 E9.86361
G1 X3.234 Y35.174 E9.8913
G1 X3.16 Y35.987 E9.91845
G1 X3.135 Y36.797 E9.94541
G1 X3.16 Y37.631 E9.97316
G1 X3.231 Y38.423 E9.9996
G1 X3.353 Y39.236 E10.02695
G1 X3.52 Y40.02 E10.05361
G1 X3.743 Y40.823 E10.08133
G1 X4 Y41.578 E10.10785
G1 X4.307 Y42.329 E10.13484
G1 X4.669 Y43.08 E10.16257
G1 X5.046 Y43.756 E10.18831
G1 X5.5 Y44.47 E10.21645
G1 X5.977 Y45.127 E10.24346
G1 X6.493 Y45.755 E10.27049
G1 X7.044 Y46.349 E10.29744
G1 X7.628 Y46.907 E10.3243
G1 X8.248 Y47.433 E10.35135
G1 X8.882 Y47.91 E10.37774
G1 X9.579 Y48.372 E10.40555
G1 X10.282 Y48.778 E10.43255
G1 X11.023 Y49.149 E10.46011
G1 X11.776 Y49.47 E10.48734
G1 X12.521 Y49.739 E10.51368
G1 X13.304 Y49.968 E10.54081
G1 X14.106 Y50.15 E10.56817
G1 X14.897 Y50.283 E10.59485
G1 X15.689 Y50.366 E10.62133
G1 X16.537 Y50.406 E10.64957
G1 X17.332 Y50.393 E10.67601
G1 X18.155 Y50.331 E10.70346
G1 X18.973 Y50.222 E10.73091
G1 X19.749 Y50.068 E10.75722
G1 X20.556 Y49.858 E10.78496
G1 X21.315 Y49.613 E10.81149
G1 X22.088 Y49.309 E10.83911
G1 X22.827 Y48.966 E10.86621
G0 F6000 X23.006 Y49.324
G1 F1200 X23.729 Y48.936 E10.8935
G1 X24.44 Y48.497 E10.92129
G1 X25.139 Y48.003 E10.94976
G1 X25.776 Y47.495 E10.97686
G1 X26.401 Y46.934 E11.0048
G1 X26.991 Y46.336 E11.03274
G1 X27.555 Y45.691 E11.06123
G1 X28.044 Y45.058 E11.08784
G1 X28.526 Y44.352 E11.11627
G1 X28.955 Y43.635 E11.14406
G1 X29.333 Y42.911 E11.17123
G1 X29.683 Y42.126 E11.19981
G1 X29.984 Y41.323 E11.22833
G1 X30.225 Y40.542 E11.25552
G1 X30.425 Y39.73 E11.28333
G1 X30.575 Y38.904 E11.31126
G1 X30.676 Y38.074 E11.33907
G1 X30.727 Y37.238 E11.36692
G1 X30.727 Y36.4 E11.39479
G1 X30.676 Y35.545 E11.42328
G1 X30.575 Y34.714 E11.45113
G1 X30.426 Y33.889 E11.47901
G1 X30.231 Y33.095 E11.5062
G1 X30.038 Y32.47 E11.52796
G1 X30.048 Y32.456 E11.52853
G1 X29.691 Y31.51 E11.56216
G1 X29.346 Y30.734 E11.59041
G1 X28.965 Y29.999 E11.61794
G1 X28.525 Y29.263 E11.64646
G1 X28.055 Y28.571 E11.67428
G1 X27.555 Y27.926 E11.70143
G1 X27.002 Y27.294 E11.72936
G1 X26.4 Y26.682 E11.75791
G1 X25.793 Y26.135 E11.78509
G1 X25.139 Y25.613 E11.81292
G1 X24.439 Y25.12 E11.8414
G1 X23.724 Y24.679 E11.86934
G1 X22.822 Y24.193 E11.90342
G1 X22.807 Y24.202 E11.904
G1 X22.226 Y23.932 E11.92531
G1 X21.447 Y23.626 E11.95314
G1 X20.669 Y23.374 E11.98034
G1 X19.859 Y23.163 E12.00818
G1 X19.039 Y23 E12.03599
G1 X18.06 Y22.866 E12.06886
G1 X18.05 Y22.875 E12.0693
G1 X17.374 Y22.824 E12.09185
G1 X16.55 Y22.811 E12.11926
G1 X15.679 Y22.849 E12.14826
G1 X14.866 Y22.935 E12.17545
G1 X14.029 Y23.073 E12.20366
G1 X13.203 Y23.262 E12.23185
G1 X12.419 Y23.49 E12.259
G1 X11.629 Y23.774 E12.28692
G1 X10.878 Y24.094 E12.31408
G1 X10.092 Y24.486 E12.34329
G1 X9.368 Y24.904 E12.37109
G1 X8.669 Y25.366 E12.39896
G1 X8.014 Y25.858 E12.42621
G1 X7.36 Y26.412 E12.45472
G1 X6.762 Y26.983 E12.48222
G1 X6.192 Y27.597 E12.51008
G1 X5.661 Y28.244 E12.53792
G1 X5.168 Y28.922 E12.5658
G1 X4.713 Y29.637 E12.59399
G1 X4.313 Y30.353 E12.62127
G1 X3.95 Y31.105 E12.64904
G1 X3.633 Y31.88 E12.67689
G1 X3.357 Y32.683 E12.70513
G1 X3.131 Y33.5 E12.73333
G1 X2.965 Y34.279 E12.75982
G1 X2.837 Y35.126 E12.78831
G1 X2.76 Y35.962 E12.81623
G1 X2.735 Y36.797 E12.84402
G1 X2.76 Y37.655 E12.87257
G1 X2.834 Y38.47 E12.89979
G1 X2.959 Y39.307 E12.92793
G1 X3.131 Y40.115 E12.95541
G1 X3.36 Y40.941 E12.98392
G1 X3.625 Y41.719 E13.01125
G1 X3.942 Y42.492 E13.03904
G1 X4.314 Y43.265 E13.06758
G1 X4.702 Y43.961 E13.09408
G1 X5.169 Y44.695 E13.12301
G1 X5.66 Y45.372 E13.15083
G1 X6.192 Y46.018 E13.17866
G1 X6.759 Y46.63 E13.20641
G1 X7.36 Y47.204 E13.23405
G1 X7.998 Y47.746 E13.2619
G1 X8.652 Y48.237 E13.2891
G1 X9.369 Y48.712 E13.3177
G1 X10.092 Y49.131 E13.3455
G1 X10.855 Y49.512 E13.37386
G1 X11.629 Y49.842 E13.40185
G1 X12.397 Y50.119 E13.429
G1 X13.203 Y50.355 E13.45693
G1 X14.029 Y50.543 E13.48511
G1 X14.843 Y50.679 E13.51256
G1 X15.658 Y50.765 E13.53982
G1 X16.531 Y50.806 E13.56889
G1 X17.35 Y50.793 E13.59613
G1 X18.196 Y50.729 E13.62435
G1 X19.038 Y50.616 E13.6526
G1 X19.838 Y50.458 E13.67973
G1 X20.668 Y50.242 E13.70825
G1 X21.45 Y49.989 E13.73559
G1 X22.246 Y49.677 E13.76402
G1 X23.006 Y49.324 E13.79189
G0 F6000 X23.185 Y49.682
