;FLAVOR:Marlin
;TIME:1538
;Filament used: 1.24619m
;Layer height: 0.2
;MINX:15.682
;MINY:17.712
;MINZ:0.2
;MAXX:215.236
;MAXY:217.288
;MAXZ:4
;TARGET_MACHINE.NAME:Creality Ender-3
;Generated with Cura_SteamEngine 5.6.0
M140 S50
M105
M190 S50
M104 S200
M105
M109 S200
M82 ;absolute extrusion mode
; Ender 3 Custom Start G-code
G92 E0 ; Reset Extruder
G28 ; Home all axes
G1 Z2.0 F3000 ; Move Z Axis up little to prevent scratching of Heat Bed
G1 X0.1 Y20 Z0.3 F5000.0 ; Move to start position
G1 X0.1 Y200.0 Z0.3 F1500.0 E15 ; Draw the first line
G1 X0.4 Y200.0 Z0.3 F5000.0 ; Move to side a little
G1 X0.4 Y20 Z0.3 F1500.0 E30 ; Draw the second line
G92 E0 ; Reset Extruder
G1 Z2.0 F3000 ; Move Z Axis up little to prevent scratching of Heat Bed
G1 X5 Y20 Z0.3 F5000.0 ; Move over to prevent blob squish
G92 E0
G92 E0
G1 F2700 E-5
;LAYER_COUNT:20
;LAYER:0
M107
G1 F300 Z0.4
;MESH:Body1.stl
G0 F6000 X119.912 Y216.399 Z0.4
;TYPE:WALL-INNER
G1 F300 Z0.2
G1 F2700 E0
G1 F1200 X125.827 Y215.955 E0.19729
G1 X131.708 Y215.16 E0.39467
G1 X137.499 Y214.019 E0.59098
G1 X143.251 Y212.524 E0.78865
G1 X148.869 Y210.7 E0.98511
G1 X154.399 Y208.529 E1.1827
G1 X159.774 Y206.038 E1.37974
G1 X164.975 Y203.24 E1.57617
G1 X170.012 Y200.128 E1.7731
G1 X174.87 Y196.706 E1.97074
G1 X179.501 Y193.013 E2.16774
G1 X183.887 Y189.062 E2.36408
G1 X188.058 Y184.829 E2.56174
G1 X191.942 Y180.384 E2.75807
G1 X195.577 Y175.682 E2.95574
G1 X198.903 Y170.804 E3.15211
G1 X201.953 Y165.703 E3.34978
G1 X204.67 Y160.463 E3.5461
G1 X207.088 Y155.034 E3.74377
G1 X209.231 Y149.324 E3.94662
G1 X209.222 Y149.312 E3.94712
G1 X210.914 Y143.827 E4.13803
G1 X212.319 Y138.074 E4.335
G1 X213.372 Y132.263 E4.53143
G1 X214.082 Y126.364 E4.72904
G1 X214.436 Y120.452 E4.92603
G1 X214.436 Y114.548 E5.1224
G1 X214.08 Y108.616 E5.32005
G1 X213.372 Y102.737 E5.517
G1 X212.315 Y96.907 E5.71407
G1 X210.914 Y91.173 E5.91039
G1 X209.222 Y85.688 E6.10131
G1 X209.231 Y85.676 E6.1018
G1 X207.088 Y79.966 E6.30466
G1 X204.67 Y74.537 E6.50232
G1 X201.953 Y69.297 E6.69864
G1 X198.903 Y64.196 E6.89632
G1 X195.577 Y59.318 E7.09269
G1 X191.942 Y54.616 E7.29036
G1 X188.058 Y50.171 E7.48669
G1 X183.887 Y45.938 E7.68434
G1 X179.501 Y41.987 E7.88068
G1 X174.87 Y38.294 E8.07769
G1 X170.01 Y34.872 E8.27538
G1 X164.971 Y31.758 E8.4724
G1 X159.774 Y28.962 E8.66868
G1 X154.399 Y26.471 E8.86572
G1 X148.867 Y24.3 E9.06338
G1 X143.251 Y22.476 E9.25977
G1 X137.499 Y20.981 E9.45744
G1 X131.708 Y19.84 E9.65375
G1 X125.827 Y19.045 E9.85113
G1 X119.912 Y18.601 E10.04842
G1 X114.005 Y18.512 E10.24491
G1 X108.072 Y18.779 E10.44244
G1 X102.202 Y19.396 E10.63876
G1 X96.349 Y20.367 E10.83609
G1 X90.565 Y21.688 E11.03342
G1 X84.899 Y23.342 E11.22974
G1 X79.322 Y25.342 E11.42679
G1 X73.875 Y27.668 E11.62379
G1 X68.561 Y30.326 E11.82141
G1 X63.438 Y33.284 E12.01817
G1 X58.487 Y36.553 E12.21549
G1 X53.764 Y40.094 E12.41183
G1 X49.231 Y43.937 E12.60949
G1 X44.963 Y48.015 E12.80582
G1 X40.92 Y52.372 E13.00351
G1 X37.159 Y56.948 E13.20052
G1 X33.689 Y61.724 E13.39687
G1 X30.49 Y66.733 E13.59455
G1 X27.615 Y71.889 E13.7909
G1 X25.036 Y77.243 E13.98856
G1 X22.791 Y82.725 E14.18558
G1 X20.882 Y88.31 E14.38189
G1 X19.301 Y94.04 E14.5796
G1 X18.074 Y99.814 E14.77593
G1 X17.188 Y105.692 E14.97364
G1 X16.659 Y111.57 E15.16993
G1 X16.482 Y117.509 E15.36755
G1 X16.659 Y123.43 E15.56457
G1 X17.188 Y129.308 E15.76087
G1 X18.074 Y135.186 E15.95858
G1 X19.301 Y140.96 E16.15491
G1 X20.882 Y146.688 E16.35255
G1 X22.791 Y152.275 E16.54892
G1 X25.036 Y157.757 E16.74595
G1 X27.615 Y163.111 E16.94361
G1 X30.49 Y168.267 E17.13995
G1 X33.689 Y173.276 E17.33763
G1 X37.159 Y178.052 E17.53398
G1 X40.92 Y182.628 E17.73099
G1 X44.957 Y186.979 E17.9284
G1 X49.231 Y191.063 E18.12502
G1 X53.764 Y194.906 E18.32268
G1 X58.487 Y198.447 E18.51901
G1 X63.438 Y201.716 E18.71634
G1 X68.561 Y204.674 E18.9131
G1 X73.871 Y207.33 E19.11057
G1 X79.322 Y209.658 E19.30771
G1 X84.897 Y211.658 E19.50471
G1 X90.565 Y213.312 E19.70109
G1 X96.349 Y214.633 E19.89842
G1 X102.204 Y215.604 E20.09582
G1 X108.072 Y216.221 E20.29206
G1 X114.005 Y216.488 E20.48959
G1 X119.912 Y216.399 E20.68608
G0 F6000 X119.93 Y216.799
G1 F1200 X125.869 Y216.353 E20.88417
G1 X131.773 Y215.554 E21.08233
G1 X137.588 Y214.409 E21.27945
G1 X143.363 Y212.908 E21.47791
G1 X149.004 Y211.076 E21.67518
G1 X154.557 Y208.897 E21.87358
G1 X159.953 Y206.396 E22.07139
G1 X165.175 Y203.587 E22.26861
G1 X170.233 Y200.462 E22.46636
G1 X175.11 Y197.026 E22.66478
G1 X179.759 Y193.319 E22.86255
G1 X184.164 Y189.352 E23.05972
G1 X188.351 Y185.101 E23.25817
G1 X192.251 Y180.638 E23.4553
G1 X195.901 Y175.918 E23.65375
G1 X199.241 Y171.019 E23.85096
G1 X202.302 Y165.898 E24.04939
G1 X205.031 Y160.636 E24.24654
G1 X207.458 Y155.186 E24.44497
G1 X209.614 Y149.443 E24.649
G1 X209.604 Y149.43 E24.64955
G1 X211.3 Y143.934 E24.84085
G1 X212.71 Y138.157 E25.03864
G1 X213.768 Y132.323 E25.23584
G1 X214.481 Y126.4 E25.43426
G1 X214.836 Y120.464 E25.63205
G1 X214.836 Y114.536 E25.82921
G1 X214.479 Y108.58 E26.02767
G1 X213.768 Y102.677 E26.22542
G1 X212.706 Y96.823 E26.4233
G1 X211.3 Y91.066 E26.62041
G1 X209.604 Y85.57 E26.81171
G1 X209.614 Y85.557 E26.81226
G1 X207.458 Y79.814 E27.01629
G1 X205.031 Y74.364 E27.21472
G1 X202.302 Y69.102 E27.41187
G1 X199.241 Y63.981 E27.6103
G1 X195.901 Y59.082 E27.80751
G1 X192.251 Y54.362 E28.00596
G1 X188.351 Y49.899 E28.20309
G1 X184.164 Y45.648 E28.40155
G1 X179.759 Y41.681 E28.59871
G1 X175.11 Y37.974 E28.79648
G1 X170.231 Y34.538 E28.99496
G1 X165.171 Y31.411 E29.1928
G1 X159.953 Y28.604 E29.38986
G1 X154.557 Y26.103 E29.58768
G1 X149.002 Y23.924 E29.78614
G1 X143.363 Y22.092 E29.98335
G1 X137.588 Y20.591 E30.18181
G1 X131.773 Y19.446 E30.37893
G1 X125.869 Y18.647 E30.57708
G1 X119.93 Y18.201 E30.77517
G1 X113.999 Y18.112 E30.97246
G1 X108.042 Y18.38 E31.17079
G1 X102.148 Y18.999 E31.36791
G1 X96.271 Y19.974 E31.56605
G1 X90.464 Y21.3 E31.76416
G1 X84.775 Y22.961 E31.96128
G1 X79.176 Y24.969 E32.15911
G1 X73.707 Y27.305 E32.35691
G1 X68.371 Y29.974 E32.55535
G1 X63.228 Y32.943 E32.75287
G1 X58.257 Y36.225 E32.95099
G1 X53.515 Y39.781 E33.14813
G1 X48.963 Y43.64 E33.34661
G1 X44.678 Y47.734 E33.54372
G1 X40.619 Y52.108 E33.74219
G1 X36.842 Y56.704 E33.94005
G1 X33.358 Y61.499 E34.13719
G1 X30.147 Y66.527 E34.33561
G1 X27.26 Y71.705 E34.53279
G1 X24.671 Y77.081 E34.73125
G1 X22.416 Y82.584 E34.92906
G1 X20.5 Y88.192 E35.12616
G1 X18.913 Y93.945 E35.32466
G1 X17.68 Y99.743 E35.52181
G1 X16.79 Y105.644 E35.7203
G1 X16.26 Y111.546 E35.91739
G1 X16.082 Y117.509 E36.11581
G1 X16.26 Y123.454 E36.31363
G1 X16.79 Y129.356 E36.51072
G1 X17.68 Y135.257 E36.70921
G1 X18.913 Y141.055 E36.90636
G1 X20.5 Y146.806 E37.10479
G1 X22.417 Y152.416 E37.30197
G1 X24.671 Y157.919 E37.49976
G1 X27.26 Y163.295 E37.69822
G1 X30.147 Y168.473 E37.8954
G1 X33.358 Y173.501 E38.09383
G1 X36.842 Y178.296 E38.29096
G1 X40.619 Y182.892 E38.48882
G1 X44.672 Y187.26 E38.68701
G1 X48.963 Y191.36 E38.88441
G1 X53.515 Y195.219 E39.08289
G1 X58.257 Y198.775 E39.28003
G1 X63.228 Y202.057 E39.47815
G1 X68.371 Y205.026 E39.67566
G1 X73.703 Y207.693 E39.87396
G1 X79.176 Y210.031 E40.0719
G1 X84.773 Y212.039 E40.26968
G1 X90.464 Y213.7 E40.46686
G1 X96.271 Y215.026 E40.66497
G1 X102.15 Y216.001 E40.86318
G1 X108.042 Y216.62 E41.06022
G1 X113.999 Y216.888 E41.25856
G1 X119.93 Y216.799 E41.45584
G0 F6000 X119.948 Y217.199
;TYPE:WALL-OUTER
G1 F1200 X125.911 Y216.751 E41.65473
G1 X131.839 Y215.949 E41.8537
G1 X137.677 Y214.799 E42.0516
G1 X143.475 Y213.292 E42.25085
G1 X149.139 Y211.453 E42.44892
G1 X154.714 Y209.265 E42.64811
G1 X160.132 Y206.754 E42.84673
G1 X165.375 Y203.933 E43.04475
G1 X170.453 Y200.796 E43.24327
G1 X175.35 Y197.346 E43.44251
G1 X180.018 Y193.624 E43.64108
G1 X184.44 Y189.641 E43.83902
G1 X188.645 Y185.373 E44.0383
G1 X192.56 Y180.892 E44.23621
G1 X196.225 Y176.153 E44.43546
G1 X199.578 Y171.235 E44.63344
G1 X202.652 Y166.093 E44.83269
G1 X205.391 Y160.81 E45.03062
G1 X207.828 Y155.338 E45.22985
G1 X209.997 Y149.561 E45.43509
G1 X209.986 Y149.548 E45.43566
G1 X211.686 Y144.04 E45.62738
G1 X213.102 Y138.24 E45.82595
G1 X214.164 Y132.383 E46.02394
G1 X214.879 Y126.436 E46.22316
G1 X215.236 Y120.476 E46.42174
G1 X215.236 Y114.524 E46.61971
G1 X214.877 Y108.544 E46.81896
G1 X214.164 Y102.617 E47.01752
G1 X213.098 Y96.74 E47.21618
G1 X211.686 Y90.96 E47.41407
G1 X209.986 Y85.452 E47.6058
G1 X209.997 Y85.439 E47.60636
G1 X207.828 Y79.662 E47.8116
G1 X205.391 Y74.19 E48.01084
G1 X202.652 Y68.907 E48.20876
G1 X199.578 Y63.765 E48.40802
G1 X196.225 Y58.847 E48.60599
G1 X192.56 Y54.108 E48.80524
G1 X188.645 Y49.627 E49.00315
G1 X184.44 Y45.359 E49.20243
G1 X180.018 Y41.376 E49.40037
G1 X175.35 Y37.654 E49.59894
G1 X170.451 Y34.204 E49.79824
G1 X165.371 Y31.065 E49.99685
G1 X160.132 Y28.246 E50.19472
G1 X154.714 Y25.735 E50.39334
G1 X149.137 Y23.547 E50.5926
G1 X143.475 Y21.708 E50.7906
G1 X137.677 Y20.201 E50.98985
G1 X131.839 Y19.051 E51.18775
G1 X125.911 Y18.249 E51.38672
G1 X119.948 Y17.801 E51.5856
G1 X113.993 Y17.712 E51.78369
G1 X108.012 Y17.981 E51.98282
G1 X102.094 Y18.603 E52.18074
G1 X96.194 Y19.582 E52.37966
G1 X90.364 Y20.913 E52.57855
G1 X84.651 Y22.581 E52.7765
G1 X79.03 Y24.597 E52.97512
G1 X73.539 Y26.942 E53.17371
G1 X68.181 Y29.622 E53.37296
G1 X63.018 Y32.603 E53.57125
G1 X58.027 Y35.898 E53.77017
G1 X53.265 Y39.468 E53.96812
G1 X48.695 Y43.342 E54.16738
G1 X44.393 Y47.453 E54.36529
G1 X40.317 Y51.845 E54.56459
G1 X36.526 Y56.459 E54.7632
G1 X33.028 Y61.273 E54.96112
G1 X29.803 Y66.322 E55.16039
G1 X26.905 Y71.521 E55.35836
G1 X24.305 Y76.918 E55.55761
G1 X22.042 Y82.444 E55.75622
G1 X20.118 Y88.074 E55.9541
G1 X18.524 Y93.85 E56.1534
G1 X17.286 Y99.671 E56.35133
G1 X16.393 Y105.596 E56.55063
G1 X15.86 Y111.522 E56.74852
G1 X15.682 Y117.509 E56.94774
G1 X15.86 Y123.478 E57.14635
G1 X16.393 Y129.404 E57.34425
G1 X17.286 Y135.329 E57.54354
G1 X18.524 Y141.15 E57.74148
G1 X20.118 Y146.924 E57.94071
G1 X22.042 Y152.556 E58.13866
G1 X24.305 Y158.082 E58.33727
G1 X26.905 Y163.479 E58.53652
G1 X29.803 Y168.678 E58.73449
G1 X33.028 Y173.727 E58.93375
G1 X36.526 Y178.541 E59.13167
G1 X40.317 Y183.155 E59.33029
G1 X44.387 Y187.541 E59.5293
G1 X48.695 Y191.658 E59.72749
G1 X53.265 Y195.532 E59.92676
G1 X58.027 Y199.102 E60.12471
G1 X63.018 Y202.397 E60.32362
G1 X68.181 Y205.378 E60.52191
G1 X73.535 Y208.056 E60.72102
G1 X79.03 Y210.403 E60.91976
G1 X84.649 Y212.419 E61.11831
G1 X90.364 Y214.087 E61.31632
G1 X96.194 Y215.418 E61.51522
G1 X102.096 Y216.397 E61.7142
G1 X108.012 Y217.019 E61.91205
G1 X113.993 Y217.288 E62.11118
G1 X119.948 Y217.199 E62.30927
;MESH:NONMESH
G0 F300 X119.948 Y217.199 Z0.4
G0 F6000 X119.912 Y216.399
;TIME_ELAPSED:98.882473
;LAYER:1
M106 S85
;TYPE:WALL-INNER
;MESH:Body1.stl
G1 F1350 X125.827 Y215.955 E62.50656
G1 X131.708 Y215.16 E62.70394
G1 X137.499 Y214.019 E62.90025
G1 X143.251 Y212.524 E63.09792
G1 X148.869 Y210.7 E63.29438
G1 X154.399 Y208.529 E63.49197
G1 X159.774 Y206.038 E63.68901
G1 X164.975 Y203.24 E63.88544
G1 X170.012 Y200.128 E64.08237
G1 X174.87 Y196.706 E64.28001
G1 X179.501 Y193.013 E64.47701
G1 X183.887 Y189.062 E64.67335
G1 X188.058 Y184.829 E64.87101
G1 X191.942 Y180.384 E65.06734
G1 X195.577 Y175.682 E65.26501
G1 X198.903 Y170.804 E65.46138
G1 X201.953 Y165.703 E65.65905
G1 X204.67 Y160.463 E65.85537
G1 X207.088 Y155.034 E66.05304
G1 X209.231 Y149.324 E66.25589
G1 X209.222 Y149.312 E66.25639
G1 X210.914 Y143.827 E66.4473
G1 X212.319 Y138.074 E66.64427
G1 X213.372 Y132.263 E66.8407
G1 X214.082 Y126.364 E67.03831
G1 X214.436 Y120.452 E67.2353
G1 X214.436 Y114.548 E67.43167
G1 X214.08 Y108.616 E67.62932
G1 X213.372 Y102.737 E67.82627
G1 X212.315 Y96.907 E68.02334
G1 X210.914 Y91.173 E68.21966
G1 X209.222 Y85.688 E68.41058
G1 X209.231 Y85.676 E68.41107
G1 X207.088 Y79.966 E68.61393
G1 X204.67 Y74.537 E68.81159
G1 X201.953 Y69.297 E69.00791
G1 X198.903 Y64.196 E69.20559
G1 X195.577 Y59.318 E69.40196
G1 X191.942 Y54.616 E69.59963
G1 X188.058 Y50.171 E69.79596
G1 X183.887 Y45.938 E69.99361
G1 X179.501 Y41.987 E70.18995
G1 X174.87 Y38.294 E70.38696
G1 X170.01 Y34.872 E70.58465
G1 X164.971 Y31.758 E70.78167
G1 X159.774 Y28.962 E70.97795
G1 X154.399 Y26.471 E71.17499
G1 X148.867 Y24.3 E71.37265
G1 X143.251 Y22.476 E71.56904
G1 X137.499 Y20.981 E71.76671
G1 X131.708 Y19.84 E71.96302
G1 X125.827 Y19.045 E72.1604
G1 X119.912 Y18.601 E72.35769
G1 X114.005 Y18.512 E72.55418
G1 X108.072 Y18.779 E72.75171
G1 X102.202 Y19.396 E72.94803
G1 X96.349 Y20.367 E73.14536
G1 X90.565 Y21.688 E73.34269
G1 X84.899 Y23.342 E73.53901
G1 X79.322 Y25.342 E73.73606
G1 X73.875 Y27.668 E73.93306
G1 X68.561 Y30.326 E74.13068
G1 X63.438 Y33.284 E74.32744
G1 X58.487 Y36.553 E74.52476
G1 X53.764 Y40.094 E74.7211
G1 X49.231 Y43.937 E74.91876
G1 X44.963 Y48.015 E75.11509
G1 X40.92 Y52.372 E75.31278
G1 X37.159 Y56.948 E75.50979
G1 X33.689 Y61.724 E75.70614
G1 X30.49 Y66.733 E75.90382
G1 X27.615 Y71.889 E76.10017
G1 X25.036 Y77.243 E76.29783
G1 X22.791 Y82.725 E76.49485
G1 X20.882 Y88.31 E76.69116
G1 X19.301 Y94.04 E76.88887
G1 X18.074 Y99.814 E77.0852
G1 X17.188 Y105.692 E77.28291
G1 X16.659 Y111.57 E77.4792
G1 X16.482 Y117.509 E77.67682
G1 X16.659 Y123.43 E77.87384
G1 X17.188 Y129.308 E78.07014
G1 X18.074 Y135.186 E78.26785
G1 X19.301 Y140.96 E78.46418
G1 X20.882 Y146.688 E78.66182
G1 X22.791 Y152.275 E78.85819
G1 X25.036 Y157.757 E79.05522
G1 X27.615 Y163.111 E79.25288
G1 X30.49 Y168.267 E79.44922
G1 X33.689 Y173.276 E79.6469
G1 X37.159 Y178.052 E79.84325
G1 X40.92 Y182.628 E80.04026
G1 X44.957 Y186.979 E80.23767
G1 X49.231 Y191.063 E80.43429
G1 X53.764 Y194.906 E80.63195
G1 X58.487 Y198.447 E80.82828
G1 X63.438 Y201.716 E81.02561
G1 X68.561 Y204.674 E81.22237
G1 X73.871 Y207.33 E81.41984
G1 X79.322 Y209.658 E81.61698
G1 X84.897 Y211.658 E81.81398
G1 X90.565 Y213.312 E82.01036
G1 X96.349 Y214.633 E82.20769
G1 X102.204 Y215.604 E82.40509
G1 X108.072 Y216.221 E82.60133
G1 X114.005 Y216.488 E82.79886
G1 X119.912 Y216.399 E82.99535
G0 F7500 X119.93 Y216.799
G1 F1350 X125.869 Y216.353 E83.19344
G1 X131.773 Y215.554 E83.3916
G1 X137.588 Y214.409 E83.58872
G1 X143.363 Y212.908 E83.78718
G1 X149.004 Y211.076 E83.98445
G1 X154.557 Y208.897 E84.18285
G1 X159.953 Y206.396 E84.38066
G1 X165.175 Y203.587 E84.57788
G1 X170.233 Y200.462 E84.77563
G1 X175.11 Y197.026 E84.97405
G1 X179.759 Y193.319 E85.17182
G1 X184.164 Y189.352 E85.36899
G1 X188.351 Y185.101 E85.56744
G1 X192.251 Y180.638 E85.76457
G1 X195.901 Y175.918 E85.96302
G1 X199.241 Y171.019 E86.16023
G1 X202.302 Y165.898 E86.35866
G1 X205.031 Y160.636 E86.55581
G1 X207.458 Y155.186 E86.75424
G1 X209.614 Y149.443 E86.95827
G1 X209.604 Y149.43 E86.95882
G1 X211.3 Y143.934 E87.15012
G1 X212.71 Y138.157 E87.34791
G1 X213.768 Y132.323 E87.54511
G1 X214.481 Y126.4 E87.74353
G1 X214.836 Y120.464 E87.94132
G1 X214.836 Y114.536 E88.13848
G1 X214.479 Y108.58 E88.33694
G1 X213.768 Y102.677 E88.53469
G1 X212.706 Y96.823 E88.73257
G1 X211.3 Y91.066 E88.92968
G1 X209.604 Y85.57 E89.12098
G1 X209.614 Y85.557 E89.12153
G1 X207.458 Y79.814 E89.32556
G1 X205.031 Y74.364 E89.52399
G1 X202.302 Y69.102 E89.72114
G1 X199.241 Y63.981 E89.91957
G1 X195.901 Y59.082 E90.11678
G1 X192.251 Y54.362 E90.31523
G1 X188.351 Y49.899 E90.51236
G1 X184.164 Y45.648 E90.71082
G1 X179.759 Y41.681 E90.90798
G1 X175.11 Y37.974 E91.10575
G1 X170.231 Y34.538 E91.30423
G1 X165.171 Y31.411 E91.50207
G1 X159.953 Y28.604 E91.69913
G1 X154.557 Y26.103 E91.89695
G1 X149.002 Y23.924 E92.09541
G1 X143.363 Y22.092 E92.29262
G1 X137.588 Y20.591 E92.49108
G1 X131.773 Y19.446 E92.6882
G1 X125.869 Y18.647 E92.88635
G1 X119.93 Y18.201 E93.08444
G1 X113.999 Y18.112 E93.28173
G1 X108.042 Y18.38 E93.48006
G1 X102.148 Y18.999 E93.67718
G1 X96.271 Y19.974 E93.87532
G1 X90.464 Y21.3 E94.07343
G1 X84.775 Y22.961 E94.27055
G1 X79.176 Y24.969 E94.46838
G1 X73.707 Y27.305 E94.66618
G1 X68.371 Y29.974 E94.86462
G1 X63.228 Y32.943 E95.06214
G1 X58.257 Y36.225 E95.26026
G1 X53.515 Y39.781 E95.4574
G1 X48.963 Y43.64 E95.65588
G1 X44.678 Y47.734 E95.85299
G1 X40.619 Y52.108 E96.05146
G1 X36.842 Y56.704 E96.24932
