;FLAVOR:Marlin
;TIME:518
;Filament used: 0.397907m
;Layer height: 0.2
;MINX:102.704
;MINY:102.703
;MINZ:0.2
;MAXX:132.297
;MAXY:132.297
;MAXZ:4
;TARGET_MACHINE.NAME:Creality Ender-3
;Generated with Cura_SteamEngine 5.6.0
M140 S50
M105
M190 S50
M104 S200
M105
M109 S200
M82 ;absolute extrusion mode
; Ender 3 Custom Start G-code
G92 E0 ; Reset Extruder
G28 ; Home all axes
G1 Z2.0 F3000 ; Move Z Axis up little to prevent scratching of Heat Bed
G1 X0.1 Y20 Z0.3 F5000.0 ; Move to start position
G1 X0.1 Y200.0 Z0.3 F1500.0 E15 ; Draw the first line
G1 X0.4 Y200.0 Z0.3 F5000.0 ; Move to side a little
G1 X0.4 Y20 Z0.3 F1500.0 E30 ; Draw the second line
G92 E0 ; Reset Extruder
G1 Z2.0 F3000 ; Move Z Axis up little to prevent scratching of Heat Bed
G1 X5 Y20 Z0.3 F5000.0 ; Move over to prevent blob squish
G92 E0
G92 E0
G1 F2700 E-5
;LAYER_COUNT:20
;LAYER:0
M107
G1 F300 Z0.4
;MESH:Body1.stl
G0 F6000 X117.327 Y129.897 Z0.4
;TYPE:WALL-INNER
G1 F300 Z0.2
G1 F2700 E0
G1 F1200 X118.051 Y129.886 E0.02408
G1 X118.701 Y129.838 E0.04576
G1 X118.708 Y129.845 E0.04609
G1 X119.523 Y129.733 E0.07345
G1 X120.253 Y129.589 E0.0982
G1 X120.99 Y129.398 E0.12352
G1 X121.679 Y129.174 E0.14762
G1 X122.385 Y128.897 E0.17284
G1 X123.058 Y128.585 E0.19752
G1 X123.698 Y128.24 E0.2217
G1 X124.328 Y127.852 E0.24631
G1 X124.947 Y127.415 E0.27151
G1 X125.51 Y126.965 E0.29548
G1 X126.066 Y126.467 E0.32031
G1 X126.587 Y125.939 E0.34498
G1 X127.087 Y125.366 E0.37027
G1 X127.518 Y124.81 E0.39367
G1 X127.946 Y124.181 E0.41897
G1 X128.327 Y123.545 E0.44363
G1 X128.66 Y122.907 E0.46757
G1 X128.98 Y122.19 E0.49368
G1 X129.286 Y121.377 E0.52258
G1 X129.279 Y121.367 E0.52298
G1 X129.452 Y120.806 E0.54251
G1 X129.629 Y120.087 E0.56714
G1 X129.761 Y119.356 E0.59184
G1 X129.851 Y118.621 E0.61647
G1 X129.896 Y117.881 E0.64113
G1 X129.896 Y117.138 E0.66584
G1 X129.851 Y116.38 E0.6911
G1 X129.761 Y115.642 E0.71583
G1 X129.63 Y114.912 E0.74049
G1 X129.458 Y114.216 E0.76434
G1 X129.278 Y113.635 E0.78457
G1 X129.286 Y113.624 E0.78502
G1 X128.979 Y112.81 E0.81396
G1 X128.673 Y112.12 E0.83906
G1 X128.336 Y111.47 E0.86341
G1 X127.945 Y110.817 E0.88873
G1 X127.538 Y110.219 E0.91279
G1 X127.073 Y109.617 E0.93809
G1 X126.586 Y109.06 E0.9627
G1 X126.079 Y108.546 E0.98671
G1 X125.526 Y108.048 E1.01146
G1 X124.946 Y107.584 E1.03617
G1 X124.326 Y107.147 E1.06139
G1 X123.693 Y106.757 E1.08612
G1 X123.076 Y106.424 E1.10944
G1 X122.376 Y106.1 E1.1351
G1 X121.677 Y105.826 E1.16007
G1 X120.989 Y105.602 E1.18413
G1 X120.27 Y105.415 E1.20884
G1 X119.543 Y105.271 E1.23349
G1 X118.706 Y105.156 E1.26159
G1 X118.699 Y105.163 E1.26192
G1 X118.07 Y105.115 E1.2829
G1 X117.341 Y105.104 E1.30715
G1 X116.567 Y105.137 E1.33292
G1 X115.849 Y105.213 E1.35694
G1 X115.104 Y105.336 E1.38205
G1 X114.375 Y105.502 E1.40692
G1 X113.683 Y105.704 E1.43089
G1 X112.983 Y105.956 E1.45564
G1 X112.318 Y106.239 E1.47968
G1 X111.619 Y106.588 E1.50566
G1 X110.979 Y106.958 E1.53025
G1 X110.36 Y107.367 E1.55493
G1 X109.782 Y107.801 E1.57897
G1 X109.199 Y108.294 E1.60436
G1 X108.671 Y108.798 E1.62864
G1 X108.167 Y109.342 E1.6533
G1 X107.697 Y109.915 E1.67795
G1 X107.26 Y110.515 E1.70264
G1 X106.856 Y111.149 E1.72764
G1 X106.504 Y111.781 E1.75171
G1 X106.173 Y112.468 E1.77707
G1 X105.901 Y113.134 E1.801
G1 X105.658 Y113.839 E1.8258
G1 X105.455 Y114.573 E1.85113
G1 X105.309 Y115.258 E1.87442
G1 X105.195 Y116.011 E1.89975
G1 X105.127 Y116.751 E1.92447
G1 X105.105 Y117.49 E1.94906
G1 X105.127 Y118.251 E1.97438
G1 X105.192 Y118.97 E1.99839
G1 X105.305 Y119.721 E2.02365
G1 X105.455 Y120.426 E2.04763
G1 X105.659 Y121.16 E2.07296
G1 X105.894 Y121.849 E2.09718
G1 X106.173 Y122.533 E2.12175
G1 X106.496 Y123.202 E2.14645
G1 X106.846 Y123.835 E2.17051
G1 X107.261 Y124.486 E2.19619
G1 X107.696 Y125.085 E2.22081
G1 X108.167 Y125.657 E2.24546
G1 X108.669 Y126.199 E2.27003
G1 X109.2 Y126.706 E2.29445
G1 X109.767 Y127.187 E2.31918
G1 X110.345 Y127.622 E2.34324
G1 X110.98 Y128.043 E2.36858
G1 X111.621 Y128.413 E2.39319
G1 X112.296 Y128.751 E2.4183
G1 X112.985 Y129.045 E2.44322
G1 X113.662 Y129.289 E2.46715
G1 X114.375 Y129.498 E2.49186
G1 X115.106 Y129.664 E2.5168
G1 X115.828 Y129.784 E2.54114
G1 X116.549 Y129.861 E2.56526
G1 X117.327 Y129.897 E2.59116
G0 F6000 X117.321 Y130.297
G1 F1200 X118.069 Y130.286 E2.61604
G1 X118.73 Y130.236 E2.63809
G1 X118.738 Y130.244 E2.63847
G1 X119.589 Y130.128 E2.66703
G1 X120.342 Y129.98 E2.69256
G1 X121.102 Y129.782 E2.71868
G1 X121.814 Y129.551 E2.74357
G1 X122.542 Y129.265 E2.76959
G1 X123.237 Y128.942 E2.79508
G1 X123.898 Y128.587 E2.82003
G1 X124.548 Y128.186 E2.84544
G1 X125.187 Y127.735 E2.87145
G1 X125.769 Y127.27 E2.89623
G1 X126.342 Y126.756 E2.92183
G1 X126.88 Y126.211 E2.9473
G1 X127.397 Y125.62 E2.97342
G1 X127.842 Y125.045 E2.9976
G1 X128.283 Y124.396 E3.0237
G1 X128.677 Y123.741 E3.04912
G1 X129.02 Y123.081 E3.07386
G1 X129.35 Y122.342 E3.10078
G1 X129.669 Y121.495 E3.13088
G1 X129.661 Y121.485 E3.13131
G1 X129.838 Y120.913 E3.15122
G1 X130.021 Y120.171 E3.17664
G1 X130.157 Y119.416 E3.20216
G1 X130.249 Y118.657 E3.22759
G1 X130.296 Y117.893 E3.25304
G1 X130.296 Y117.126 E3.27855
G1 X130.249 Y116.344 E3.30461
G1 X130.157 Y115.583 E3.33011
G1 X130.022 Y114.829 E3.35558
G1 X129.844 Y114.109 E3.38025
G1 X129.661 Y113.517 E3.40086
G1 X129.669 Y113.505 E3.40134
G1 X129.35 Y112.658 E3.43144
G1 X129.033 Y111.947 E3.45734
G1 X128.685 Y111.275 E3.48251
G1 X128.282 Y110.602 E3.5086
G1 X127.862 Y109.984 E3.53345
G1 X127.382 Y109.363 E3.55955
G1 X126.879 Y108.788 E3.58496
G1 X126.355 Y108.256 E3.6098
G1 X125.785 Y107.743 E3.6353
G1 X125.187 Y107.264 E3.66079
G1 X124.547 Y106.813 E3.68683
G1 X123.893 Y106.411 E3.71236
G1 X123.255 Y106.066 E3.73649
G1 X122.533 Y105.732 E3.76294
G1 X121.812 Y105.449 E3.78871
G1 X121.101 Y105.218 E3.81357
G1 X120.36 Y105.025 E3.83904
G1 X119.609 Y104.876 E3.8645
G1 X118.737 Y104.757 E3.89378
G1 X118.729 Y104.764 E3.89413
G1 X118.089 Y104.715 E3.91548
G1 X117.336 Y104.704 E3.94053
G1 X116.537 Y104.738 E3.96712
G1 X115.795 Y104.817 E3.99194
G1 X115.027 Y104.943 E4.01783
G1 X114.275 Y105.115 E4.04349
G1 X113.559 Y105.324 E4.06829
G1 X112.836 Y105.583 E4.09384
G1 X112.151 Y105.876 E4.11862
G1 X111.43 Y106.235 E4.14541
G1 X110.768 Y106.617 E4.17083
G1 X110.13 Y107.04 E4.19629
G1 X109.532 Y107.488 E4.22114
G1 X108.931 Y107.997 E4.24733
G1 X108.386 Y108.517 E4.27239
G1 X107.866 Y109.079 E4.29785
G1 X107.38 Y109.671 E4.32333
G1 X106.93 Y110.29 E4.34878
G1 X106.513 Y110.944 E4.37458
G1 X106.149 Y111.597 E4.39945
G1 X105.807 Y112.305 E4.4256
G1 X105.526 Y112.993 E4.45032
G1 X105.276 Y113.721 E4.47592
G1 X105.066 Y114.478 E4.50205
G1 X104.915 Y115.186 E4.52612
G1 X104.797 Y115.962 E4.55223
G1 X104.728 Y116.727 E4.57778
G1 X104.705 Y117.489 E4.60313
G1 X104.728 Y118.275 E4.62929
G1 X104.795 Y119.018 E4.6541
G1 X104.911 Y119.793 E4.68016
G1 X105.066 Y120.522 E4.70495
G1 X105.276 Y121.278 E4.73105
G1 X105.519 Y121.99 E4.75607
G1 X105.807 Y122.696 E4.78143
G1 X106.14 Y123.386 E4.80691
G1 X106.502 Y124.039 E4.83175
G1 X106.93 Y124.711 E4.85825
G1 X107.379 Y125.329 E4.88365
G1 X107.865 Y125.921 E4.90913
G1 X108.383 Y126.48 E4.93448
G1 X108.932 Y127.003 E4.95969
G1 X109.517 Y127.499 E4.9852
G1 X110.114 Y127.949 E5.01007
G1 X110.769 Y128.383 E5.0362
G1 X111.431 Y128.765 E5.06162
G1 X112.128 Y129.114 E5.08755
G1 X112.839 Y129.417 E5.11326
G1 X113.538 Y129.67 E5.13798
G1 X114.275 Y129.885 E5.16352
G1 X115.029 Y130.057 E5.18924
G1 X115.774 Y130.181 E5.21436
G1 X116.519 Y130.26 E5.23928
G1 X117.321 Y130.297 E5.26598
G0 F6000 X117.315 Y130.697
G1 F1200 X118.086 Y130.685 E5.29163
G1 X118.76 Y130.635 E5.3141
G1 X118.769 Y130.644 E5.31453
G1 X119.655 Y130.522 E5.34427
G1 X120.431 Y130.37 E5.37057
G1 X121.214 Y130.166 E5.39749
G1 X121.949 Y129.928 E5.42318
G1 X122.7 Y129.633 E5.45002
G1 X123.416 Y129.3 E5.47628
G1 X124.098 Y128.934 E5.50203
G1 X124.768 Y128.52 E5.52822
G1 X125.427 Y128.055 E5.55505
G1 X126.028 Y127.575 E5.58063
G1 X126.618 Y127.046 E5.60699
G1 X127.173 Y126.484 E5.63326
G1 X127.706 Y125.874 E5.6602
G1 X128.165 Y125.28 E5.68517
G1 X128.621 Y124.612 E5.71207
G1 X129.026 Y123.936 E5.73828
G1 X129.381 Y123.255 E5.76382
G1 X129.72 Y122.494 E5.79153
G1 X130.052 Y121.614 E5.82281
G1 X130.043 Y121.603 E5.82328
G1 X130.223 Y121.02 E5.84358
G1 X130.412 Y120.254 E5.86982
G1 X130.553 Y119.476 E5.89612
G1 X130.648 Y118.694 E5.92232
G1 X130.696 Y117.905 E5.94861
G1 X130.696 Y117.115 E5.97488
G1 X130.648 Y116.308 E6.00177
G1 X130.553 Y115.523 E6.02807
G1 X130.413 Y114.746 E6.05433
G1 X130.229 Y114.002 E6.07982
G1 X130.043 Y113.398 E6.10084
G1 X130.052 Y113.386 E6.10134
G1 X129.72 Y112.506 E6.13262
G1 X129.394 Y111.773 E6.15931
G1 X129.035 Y111.08 E6.18526
G1 X128.62 Y110.387 E6.21213
G1 X128.186 Y109.749 E6.2378
G1 X127.691 Y109.109 E6.26471
G1 X127.173 Y108.516 E6.29089
G1 X126.632 Y107.967 E6.31653
G1 X126.044 Y107.438 E6.34284
G1 X125.427 Y106.944 E6.36913
G1 X124.767 Y106.479 E6.39598
G1 X124.093 Y106.064 E6.4223
G1 X123.434 Y105.708 E6.44722
G1 X122.691 Y105.364 E6.47445
G1 X121.947 Y105.072 E6.50103
G1 X121.213 Y104.834 E6.5267
G1 X120.449 Y104.635 E6.55295
G1 X119.675 Y104.482 E6.5792
G1 X118.767 Y104.357 E6.60968
G1 X118.759 Y104.365 E6.61006
G1 X118.107 Y104.316 E6.6318
G1 X117.33 Y104.303 E6.65765
G1 X116.508 Y104.339 E6.68502
G1 X115.742 Y104.42 E6.71064
G1 X114.95 Y104.551 E6.73734
G1 X114.174 Y104.728 E6.76381
G1 X113.436 Y104.943 E6.78938
G1 X112.69 Y105.211 E6.81574
G1 X111.983 Y105.512 E6.8413
G1 X111.24 Y105.883 E6.86892
G1 X110.558 Y106.277 E6.89512
G1 X109.899 Y106.712 E6.92138
G1 X109.283 Y107.175 E6.94701
G1 X108.664 Y107.699 E6.97398
G1 X108.101 Y108.237 E6.99988
G1 X107.564 Y108.816 E7.02615
G1 X107.063 Y109.426 E7.0524
G1 X106.599 Y110.064 E7.07864
G1 X106.169 Y110.739 E7.10526
G1 X105.794 Y111.413 E7.13091
G1 X105.442 Y112.142 E7.15784
G1 X105.151 Y112.852 E7.18336
G1 X104.894 Y113.602 E7.20973
G1 X104.678 Y114.382 E7.23665
G1 X104.521 Y115.114 E7.26155
G1 X104.4 Y115.914 E7.28846
G1 X104.328 Y116.703 E7.31481
G1 X104.304 Y117.489 E7.34097
G1 X104.328 Y118.299 E7.36792
G1 X104.397 Y119.066 E7.39353
G1 X104.517 Y119.864 E7.42037
G1 X104.678 Y120.617 E7.44598
G1 X104.894 Y121.396 E7.47287
G1 X105.144 Y122.13 E7.49866
G1 X105.442 Y122.858 E7.52482
G1 X105.785 Y123.57 E7.55111
G1 X106.158 Y124.244 E7.57673
G1 X106.599 Y124.936 E7.60402
G1 X107.062 Y125.574 E7.63024
G1 X107.564 Y126.184 E7.65652
G1 X108.098 Y126.761 E7.68267
G1 X108.664 Y127.301 E7.70868
G1 X109.267 Y127.812 E7.73497
G1 X109.883 Y128.276 E7.76062
G1 X110.559 Y128.723 E7.78758
G1 X111.241 Y129.118 E7.81379
G1 X111.96 Y129.477 E7.84052
G1 X112.692 Y129.79 E7.867
G1 X113.414 Y130.05 E7.89252
G1 X114.174 Y130.272 E7.91886
G1 X114.952 Y130.449 E7.9454
G1 X115.72 Y130.577 E7.97129
G1 X116.488 Y130.659 E7.99698
G1 X117.315 Y130.697 E8.02452
G0 F6000 X117.308 Y131.097
G1 F1200 X118.104 Y131.085 E8.05099
G1 X118.79 Y131.034 E8.07387
G1 X118.799 Y131.044 E8.07432
G1 X119.72 Y130.917 E8.10524
G1 X120.52 Y130.76 E8.13236
G1 X121.326 Y130.55 E8.16006
G1 X122.084 Y130.305 E8.18656
G1 X122.857 Y130.001 E8.21418
G1 X123.595 Y129.658 E8.24125
G1 X124.298 Y129.28 E8.2678
G1 X124.989 Y128.854 E8.2948
G1 X125.667 Y128.375 E8.32241
G1 X126.286 Y127.881 E8.34875
G1 X126.894 Y127.336 E8.37591
G1 X127.466 Y126.756 E8.403
G1 X128.015 Y126.129 E8.43072
G1 X128.489 Y125.515 E8.45652
G1 X128.958 Y124.828 E8.48418
G1 X129.375 Y124.132 E8.51117
G1 X129.741 Y123.429 E8.53753
G1 X130.09 Y122.646 E8.56604
G1 X130.434 Y121.732 E8.59853
G1 X130.426 Y121.721 E8.59898
G1 X130.609 Y121.127 E8.61965
G1 X130.804 Y120.338 E8.64668
G1 X130.948 Y119.535 E8.67382
G1 X131.047 Y118.73 E8.70079
G1 X131.096 Y117.918 E8.72785
G1 X131.096 Y117.103 E8.75496
G1 X131.047 Y116.272 E8.78264
G1 X130.948 Y115.464 E8.80972
G1 X130.804 Y114.662 E8.83682
G1 X130.615 Y113.894 E8.86312
G1 X130.425 Y113.28 E8.8845
G1 X130.435 Y113.267 E8.88505
G1 X130.09 Y112.354 E8.91751
G1 X129.754 Y111.6 E8.94497
G1 X129.384 Y110.886 E8.97171
G1 X128.957 Y110.171 E8.99941
G1 X128.51 Y109.514 E9.02584
G1 X128.001 Y108.855 E9.05354
G1 X127.466 Y108.243 E9.08057
G1 X126.908 Y107.678 E9.10698
G1 X126.303 Y107.132 E9.13409
G1 X125.667 Y106.624 E9.16116
G1 X124.987 Y106.145 E9.18883
G1 X124.293 Y105.718 E9.21593
G1 X123.614 Y105.351 E9.2416
G1 X122.848 Y104.996 E9.26968
G1 X122.082 Y104.695 E9.29705
G1 X121.325 Y104.45 E9.32352
G1 X120.539 Y104.245 E9.35054
G1 X119.742 Y104.087 E9.37756
G1 X118.798 Y103.957 E9.40925
G1 X118.789 Y103.966 E9.40968
G1 X118.125 Y103.916 E9.43182
G1 X117.324 Y103.903 E9.45847
G1 X116.478 Y103.94 E9.48663
G1 X115.688 Y104.023 E9.51305
G1 X114.873 Y104.158 E9.54053
G1 X114.074 Y104.34 E9.56779
G1 X113.312 Y104.563 E9.59419
G1 X112.544 Y104.838 E9.62133
G1 X111.815 Y105.149 E9.64769
G1 X111.051 Y105.53 E9.67608
G1 X110.347 Y105.937 E9.70313
G1 X109.668 Y106.385 E9.73018
G1 X109.033 Y106.862 E9.7566
G1 X108.396 Y107.402 E9.78437
G1 X107.816 Y107.956 E9.81105
G1 X107.263 Y108.553 E9.83812
G1 X106.747 Y109.181 E9.86515
G1 X106.268 Y109.839 E9.89222
G1 X105.825 Y110.534 E9.91963
G1 X105.438 Y111.228 E9.94606
G1 X105.076 Y111.979 E9.97379
G1 X104.777 Y112.711 E10.00009
G1 X104.511 Y113.484 E10.02728
G1 X104.289 Y114.287 E10.05499
G1 X104.128 Y115.043 E10.0807
G1 X104.003 Y115.866 E10.10839
G1 X103.929 Y116.679 E10.13554
G1 X103.904 Y117.489 E10.16249
G1 X103.929 Y118.323 E10.19024
G1 X104 Y119.113 E10.21662
G1 X104.124 Y119.936 E10.24431
G1 X104.289 Y120.712 E10.27069
G1 X104.512 Y121.514 E10.29838
G1 X104.769 Y122.27 E10.32494
G1 X105.076 Y123.021 E10.35192
G1 X105.429 Y123.754 E10.37898
G1 X105.814 Y124.448 E10.40538
G1 X106.269 Y125.161 E10.43351
G1 X106.746 Y125.819 E10.46054
G1 X107.262 Y126.447 E10.48757
G1 X107.813 Y127.041 E10.51452
G1 X108.396 Y127.598 E10.54134
G1 X109.017 Y128.124 E10.56841
G1 X109.652 Y128.603 E10.59486
G1 X110.348 Y129.064 E10.62263
G1 X111.051 Y129.47 E10.64963
G1 X111.792 Y129.84 E10.67718
G1 X112.545 Y130.162 E10.70442
G1 X113.29 Y130.431 E10.73076
G1 X114.074 Y130.66 E10.75793
G1 X114.875 Y130.842 E10.78525
G1 X115.666 Y130.974 E10.81192
G1 X116.458 Y131.058 E10.83841
G1 X117.308 Y131.097 E10.86671
G0 F6000 X117.302 Y131.497
G1 F1200 X118.122 Y131.485 E10.89399
G1 X118.819 Y131.433 E10.91723
G1 X118.829 Y131.443 E10.9177
G1 X119.786 Y131.312 E10.94983
G1 X120.609 Y131.15 E10.97773
G1 X121.438 Y130.934 E11.00622
G1 X122.218 Y130.682 E11.03349
G1 X123.015 Y130.369 E11.06196
G1 X123.775 Y130.016 E11.08984
G1 X124.498 Y129.627 E11.11714
G1 X125.209 Y129.188 E11.14494
G1 X125.908 Y128.695 E11.17338
G1 X126.545 Y128.186 E11.2005
G1 X127.17 Y127.625 E11.22844
G1 X127.76 Y127.028 E11.25635
G1 X128.324 Y126.383 E11.28485
G1 X128.813 Y125.751 E11.31143
G1 X129.295 Y125.043 E11.33992
G1 X129.724 Y124.327 E11.36768
G1 X130.101 Y123.603 E11.39483
G1 X130.46 Y122.798 E11.42414
G1 X130.817 Y121.851 E11.45781
G1 X130.808 Y121.839 E11.4583
G1 X130.994 Y121.234 E11.47936
G1 X131.195 Y120.422 E11.50718
G1 X131.344 Y119.595 E11.53513
G1 X131.445 Y118.766 E11.5629
G1 X131.496 Y117.93 E11.59076
G1 X131.496 Y117.091 E11.61867
G1 X131.445 Y116.236 E11.64716
G1 X131.344 Y115.404 E11.67503
G1 X131.196 Y114.579 E11.70291
G1 X131.001 Y113.787 E11.73004
G1 X130.807 Y113.162 E11.7518
G1 X130.817 Y113.148 E11.75238
G1 X130.46 Y112.202 E11.78601
G1 X130.115 Y111.426 E11.81425
G1 X129.734 Y110.691 E11.84179
G1 X129.294 Y109.956 E11.87028
G1 X128.834 Y109.279 E11.8975
G1 X128.31 Y108.601 E11.926
G1 X127.759 Y107.971 E11.95384
G1 X127.185 Y107.389 E11.98103
G1 X126.562 Y106.827 E12.00893
G1 X125.908 Y106.304 E12.03679
G1 X125.208 Y105.811 E12.06526
G1 X124.493 Y105.371 E12.09319
G1 X123.793 Y104.993 E12.11965
G1 X123.005 Y104.628 E12.14853
G1 X122.216 Y104.319 E12.17671
G1 X121.438 Y104.066 E12.20392
G1 X120.628 Y103.855 E12.23176
G1 X119.808 Y103.692 E12.25957
G1 X118.829 Y103.558 E12.29243
G1 X118.819 Y103.567 E12.29288
G1 X118.143 Y103.516 E12.31543
G1 X117.319 Y103.503 E12.34284
G1 X116.448 Y103.541 E12.37184
G1 X115.634 Y103.627 E12.39906
G1 X114.796 Y103.765 E12.42731
G1 X113.973 Y103.953 E12.45539
G1 X113.188 Y104.182 E12.48258
