;FLAVOR:Marlin
;TIME:1768
;Filament used: 1.42171m
;Layer height: 0.2
;MINX:67.712
;MINY:67.707
;MINZ:0.2
;MAXX:167.289
;MAXY:167.293
;MAXZ:4
;TARGET_MACHINE.NAME:Creality Ender-3
;Generated with Cura_SteamEngine 5.6.0
M140 S50
M105
M190 S50
M104 S200
M105
M109 S200
M82 ;absolute extrusion mode
; Ender 3 Custom Start G-code
G92 E0 ; Reset Extruder
G28 ; Home all axes
G1 Z2.0 F3000 ; Move Z Axis up little to prevent scratching of Heat Bed
G1 X0.1 Y20 Z0.3 F5000.0 ; Move to start position
G1 X0.1 Y200.0 Z0.3 F1500.0 E15 ; Draw the first line
G1 X0.4 Y200.0 Z0.3 F5000.0 ; Move to side a little
G1 X0.4 Y20 Z0.3 F1500.0 E30 ; Draw the second line
G92 E0 ; Reset Extruder
G1 Z2.0 F3000 ; Move Z Axis up little to prevent scratching of Heat Bed
G1 X5 Y20 Z0.3 F5000.0 ; Move over to prevent blob squish
G92 E0
G92 E0
G1 F2700 E-5
;LAYER_COUNT:20
;LAYER:0
M107
G1 F300 Z0.4
;MESH:Body1.stl
G0 F6000 X116.808 Y164.893 Z0.4
;TYPE:WALL-INNER
G1 F300 Z0.2
G1 F2700 E0
G1 F1200 X119.628 Y164.851 E0.0938
G1 X122.465 Y164.637 E0.18843
G1 X125.286 Y164.256 E0.28311
G1 X128.057 Y163.71 E0.37705
G1 X130.806 Y162.996 E0.47151
G1 X133.493 Y162.123 E0.56548
G1 X136.15 Y161.08 E0.66042
G1 X138.723 Y159.887 E0.75475
G1 X141.206 Y158.551 E0.84853
G1 X143.616 Y157.064 E0.94271
G1 X145.948 Y155.42 E1.03761
G1 X148.165 Y153.65 E1.13197
G1 X150.259 Y151.766 E1.22566
G1 X152.263 Y149.732 E1.32063
G1 X154.115 Y147.612 E1.41425
G1 X155.862 Y145.352 E1.50926
G1 X157.449 Y143.024 E1.60297
G1 X158.916 Y140.574 E1.69795
G1 X160.211 Y138.075 E1.79156
G1 X161.373 Y135.465 E1.88659
G1 X162.415 Y132.688 E1.98524
G1 X162.408 Y132.679 E1.98562
G1 X163.204 Y130.099 E2.07542
G1 X163.877 Y127.346 E2.16968
G1 X164.378 Y124.573 E2.26341
G1 X164.72 Y121.738 E2.35838
G1 X164.889 Y118.908 E2.45268
G1 X164.889 Y116.092 E2.54634
G1 X164.718 Y113.242 E2.6413
G1 X164.378 Y110.427 E2.73561
G1 X163.873 Y107.634 E2.83001
G1 X163.204 Y104.901 E2.92359
G1 X162.408 Y102.321 E3.01339
G1 X162.415 Y102.312 E3.01377
G1 X161.373 Y99.535 E3.11242
G1 X160.211 Y96.925 E3.20745
G1 X158.916 Y94.426 E3.30106
G1 X157.449 Y91.976 E3.39604
G1 X155.862 Y89.648 E3.48975
G1 X154.115 Y87.388 E3.58476
G1 X152.263 Y85.268 E3.67839
G1 X150.259 Y83.234 E3.77336
G1 X148.165 Y81.35 E3.86704
G1 X145.949 Y79.58 E3.96137
G1 X143.615 Y77.936 E4.05633
G1 X141.201 Y76.446 E4.15068
G1 X138.723 Y75.113 E4.24427
G1 X136.15 Y73.92 E4.33859
G1 X133.491 Y72.877 E4.43359
G1 X130.806 Y72.004 E4.5275
G1 X128.057 Y71.29 E4.62196
G1 X125.286 Y70.744 E4.7159
G1 X122.465 Y70.363 E4.81058
G1 X119.628 Y70.149 E4.90521
G1 X116.808 Y70.107 E4.99901
G1 X113.959 Y70.235 E5.09386
G1 X111.16 Y70.53 E5.18748
G1 X108.351 Y70.996 E5.28218
G1 X105.578 Y71.628 E5.37678
G1 X102.875 Y72.417 E5.47043
G1 X100.204 Y73.375 E5.56481
G1 X97.597 Y74.489 E5.6591
G1 X95.043 Y75.766 E5.75407
G1 X92.595 Y77.179 E5.84809
G1 X90.221 Y78.747 E5.94271
G1 X87.967 Y80.436 E6.03639
G1 X85.789 Y82.284 E6.1314
G1 X83.753 Y84.228 E6.22503
G1 X81.811 Y86.322 E6.32001
G1 X80.009 Y88.514 E6.41439
G1 X78.354 Y90.792 E6.50804
G1 X76.818 Y93.198 E6.60298
G1 X75.446 Y95.659 E6.6967
G1 X74.207 Y98.231 E6.79165
G1 X73.133 Y100.855 E6.88595
G1 X72.222 Y103.521 E6.97966
G1 X71.461 Y106.274 E7.07466
G1 X70.876 Y109.028 E7.1683
G1 X70.45 Y111.852 E7.26329
G1 X70.198 Y114.656 E7.35693
G1 X70.113 Y117.509 E7.45186
G1 X70.198 Y120.344 E7.5462
G1 X70.45 Y123.148 E7.63983
G1 X70.876 Y125.972 E7.73482
G1 X71.461 Y128.726 E7.82846
G1 X72.222 Y131.477 E7.9234
G1 X73.133 Y134.145 E8.01717
G1 X74.207 Y136.769 E8.11147
G1 X75.446 Y139.341 E8.20642
G1 X76.818 Y141.802 E8.30014
G1 X78.354 Y144.208 E8.39508
G1 X80.009 Y146.486 E8.48873
G1 X81.811 Y148.678 E8.58311
G1 X83.747 Y150.766 E8.67782
G1 X85.789 Y152.716 E8.77173
G1 X87.967 Y154.564 E8.86673
G1 X90.221 Y156.253 E8.96041
G1 X92.595 Y157.821 E9.05504
G1 X95.043 Y159.234 E9.14905
G1 X97.593 Y160.509 E9.24387
G1 X100.204 Y161.625 E9.33831
G1 X102.873 Y162.583 E9.43263
G1 X105.577 Y163.372 E9.52632
G1 X108.351 Y164.004 E9.62094
G1 X111.16 Y164.47 E9.71565
G1 X113.96 Y164.765 E9.80929
G1 X116.808 Y164.893 E9.90411
G0 F6000 X116.802 Y165.293
G1 F1200 X119.646 Y165.251 E9.99872
G1 X122.506 Y165.035 E10.09411
G1 X125.351 Y164.651 E10.18959
G1 X128.146 Y164.1 E10.28434
G1 X130.919 Y163.38 E10.37963
G1 X133.628 Y162.5 E10.47437
G1 X136.307 Y161.448 E10.5701
G1 X138.902 Y160.245 E10.66523
G1 X141.406 Y158.898 E10.7598
G1 X143.837 Y157.398 E10.85481
G1 X146.188 Y155.74 E10.95049
G1 X148.424 Y153.956 E11.04563
G1 X150.536 Y152.055 E11.14014
G1 X152.556 Y150.005 E11.23586
G1 X154.424 Y147.866 E11.33032
G1 X156.186 Y145.587 E11.42613
G1 X157.786 Y143.24 E11.52061
G1 X159.265 Y140.768 E11.61642
G1 X160.571 Y138.248 E11.71082
G1 X161.743 Y135.617 E11.80662
G1 X162.798 Y132.807 E11.90645
G1 X162.79 Y132.797 E11.90687
G1 X163.59 Y130.205 E11.9971
G1 X164.268 Y127.429 E12.09214
G1 X164.774 Y124.633 E12.18665
G1 X165.118 Y121.774 E12.28242
G1 X165.289 Y118.92 E12.37752
G1 X165.289 Y116.08 E12.47198
G1 X165.116 Y113.206 E12.56774
G1 X164.774 Y110.367 E12.66285
G1 X164.265 Y107.551 E12.75803
G1 X163.59 Y104.795 E12.8524
G1 X162.79 Y102.203 E12.94262
G1 X162.798 Y102.193 E12.94305
G1 X161.743 Y99.383 E13.04288
G1 X160.571 Y96.752 E13.13868
G1 X159.265 Y94.231 E13.23311
G1 X157.786 Y91.76 E13.32889
G1 X156.186 Y89.413 E13.42337
G1 X154.424 Y87.134 E13.51918
G1 X152.556 Y84.995 E13.61363
G1 X150.536 Y82.945 E13.70936
G1 X148.424 Y81.044 E13.80387
G1 X146.189 Y79.26 E13.89898
G1 X143.835 Y77.602 E13.99475
G1 X141.401 Y76.1 E14.08988
G1 X138.902 Y74.755 E14.18427
G1 X136.307 Y73.552 E14.2794
G1 X133.626 Y72.5 E14.37519
G1 X130.918 Y71.62 E14.46989
G1 X128.146 Y70.9 E14.56515
G1 X125.351 Y70.349 E14.6599
G1 X122.506 Y69.965 E14.75538
G1 X119.646 Y69.749 E14.85078
G1 X116.802 Y69.707 E14.94538
G1 X113.929 Y69.836 E15.04103
G1 X111.106 Y70.134 E15.13545
G1 X108.273 Y70.603 E15.23096
G1 X105.477 Y71.241 E15.32634
G1 X102.752 Y72.037 E15.42077
G1 X100.058 Y73.002 E15.51594
G1 X97.429 Y74.126 E15.61104
G1 X94.853 Y75.414 E15.70683
G1 X92.385 Y76.839 E15.80162
G1 X89.991 Y78.42 E15.89704
G1 X87.718 Y80.123 E15.9915
G1 X85.521 Y81.986 E16.08731
G1 X83.468 Y83.948 E16.18176
G1 X81.509 Y86.058 E16.27753
G1 X79.693 Y88.269 E16.37269
G1 X78.023 Y90.566 E16.46714
G1 X76.474 Y92.993 E16.56291
G1 X75.091 Y95.474 E16.65738
G1 X73.841 Y98.068 E16.75315
G1 X72.758 Y100.715 E16.84827
G1 X71.84 Y103.403 E16.94275
G1 X71.073 Y106.179 E17.03854
G1 X70.482 Y108.957 E17.133
G1 X70.053 Y111.804 E17.22876
G1 X69.799 Y114.632 E17.3232
G1 X69.713 Y117.509 E17.41893
G1 X69.799 Y120.368 E17.51407
G1 X70.053 Y123.196 E17.60851
G1 X70.482 Y126.043 E17.70427
G1 X71.073 Y128.821 E17.79873
G1 X71.84 Y131.595 E17.89446
G1 X72.758 Y134.286 E17.98902
G1 X73.841 Y136.932 E18.08412
G1 X75.091 Y139.526 E18.17989
G1 X76.474 Y142.007 E18.27436
G1 X78.023 Y144.434 E18.37012
G1 X79.693 Y146.731 E18.46458
G1 X81.509 Y148.942 E18.55974
G1 X83.462 Y151.047 E18.65525
G1 X85.521 Y153.014 E18.74996
G1 X87.718 Y154.877 E18.84576
G1 X89.991 Y156.58 E18.94023
G1 X92.385 Y158.161 E19.03565
G1 X94.853 Y159.586 E19.13044
G1 X97.425 Y160.872 E19.22608
G1 X100.058 Y161.998 E19.32133
G1 X102.75 Y162.963 E19.41644
G1 X105.477 Y163.759 E19.51093
G1 X108.273 Y164.397 E19.60631
G1 X111.107 Y164.866 E19.70185
G1 X113.93 Y165.164 E19.79627
G1 X116.802 Y165.293 E19.89189
G0 F6000 X116.796 Y165.693
G1 F1200 X119.664 Y165.65 E19.98729
G1 X122.548 Y165.433 E20.08348
G1 X125.417 Y165.046 E20.17977
G1 X128.235 Y164.49 E20.2753
G1 X131.031 Y163.764 E20.37138
G1 X133.763 Y162.876 E20.46693
G1 X136.465 Y161.816 E20.56347
G1 X139.081 Y160.603 E20.65937
G1 X141.606 Y159.245 E20.75473
G1 X144.057 Y157.732 E20.85053
G1 X146.429 Y156.06 E20.94705
G1 X148.683 Y154.261 E21.04297
G1 X150.812 Y152.345 E21.13824
G1 X152.849 Y150.277 E21.23478
G1 X154.733 Y148.12 E21.33004
G1 X156.51 Y145.822 E21.42666
G1 X158.123 Y143.455 E21.52193
G1 X159.615 Y140.963 E21.61853
G1 X160.932 Y138.422 E21.71372
G1 X162.113 Y135.768 E21.81034
G1 X163.181 Y132.926 E21.91132
G1 X163.172 Y132.915 E21.91179
G1 X163.976 Y130.312 E22.0024
G1 X164.66 Y127.512 E22.09827
G1 X165.17 Y124.693 E22.19355
G1 X165.517 Y121.81 E22.29013
G1 X165.689 Y118.932 E22.38603
G1 X165.689 Y116.068 E22.48128
G1 X165.515 Y113.17 E22.57784
G1 X165.17 Y110.308 E22.67372
G1 X164.656 Y107.468 E22.76972
G1 X163.976 Y104.688 E22.86491
G1 X163.172 Y102.085 E22.95552
G1 X163.181 Y102.074 E22.95599
G1 X162.113 Y99.232 E23.05697
G1 X160.932 Y96.578 E23.15359
G1 X159.615 Y94.037 E23.24878
G1 X158.123 Y91.545 E23.34538
G1 X156.51 Y89.178 E23.44065
G1 X154.733 Y86.88 E23.53727
G1 X152.849 Y84.723 E23.63252
G1 X150.812 Y82.655 E23.72907
G1 X148.683 Y80.739 E23.82433
G1 X146.429 Y78.94 E23.92025
G1 X144.056 Y77.268 E24.0168
G1 X141.601 Y75.753 E24.11275
G1 X139.081 Y74.397 E24.20793
G1 X136.465 Y73.184 E24.30384
G1 X133.761 Y72.124 E24.40044
G1 X131.031 Y71.236 E24.49592
G1 X128.235 Y70.51 E24.592
G1 X125.417 Y69.954 E24.68753
G1 X122.548 Y69.567 E24.78382
G1 X119.664 Y69.35 E24.88002
G1 X116.796 Y69.307 E24.97542
G1 X113.899 Y69.437 E25.07187
G1 X111.052 Y69.737 E25.16708
G1 X108.196 Y70.21 E25.26337
G1 X105.376 Y70.853 E25.35957
G1 X102.628 Y71.656 E25.45479
G1 X99.911 Y72.63 E25.55079
G1 X97.26 Y73.763 E25.64668
G1 X94.664 Y75.061 E25.74321
G1 X92.174 Y76.498 E25.83883
G1 X89.76 Y78.093 E25.93506
G1 X87.468 Y79.81 E26.03032
G1 X85.253 Y81.689 E26.12692
G1 X83.183 Y83.667 E26.22215
G1 X81.208 Y85.795 E26.31871
G1 X79.376 Y88.024 E26.41468
G1 X77.693 Y90.341 E26.50993
G1 X76.131 Y92.788 E26.60648
G1 X74.736 Y95.29 E26.70176
G1 X73.476 Y97.906 E26.79833
G1 X72.384 Y100.574 E26.89422
G1 X71.457 Y103.285 E26.98951
G1 X70.684 Y106.084 E27.08609
G1 X70.088 Y108.885 E27.18134
G1 X69.655 Y111.756 E27.27791
G1 X69.399 Y114.608 E27.37315
G1 X69.312 Y117.509 E27.46968
G1 X69.399 Y120.392 E27.56561
G1 X69.655 Y123.244 E27.66085
G1 X70.088 Y126.115 E27.75742
G1 X70.684 Y128.916 E27.85267
G1 X71.457 Y131.713 E27.94918
G1 X72.384 Y134.426 E28.04454
G1 X73.476 Y137.094 E28.14042
G1 X74.736 Y139.71 E28.237
G1 X76.131 Y142.212 E28.33228
G1 X77.693 Y144.659 E28.42883
G1 X79.376 Y146.976 E28.52408
G1 X81.208 Y149.205 E28.62004
G1 X83.177 Y151.327 E28.71633
G1 X85.253 Y153.311 E28.81183
G1 X87.468 Y155.19 E28.90844
G1 X89.76 Y156.907 E29.00369
G1 X92.174 Y158.502 E29.09993
G1 X94.664 Y159.939 E29.19555
G1 X97.257 Y161.235 E29.29196
G1 X99.912 Y162.37 E29.388
G1 X102.626 Y163.344 E29.4839
G1 X105.376 Y164.146 E29.57918
G1 X108.196 Y164.79 E29.67539
G1 X111.053 Y165.263 E29.7717
G1 X113.9 Y165.563 E29.86692
G1 X116.796 Y165.693 E29.96334
G0 F6000 X116.79 Y166.093
G1 F1200 X119.682 Y166.05 E30.05954
G1 X122.59 Y165.831 E30.15653
G1 X125.482 Y165.441 E30.25359
G1 X128.324 Y164.88 E30.34994
G1 X131.143 Y164.148 E30.44681
G1 X133.898 Y163.253 E30.54316
G1 X136.622 Y162.184 E30.64048
G1 X139.26 Y160.961 E30.73719
G1 X141.806 Y159.591 E30.83336
G1 X144.278 Y158.066 E30.92996
G1 X146.669 Y156.38 E31.02727
G1 X148.942 Y154.566 E31.12399
G1 X151.089 Y152.634 E31.22006
G1 X153.143 Y150.549 E31.3174
G1 X155.042 Y148.374 E31.41344
G1 X156.833 Y146.057 E31.51084
G1 X158.46 Y143.671 E31.60689
G1 X159.964 Y141.158 E31.7043
G1 X161.292 Y138.595 E31.80031
G1 X162.484 Y135.92 E31.89772
G1 X163.563 Y133.044 E31.99988
G1 X163.555 Y133.033 E32.00033
G1 X164.361 Y130.419 E32.09132
G1 X165.051 Y127.595 E32.18801
G1 X165.565 Y124.752 E32.2841
G1 X165.915 Y121.846 E32.38145
G1 X166.089 Y118.944 E32.47814
G1 X166.089 Y116.056 E32.5742
G1 X165.914 Y113.134 E32.67156
G1 X165.566 Y110.248 E32.76824
G1 X165.047 Y107.385 E32.86502
G1 X164.362 Y104.582 E32.96099
G1 X163.555 Y101.967 E33.05201
G1 X163.563 Y101.956 E33.05247
G1 X162.484 Y99.08 E33.15463
G1 X161.292 Y96.405 E33.25204
G1 X159.964 Y93.842 E33.34805
G1 X158.46 Y91.329 E33.44545
G1 X156.833 Y88.943 E33.54151
G1 X155.042 Y86.626 E33.63891
G1 X153.143 Y84.451 E33.73494
G1 X151.089 Y82.366 E33.83229
G1 X148.942 Y80.434 E33.92835
G1 X146.669 Y78.62 E34.02508
G1 X144.276 Y76.934 E34.12244
G1 X141.801 Y75.407 E34.21917
G1 X139.26 Y74.039 E34.31515
G1 X136.622 Y72.816 E34.41186
G1 X133.896 Y71.747 E34.50925
G1 X131.143 Y70.852 E34.60553
G1 X128.324 Y70.12 E34.7024
G1 X125.482 Y69.559 E34.79875
G1 X122.59 Y69.169 E34.89581
G1 X119.682 Y68.95 E34.99281
G1 X116.79 Y68.907 E35.089
G1 X113.869 Y69.038 E35.18625
G1 X110.998 Y69.34 E35.28227
G1 X108.119 Y69.818 E35.37934
G1 X105.276 Y70.466 E35.47632
G1 X102.504 Y71.276 E35.57237
G1 X99.765 Y72.257 E35.66914
G1 X97.092 Y73.399 E35.76582
G1 X94.474 Y74.709 E35.86319
G1 X91.964 Y76.158 E35.95958
G1 X89.53 Y77.766 E36.05661
G1 X87.219 Y79.498 E36.15266
G1 X84.986 Y81.391 E36.25003
G1 X82.898 Y83.386 E36.34608
G1 X80.906 Y85.532 E36.44347
G1 X79.06 Y87.779 E36.54019
G1 X77.362 Y90.115 E36.63624
G1 X75.787 Y92.583 E36.73362
G1 X74.381 Y95.106 E36.82968
G1 X73.11 Y97.743 E36.92705
G1 X72.009 Y100.433 E37.02372
G1 X71.075 Y103.167 E37.11981
G1 X70.295 Y105.989 E37.21719
G1 X69.695 Y108.814 E37.31325
G1 X69.258 Y111.709 E37.41063
G1 X69 Y114.584 E37.50664
G1 X68.912 Y117.509 E37.60397
G1 X69 Y120.416 E37.7007
G1 X69.258 Y123.291 E37.7967
G1 X69.695 Y126.186 E37.89408
G1 X70.295 Y129.011 E37.99014
G1 X71.075 Y131.831 E38.08745
G1 X72.009 Y134.567 E38.18361
G1 X73.11 Y137.257 E38.28028
G1 X74.381 Y139.894 E38.37765
G1 X75.787 Y142.417 E38.47371
G1 X77.362 Y144.885 E38.57109
G1 X79.06 Y147.221 E38.66714
G1 X80.906 Y149.468 E38.76386
G1 X82.892 Y151.608 E38.86097
G1 X84.986 Y153.609 E38.9573
G1 X87.219 Y155.502 E39.05467
G1 X89.53 Y157.234 E39.15072
G1 X91.964 Y158.842 E39.24775
G1 X94.474 Y160.291 E39.34415
G1 X97.088 Y161.599 E39.44136
G1 X99.765 Y162.743 E39.53819
G1 X102.502 Y163.724 E39.6349
G1 X105.276 Y164.534 E39.73101
G1 X108.119 Y165.182 E39.828
G1 X110.999 Y165.66 E39.92509
G1 X113.87 Y165.962 E40.02111
G1 X116.79 Y166.093 E40.11833
G0 F6000 X116.784 Y166.493
G1 F1200 X119.7 Y166.45 E40.21533
G1 X122.632 Y166.229 E40.31312
G1 X125.548 Y165.836 E40.41098
G1 X128.413 Y165.27 E40.50812
G1 X131.255 Y164.532 E40.60578
G1 X134.033 Y163.63 E40.70292
G1 X136.779 Y162.552 E40.80104
G1 X139.439 Y161.319 E40.89855
G1 X142.006 Y159.938 E40.9955
G1 X144.498 Y158.4 E41.0929
G1 X146.909 Y156.7 E41.19102
G1 X149.201 Y154.871 E41.28855
G1 X151.365 Y152.923 E41.38539
G1 X153.436 Y150.821 E41.48354
G1 X155.352 Y148.628 E41.5804
G1 X157.157 Y146.293 E41.67856
G1 X158.798 Y143.887 E41.77542
G1 X160.314 Y141.353 E41.87363
G1 X161.653 Y138.769 E41.97043
G1 X162.854 Y136.072 E42.06863
G1 X163.946 Y133.163 E42.17197
G1 X163.937 Y133.151 E42.17247
G1 X164.747 Y130.525 E42.26387
G1 X165.443 Y127.679 E42.36132
G1 X165.961 Y124.812 E42.45822
G1 X166.314 Y121.882 E42.55638
G1 X166.489 Y118.956 E42.65387
G1 X166.489 Y116.044 E42.75073
G1 X166.312 Y113.098 E42.84889
G1 X165.961 Y110.188 E42.94638
G1 X165.439 Y107.302 E43.04392
G1 X164.747 Y104.475 E43.14072
G1 X163.937 Y101.849 E43.23213
G1 X163.946 Y101.837 E43.23262
G1 X162.854 Y98.928 E43.33597
G1 X161.653 Y96.231 E43.43417
G1 X160.314 Y93.647 E43.53096
G1 X158.798 Y91.113 E43.62918
G1 X157.157 Y88.707 E43.72604
G1 X155.352 Y86.372 E43.8242
G1 X153.436 Y84.179 E43.92106
G1 X151.365 Y82.077 E44.0192
G1 X149.201 Y80.129 E44.11604
G1 X146.909 Y78.3 E44.21357
G1 X144.496 Y76.6 E44.31175
G1 X142.001 Y75.06 E44.40927
G1 X139.439 Y73.681 E44.50604
G1 X136.779 Y72.448 E44.60355
G1 X134.031 Y71.37 E44.70173
G1 X131.255 Y70.468 E44.79882
G1 X128.413 Y69.73 E44.89648
G1 X125.548 Y69.164 E44.99361
G1 X122.632 Y68.771 E45.09147
G1 X119.7 Y68.55 E45.18927
G1 X116.784 Y68.507 E45.28626
G1 X113.839 Y68.639 E45.38431
G1 X110.945 Y68.944 E45.4811
G1 X108.042 Y69.425 E45.57897
G1 X105.175 Y70.079 E45.67678
G1 X102.381 Y70.895 E45.77359
G1 X99.619 Y71.885 E45.87118
G1 X96.924 Y73.036 E45.96865
G1 X94.285 Y74.357 E46.0668
G1 X91.754 Y75.818 E46.164
G1 X89.299 Y77.439 E46.26185
G1 X86.969 Y79.185 E46.35869
G1 X84.718 Y81.094 E46.45686
G1 X82.613 Y83.105 E46.55368
G1 X80.605 Y85.269 E46.65187
G1 X78.743 Y87.534 E46.74939
G1 X77.031 Y89.89 E46.84626
G1 X75.443 Y92.377 E46.9444
G1 X74.025 Y94.921 E47.04127
G1 X72.745 Y97.58 E47.13942
