;FLAVOR:Marlin
;TIME:250
;Filament used: 0.223853m
;Layer height: 0.2
;MINX:82.384
;MINY:36.445
;MINZ:0.2
;MAXX:137.62
;MAXY:183.595
;MAXZ:0.4
;TARGET_MACHINE.NAME:Creality Ender-3 S1
;POSTPROCESSED
;  [SearchAndReplace]
;Generated with Cura_SteamEngine 5.6.0
M82 ;absolute extrusion mode
; Ender 3 S1 Start G-code
; M413 S0 ; Disable power loss recovery
G92 E0 ; Reset Extruder

; Prep surfaces before auto home for better accuracy
M140 S60
M104 S200

G28 ; Home all axes
G1 Z10.0 F3000 ; Move Z Axis up little to prevent scratching of Heat Bed
G1 X0 Y0

M190 S60
M109 S200

G1 X0.1 Y20 Z0.3 F5000.0 ; Move to start position
G1 X0.1 Y200.0 Z0.3 F1500.0 E15 ; Draw the first line
G1 X0.4 Y200.0 Z0.3 F5000.0 ; Move to side a little
G1 X0.4 Y20 Z0.3 F1500.0 E30 ; Draw the second line
G92 E0 ; Reset Extruder
G1 Z2.0 F3000 ; Move Z Axis up little to prevent scratching of Heat Bed
G1 X5 Y20 Z0.3 F5000.0 ; Move over to prevent blob squish

G92 E0
G92 E0
G1 F2400 E-0.8
;LAYER_COUNT:1
;LAYER:0
M107
M204 S2000
G1 F300 Z0.4
;MESH:ARSL am Test v5.stl
G0 F7500 X85.765 Y54.279 Z0.4
M204 S500
;TYPE:WALL-INNER
G1 F300 Z0.2
G1 F2400 E0
G1 F1262.3 X85.566 Y53.625 E0.04053
G1 F1273 X85.552 Y53.31 E0.05906
G1 F1280.2 X85.558 Y52.806 E0.08853
G1 F1274.8 X85.718 Y52.198 E0.12544
G1 X84.854 Y52.533 E0.17983
G1 F1269.4 X84.856 Y53.913 E0.26119
G1 F1262.3 X85.765 Y54.279 E0.31929
M204 S2000
G1 F2400 E-0.48071
G1 F300 Z0.4
G0 F7500 X102.135 Y61.389 Z0.4
M204 S500
G1 F300 Z0.2
G1 F2400 E0.31929
G1 F1325.5 X102.135 Y60.654 E0.36078
G1 F1351.4 X98.416 Y59.212 E0.58167
G1 F1559.8 X97.826 Y58.721 E0.6185
G1 F1800 X97.453 Y58.121 E0.64787
G1 X97.378 Y57.856 E0.65932
G1 X97.346 Y57.515 E0.67356
G1 F1744.2 X97.33 Y56.819 E0.70343
G1 F1530.6 X97.274 Y56.438 E0.72226
G1 X97.12 Y56.779 E0.74056
G1 F1744.2 X96.778 Y57.297 E0.76719
G1 F1800 X96.526 Y57.528 E0.7814
G1 X96.292 Y57.674 E0.79287
G1 X95.626 Y57.869 E0.82172
G1 F1576.2 X95.103 Y57.907 E0.84662
G1 F1421.8 X94.846 Y57.824 E0.86083
G1 F1463.4 X93.327 Y57.249 E0.94389
G1 F1512.6 X91.807 Y56.673 E1.02431
G1 F1565.2 X90.287 Y56.098 E1.10201
G1 F1621.6 X88.767 Y55.522 E1.17702
G1 F1682.2 X87.247 Y54.947 E1.24931
G1 F1757.8 X86.709 Y54.593 E1.27673
G1 F1800 X86.33 Y54.082 E1.30318
G1 X86.149 Y53.485 E1.32912
G1 X86.159 Y52.861 E1.35506
G1 X86.306 Y52.301 E1.37914
G1 F1807.2 X86.692 Y51.758 E1.40672
G1 F1859.5 X87.001 Y51.535 E1.42206
G1 F1935.5 X87.273 Y51.41 E1.43363
G1 F1919 X89.172 Y50.707 E1.5126
G1 F1833 X91.072 Y50.003 E1.59533
G1 F1754.4 X92.972 Y49.299 E1.68176
G1 F1682.2 X94.872 Y48.596 E1.77188
G1 F1720.8 X95.667 Y48.522 E1.8066
G1 F1800 X96.349 Y48.744 E1.83642
G1 X96.572 Y48.897 E1.84766
G1 X96.811 Y49.128 E1.86148
G1 X97.114 Y49.639 E1.88618
G1 F1610 X97.287 Y50.263 E1.91628
G1 X97.346 Y49.597 E1.94736
G1 F1800 X97.346 Y48.931 E1.97505
G1 X97.377 Y48.6 E1.98887
G1 X97.448 Y48.339 E2.00011
G1 X97.83 Y47.721 E2.03032
G1 F1636.4 X98.163 Y47.391 E2.05176
G1 F1520.3 X98.445 Y47.261 E2.06704
G1 F1490.1 X102.162 Y45.887 E2.26607
G1 F1440 X102.162 Y45.211 E2.3012
G1 F1490.1 X98.234 Y46.718 E2.5125
G1 F1520.3 X97.899 Y46.854 E2.53029
G1 F1636.4 X97.356 Y47.014 E2.55618
G1 F1800 X95.56 Y47.714 E2.63632
G1 F1720.8 X94.679 Y48.084 E2.67788
G1 F1682.2 X92.786 Y48.809 E2.76805
G1 F1754.4 X90.893 Y49.534 E2.85452
G1 F1833 X89 Y50.259 E2.93728
G1 F1919 X87.107 Y50.984 E3.01633
G1 F1886.8 X86.39 Y51.284 E3.04716
G1 F1807.2 X84.251 Y52.121 E3.14227
G1 F1800 X84.25 Y54.323 E3.23382
G1 X86.347 Y55.164 E3.32775
G1 F1757.8 X87.1 Y55.451 E3.36206
G1 F1682.2 X88.663 Y56.064 E3.43675
G1 F1610 X90.227 Y56.678 E3.51484
G1 F1543.7 X91.791 Y57.291 E3.59628
G1 F1485.1 X93.355 Y57.905 E3.68094
G1 F1428.6 X94.919 Y58.518 E3.76894
G1 F1576.2 X95.483 Y58.823 E3.79938
G1 F1800 X97.272 Y59.538 E3.87948
G1 F1562.5 X98.203 Y59.828 E3.92618
G1 F1351.4 X102.135 Y61.389 E4.16046
M204 S2000
G0 F7500 X102.724 Y62.259
M204 S500
G1 F1800 X102.724 Y60.249 E4.24403
G1 X98.631 Y58.676 E4.42633
G1 X98.189 Y58.377 E4.44851
G1 X97.923 Y57.948 E4.4695
G1 X97.846 Y57.515 E4.48778
G1 X97.846 Y48.931 E4.84467
G1 X97.919 Y48.508 E4.86251
G1 X98.191 Y48.067 E4.88405
G1 X98.505 Y47.816 E4.90077
G1 X102.724 Y46.28 E5.08744
G1 X102.724 Y44.388 E5.1661
G1 X83.751 Y51.779 E6.01264
G1 X83.75 Y54.662 E6.1325
G1 X102.724 Y62.259 E6.98223
M204 S2000
G0 F7500 X103.224 Y62.998
M204 S500
G1 F1800 X103.224 Y59.906 E7.11078
G1 X98.817 Y58.212 E7.30707
G1 X98.552 Y58.032 E7.32039
G1 X98.392 Y57.775 E7.33298
G1 X98.346 Y57.515 E7.34395
G1 X98.346 Y48.931 E7.70084
G1 X98.389 Y48.677 E7.71155
G1 X98.553 Y48.412 E7.7245
G1 X98.741 Y48.262 E7.7345
G1 X103.224 Y46.63 E7.93285
G1 X103.224 Y43.657 E8.05645
G1 X83.251 Y51.437 E8.94761
G1 X83.25 Y55 E9.09574
G1 X103.224 Y62.998 E9.99026
M204 S2000
G1 F2400 E9.19026
G1 F300 Z0.4
G0 F7500 X97.379 Y59.001 Z0.4
M204 S500
G1 F300 Z0.2
G1 F2400 E9.99026
G1 F1557.1 X96.948 Y58.308 E10.02948
G1 X96.849 Y57.961 E10.04682
G1 X96.543 Y58.152 E10.06416
G1 X95.798 Y58.369 E10.10145
G1 X97.379 Y59.001 E10.18329
M204 S2000
G1 F2400 E9.38329
G1 F300 Z0.4
G0 F7500 X95.584 Y57.371 Z0.4
M204 S500
G1 F300 Z0.2
G1 F2400 E10.18329
G1 F1800 X95.171 Y57.345 E10.20049
G1 X87.437 Y54.471 E10.54352
G1 X87.05 Y54.226 E10.56256
G1 X86.779 Y53.861 E10.58146
G1 X86.65 Y53.435 E10.59996
G1 X86.657 Y52.906 E10.62196
G1 X86.762 Y52.507 E10.63911
G1 X87.037 Y52.118 E10.65892
G1 X87.313 Y51.905 E10.67341
G1 X95.05 Y49.088 E11.01574
G1 X95.613 Y49.019 E11.03932
G1 X96.101 Y49.178 E11.06066
G1 X96.43 Y49.452 E11.07846
G1 X96.647 Y49.817 E11.09611
G1 X96.728 Y50.263 E11.11496
G1 X96.728 Y56.281 E11.36516
G1 X96.64 Y56.588 E11.37844
G1 X96.407 Y56.962 E11.39676
G1 X96.06 Y57.231 E11.41501
G1 X95.584 Y57.371 E11.43564
M204 S2000
G0 F7500 X95.827 Y56.789
M204 S500
G1 F1800 X95.542 Y56.872 E11.44798
G1 X95.295 Y56.857 E11.45827
G1 X87.623 Y54.007 E11.79853
G1 X87.391 Y53.86 E11.80995
G1 X87.228 Y53.641 E11.8213
G1 X87.158 Y53.411 E11.83129
G1 X87.155 Y52.952 E11.85038
G1 X87.218 Y52.712 E11.86069
G1 X87.383 Y52.479 E11.87256
G1 X87.549 Y52.351 E11.88128
G1 X95.221 Y49.558 E12.22072
G1 X95.559 Y49.517 E12.23488
G1 X95.852 Y49.612 E12.24768
G1 X96.05 Y49.776 E12.25837
G1 X96.18 Y49.995 E12.26896
G1 X96.228 Y50.263 E12.28028
G1 X96.228 Y56.219 E12.5279
G1 X96.176 Y56.402 E12.53581
G1 X96.036 Y56.627 E12.54683
G1 X95.827 Y56.789 E12.55782
M204 S2000
G0 F7500 X97.274 Y56.438
M204 S500
G1 F1426.3 X97.287 Y56.124 E12.57431
G1 F1456.3 X97.287 Y50.263 E12.87549
M204 S2000
G1 F2400 E12.07549
G1 F300 Z0.4
G0 F7500 X96.881 Y48.496 Z0.4
M204 S500
G1 F300 Z0.2
G1 F2400 E12.87549
G1 F1751 X96.97 Y48.167 E12.89006
G1 X97.345 Y47.562 E12.92048
G1 X95.97 Y48.098 E12.98355
G1 X96.602 Y48.304 E13.01196
G1 X96.881 Y48.496 E13.02644
M204 S2000
G1 F2400 E12.22644
G1 F300 Z0.4
G0 F7500 X95.595 Y56.346 Z0.4
M204 S500
;TYPE:WALL-OUTER
G1 F300 Z0.2
G1 F2400 E13.02644
G1 F1800 X95.426 Y56.369 E13.03353
G1 X87.744 Y53.519 E13.37418
G1 X87.654 Y53.344 E13.38236
G1 X87.653 Y52.942 E13.39907
G1 X87.772 Y52.807 E13.40655
G1 X95.392 Y50.028 E13.74377
G1 X95.603 Y50.046 E13.75257
G1 X95.728 Y50.192 E13.76056
G1 X95.725 Y56.168 E14.00902
G1 X95.595 Y56.346 E14.01818
M204 S2000
G1 F2400 E13.21818
G1 F300 Z0.4
G0 F7500 X103.724 Y63.736 Z0.4
M204 S500
G1 F300 Z0.2
G1 F2400 E14.01818
G1 F1800 X103.724 Y59.562 E14.19171
G1 X98.931 Y57.72 E14.40519
G1 X98.85 Y57.564 E14.4125
G1 X98.846 Y48.868 E14.77404
G1 X98.966 Y48.717 E14.78206
G1 X103.724 Y46.98 E14.99264
G1 X103.724 Y42.925 E15.16123
G1 X82.751 Y51.095 E16.09701
G1 X82.75 Y55.338 E16.27341
G1 X103.724 Y63.736 E17.21271
M204 S2000
G1 F2400 E16.41271
G1 F300 Z0.4
G0 F7500 X94.149 Y68.674 Z0.4
M204 S500
;TYPE:WALL-INNER
G1 F300 Z0.2
G1 F2400 E17.21271
G1 F1778.7 X92.44 Y68.673 E17.28462
G1 X93.124 Y69.111 E17.31879
G1 X93.296 Y69.337 E17.33074
G1 X93.468 Y69.111 E17.34269
G1 X94.149 Y68.674 E17.37673
M204 S2000
G1 F2400 E16.57673
G1 F300 Z0.4
G0 F7500 X93.296 Y70.755 Z0.4
M204 S500
G1 F300 Z0.2
G1 F2400 E17.37673
G1 F1943.8 X93.465 Y69.931 E17.40912
G1 F1800 X93.812 Y69.479 E17.43281
G1 F1789.3 X94.342 Y69.134 E17.45926
G1 F1512.6 X94.691 Y68.941 E17.47899
G1 F1331.4 X95.009 Y68.923 E17.49689
G1 F1347.3 X102.14 Y68.923 E17.89298
G1 X102.14 Y68.255 E17.93008
G1 X95.009 Y68.255 E18.32617
G1 F1331.4 X94.632 Y68.263 E18.34737
G1 F1512.6 X94.153 Y68.174 E18.37147
G1 F1789.3 X92.44 Y68.171 E18.44311
G1 F1541.1 X91.583 Y68.255 E18.48493
G1 F1347.3 X86.132 Y68.255 E18.7877
G1 F1331.4 X85.755 Y68.263 E18.8089
G1 F1417.3 X85.494 Y68.214 E18.82292
G1 F1657.5 X84.856 Y68.172 E18.85179
G1 F1800 X84.251 Y68.172 E18.87694
G1 X84.25 Y69.766 E18.94321
G1 F1590.1 X84.316 Y70.756 E18.98991
G1 X84.624 Y69.868 E19.03414
G1 F1800 X85.183 Y69.285 E19.06772
G1 F1648.4 X85.784 Y68.943 E19.09912
G1 F1428.6 X86.132 Y68.923 E19.11738
G1 F1347.3 X91.583 Y68.923 E19.42015
G1 F1541.1 X92.249 Y69.138 E19.45413
G1 F1800 X92.78 Y69.479 E19.48037
G1 X93.127 Y69.931 E19.50406
G1 F1943.8 X93.296 Y70.755 E19.53644
M204 S2000
G1 F2400 E18.73644
G1 F300 Z0.4
G0 F7500 X102.724 Y83.472 Z0.4
M204 S500
G1 F300 Z0.2
G1 F2400 E19.53644
G1 F1800 X102.724 Y81.209 E19.63053
G1 X97.836 Y77.936 E19.8751
G1 X96.944 Y77.32 E19.92017
G1 X96.194 Y76.758 E19.95913
G1 X95.304 Y76.053 E20.00634
G1 X94.965 Y75.699 E20.02671
G1 X94.645 Y75.309 E20.04769
G1 X94.369 Y74.888 E20.06862
G1 X94.116 Y74.344 E20.09356
G1 X94.031 Y74.092 E20.10462
G1 X93.912 Y73.563 E20.12716
G1 X93.848 Y73.217 E20.14179
G1 X93.797 Y72.796 E20.15942
G1 X93.765 Y72.199 E20.18428
G1 X93.759 Y70.755 E20.24431
G1 X93.906 Y70.167 E20.26951
G1 X94.154 Y69.844 E20.28644
G1 X94.534 Y69.601 E20.30519
G1 X94.854 Y69.507 E20.31906
G1 X102.724 Y69.507 E20.64626
G1 X102.724 Y67.671 E20.72259
G1 X83.751 Y67.672 E21.51139
G1 X83.754 Y75.782 E21.84857
G1 X83.763 Y76.784 E21.89023
G1 X83.787 Y77.388 E21.91536
G1 X83.833 Y77.947 E21.93868
G1 X83.911 Y78.525 E21.96293
G1 F1803.6 X84.007 Y79.051 E21.98511
G1 X84.263 Y80.124 E22.03088
G1 F1800 X84.537 Y80.68 E22.05665
G1 X84.705 Y80.959 E22.07019
G1 X84.861 Y81.172 E22.08117
G1 X85.05 Y81.376 E22.09273
G1 X85.274 Y81.575 E22.10519
G1 X85.802 Y81.982 E22.1329
G1 X86.452 Y82.31 E22.16317
G1 X86.782 Y82.45 E22.17808
G1 X87.101 Y82.554 E22.19203
G1 X87.412 Y82.624 E22.20528
G1 X87.775 Y82.675 E22.22052
G1 X88.521 Y82.731 E22.25162
G1 X89.034 Y82.692 E22.27301
G1 X89.445 Y82.649 E22.29019
G1 X89.984 Y82.557 E22.31293
G1 X90.492 Y82.379 E22.33531
G1 X90.972 Y82.106 E22.35826
G1 X91.362 Y81.847 E22.37773
G1 X91.66 Y81.634 E22.39296
G1 X91.942 Y81.298 E22.41119
G1 X92.259 Y80.89 E22.43267
G1 X92.535 Y80.483 E22.45312
G1 X92.742 Y80.094 E22.47144
G1 X92.895 Y79.695 E22.48921
G1 X93.055 Y79.134 E22.51346
G1 F1612.9 X93.122 Y78.527 E22.54179
G1 F1458.7 X93.204 Y78.219 E22.55815
G1 F1612.9 X93.691 Y77.681 E22.59182
G1 F1800 X94.04 Y77.493 E22.6083
G1 X94.592 Y77.388 E22.63166
G1 X94.839 Y77.398 E22.64194
G1 X95.48 Y77.659 E22.67071
G1 X95.668 Y77.831 E22.6813
G1 X95.985 Y78.333 E22.70599
G1 X96.3 Y78.772 E22.72845
G1 X96.717 Y79.263 E22.75523
G1 X97.151 Y79.718 E22.78138
G1 X97.91 Y80.33 E22.82191
G1 X98.308 Y80.635 E22.84276
G1 X98.711 Y80.924 E22.86338
G1 X99.563 Y81.492 E22.90595
G1 X102.724 Y83.472 E23.06102
M204 S2000
G0 F7500 X103.224 Y84.374
M204 S500
G1 F1800 X103.224 Y80.942 E23.20371
G1 X98.066 Y77.487 E23.46181
G1 X97.243 Y76.92 E23.50336
G1 X96.505 Y76.366 E23.54173
G1 X95.68 Y75.713 E23.58547
G1 X95.326 Y75.353 E23.60646
G1 X95.034 Y74.995 E23.62567
G1 X94.786 Y74.599 E23.6451
G1 X94.537 Y74.064 E23.66963
G1 X94.4 Y73.453 E23.69566
G1 X94.335 Y73.091 E23.71096
G1 X94.296 Y72.767 E23.72452
G1 X94.266 Y72.237 E23.74659
G1 X94.259 Y70.756 E23.80817
G1 X94.347 Y70.403 E23.82329
G1 X94.496 Y70.209 E23.83346
G1 X94.723 Y70.062 E23.84471
G1 X94.914 Y70.007 E23.85297
G1 X103.224 Y70.007 E24.19846
G1 X103.224 Y67.171 E24.31637
G1 X83.251 Y67.172 E25.14675
G1 X83.25 Y75.549 E25.49502
G1 X83.263 Y76.804 E25.5472
G1 X83.289 Y77.426 E25.57308
G1 X83.333 Y77.984 E25.59635
G1 X83.414 Y78.588 E25.62169
G1 X83.537 Y79.235 E25.64907
G1 X83.789 Y80.295 E25.69437
G1 X84.098 Y80.92 E25.72336
G1 X84.288 Y81.236 E25.73869
G1 X84.474 Y81.491 E25.75181
G1 X84.7 Y81.734 E25.7656
G1 X84.955 Y81.96 E25.77977
G1 X85.534 Y82.407 E25.81018
G1 X86.242 Y82.764 E25.84315
G1 X86.607 Y82.919 E25.85963
G1 X86.969 Y83.037 E25.87546
G1 X87.323 Y83.116 E25.89054
G1 X87.721 Y83.172 E25.90725
G1 X88.52 Y83.232 E25.94057
G1 X89.084 Y83.189 E25.96408
G1 X89.512 Y83.145 E25.98197
G1 X89.986 Y83.064 E26.00196
G1 X90.413 Y82.943 E26.02041
G1 X90.801 Y82.777 E26.03796
G1 X91.219 Y82.542 E26.0579
G1 X91.645 Y82.259 E26.07916
G1 X92.002 Y82.005 E26.09737
G1 X92.323 Y81.624 E26.11809
G1 X92.661 Y81.188 E26.14102
G1 X92.825 Y80.957 E26.1528
G1 X93.039 Y80.623 E26.16929
G1 X93.198 Y80.3 E26.18426
G1 X93.343 Y79.947 E26.20013
G1 X93.527 Y79.305 E26.22789
G1 X93.711 Y78.439 E26.2647
G1 X93.984 Y78.086 E26.28325
G1 X94.191 Y77.975 E26.29302
G1 X94.56 Y77.903 E26.30865
G1 X94.784 Y77.895 E26.31797
G1 X95.168 Y78.052 E26.33522
G1 X95.282 Y78.155 E26.3416
G1 X95.57 Y78.613 E26.3641
G1 X95.903 Y79.076 E26.38781
G1 X96.124 Y79.347 E26.40235
G1 X96.355 Y79.607 E26.4168
G1 X96.811 Y80.086 E26.4443
G1 X97.606 Y80.727 E26.48676
G1 X98.015 Y81.04 E26.50817
G1 X98.433 Y81.34 E26.52956
G1 X99.298 Y81.916 E26.57277
G1 X103.224 Y84.374 E26.76534
M204 S2000
G1 F2400 E25.96534
G1 F300 Z0.4
G0 F7500 X101.756 Y81.725 Z0.4
M204 S500
G1 F300 Z0.2
G1 F2400 E26.76534
G1 F1931.3 X100.093 Y80.647 E26.84213
G1 F1814.5 X99.265 Y80.094 E26.8832
G1 F1882.8 X98.594 Y79.621 E26.91583
M204 S2000
G1 F2400 E26.11583
G1 F300 Z0.4
G0 F7500 X102.224 Y82.569 Z0.4
M204 S500
G1 F300 Z0.2
G1 F2400 E26.91583
G1 F1800 X102.224 Y81.476 E26.96127
G1 X98.861 Y79.223 E27.12956
G1 F1490.1 X98.389 Y79.033 E27.15512
G1 F1291.2 X96.589 Y77.796 E27.2817
G1 F1323.5 X96.041 Y77.378 E27.32067
G1 F1327.4 X96.261 Y77.664 E27.34101
G1 F1315.8 X96.48 Y78.005 E27.36406
G1 F1312 X96.775 Y78.416 E27.39292
G1 X97.147 Y78.854 E27.4257
G1 X97.553 Y79.28 E27.45926
G1 F1291.2 X97.97 Y79.602 E27.4898
G1 F1490.1 X98.303 Y80.002 E27.51594
G1 F1800 X98.989 Y80.508 E27.55138
G1 X99.829 Y81.069 E27.59337
G1 X102.224 Y82.569 E27.71086
M204 S2000
G1 F2400 E26.91086
G1 F300 Z0.4
G0 F7500 X96.041 Y77.378 Z0.4
M204 S500
G1 F300 Z0.2
G1 F2400 E27.71086
G1 F1359.5 X95.837 Y77.208 E27.72548
M204 S2000
G1 F2400 E26.92548
G1 F300 Z0.4
G0 F7500 X94.062 Y76.319 Z0.4
M204 S500
G1 F300 Z0.2
G1 F2400 E27.72548
G1 F1074 X94.009 Y76.409 E27.73276
G1 X93.906 Y76.409 E27.73993
G1 X93.854 Y76.319 E27.74718
G1 X93.907 Y76.229 E27.75445
G1 X94.009 Y76.229 E27.76156
M204 S2000
G1 F2400 E26.96156
G1 F300 Z0.4
G0 F7500 X95.837 Y77.208 Z0.4
M204 S500
G1 F300 Z0.2
G1 F2400 E27.76156
G1 F1565.2 X94.883 Y76.336 E27.82336
G1 F1800 X94.639 Y76.083 E27.83797
G1 X94.201 Y75.558 E27.8664
G1 X93.925 Y75.12 E27.88792
G1 X93.663 Y74.555 E27.91381
G1 X93.543 Y74.202 E27.92931
G1 F1764.7 X93.347 Y73.311 E27.968
G1 X93.332 Y75.454 E28.05888
G1 F1800 X93.312 Y75.985 E28.08097
G1 X93.27 Y76.55 E28.10453
G1 X93.2 Y77.155 E28.12985
G1 X93.126 Y77.627 E28.14971
G1 X93.41 Y77.26 E28.16901
G1 X93.812 Y77.054 E28.18778
G1 X94.086 Y76.975 E28.19964
G1 X94.372 Y76.921 E28.21174
G1 X94.811 Y76.874 E28.2301
G1 F1565.2 X95.837 Y77.208 E28.28169
M204 S2000
G1 F2400 E27.48169
G1 F300 Z0.4
G0 F7500 X93.347 Y73.311 Z0.4
M204 S500
G1 F300 Z0.2
G1 F2400 E28.28169
G1 F1814.5 X93.322 Y72.935 E28.29723
G1 F1986.8 X93.301 Y72.293 E28.32142
G1 F2093 X93.296 Y70.755 E28.37641
M204 S2000
G1 F2400 E27.57641
G1 F300 Z0.4
G0 F7500 X84.944 Y68.777 Z0.4
M204 S500
G1 F300 Z0.2
G1 F2400 E28.37641
G1 F1267.6 X84.899 Y68.853 E28.38163
G1 X84.812 Y68.853 E28.38676
G1 X84.768 Y68.777 E28.39195
G1 X84.813 Y68.701 E28.39716
G1 X84.899 Y68.701 E28.40224
M204 S2000
G1 F2400 E27.60224
G1 F300 Z0.4
G0 F7500 X84.316 Y70.756 Z0.4
M204 S500
G1 F300 Z0.2
G1 F2400 E28.40224
G1 F1419.6 X84.317 Y75.54 E28.65444
G1 F1384.6 X84.344 Y76.76 E28.72039
G1 F1353.4 X84.377 Y77.448 E28.75848
G1 F1327.4 X84.413 Y77.746 E28.7754
G1 F1222.8 X84.541 Y78.409 E28.81673
G1 F1119.4 X84.608 Y78.651 E28.83351
