;FLAVOR:Marlin
;TIME:71
;Filament used: 0.130244m
;Layer height: 0.32
;MINX:95.659
;MINY:23.194
;MINZ:0.32
;MAXX:124.685
;MAXY:196.946
;MAXZ:0.52
;TARGET_MACHINE.NAME:Creality Ender-3 S1
;Generated with Cura_SteamEngine 5.6.0
M82 ;absolute extrusion mode
; Ender 3 S1 Start G-code
; M413 S0 ; Disable power loss recovery
G92 E0 ; Reset Extruder

; Prep surfaces before auto home for better accuracy
M140 S60
M104 S200

G28 ; Home all axes
G1 Z10.0 F3000 ; Move Z Axis up little to prevent scratching of Heat Bed
G1 X0 Y0

M190 S60
M109 S200

G1 X0.1 Y20 Z0.3 F5000.0 ; Move to start position
G1 X0.1 Y200.0 Z0.3 F1500.0 E15 ; Draw the first line
G1 X0.4 Y200.0 Z0.3 F5000.0 ; Move to side a little
G1 X0.4 Y20 Z0.3 F1500.0 E30 ; Draw the second line
G92 E0 ; Reset Extruder
G1 Z2.0 F3000 ; Move Z Axis up little to prevent scratching of Heat Bed
G1 X5 Y20 Z0.3 F5000.0 ; Move over to prevent blob squish

G92 E0
G92 E0
G1 F2400 E-0.8
;LAYER_COUNT:1
;LAYER:0
M107
M204 S2000
G1 F300 Z0.52
;MESH:ARSL_am.stl
G0 F7500 X113.569 Y41.636 Z0.52
M204 S500
;TYPE:WALL-INNER
G1 F300 Z0.32
G1 F2400 E0
G1 F1800 X113.35 Y41.718 E0.01867
G1 X113.004 Y41.745 E0.04637
G1 X102.665 Y37.908 E0.92668
G1 X102.456 Y37.79 E0.94583
G1 X102.278 Y37.61 E0.96604
G1 X102.163 Y37.406 E0.98473
G1 X102.099 Y37.162 E1.00487
G1 X102.106 Y36.631 E1.04726
G1 X102.154 Y36.419 E1.06461
G1 X102.267 Y36.202 E1.08414
G1 X102.451 Y36.011 E1.10531
G1 X102.675 Y35.884 E1.12587
G1 X112.843 Y32.181 E1.98967
G1 X113.114 Y32.127 E2.01173
G1 X113.376 Y32.155 E2.03276
G1 X113.599 Y32.246 E2.05199
G1 X113.837 Y32.443 E2.07665
G1 X113.993 Y32.706 E2.10106
G1 X114.051 Y33.027 E2.1271
G1 X114.051 Y40.95 E2.75954
G1 X113.987 Y41.173 E2.77806
G1 X113.819 Y41.443 E2.80345
G1 X113.569 Y41.636 E2.82866
M204 S2000
G1 F2400 E2.02866
G1 F300 Z0.52
G0 F7500 X123.579 Y50.155 Z0.52
M204 S500
G1 F300 Z0.32
G1 F2400 E2.82866
G1 F1800 X123.579 Y45.814 E3.17518
G1 X117.64 Y43.531 E3.68307
G1 X117.418 Y43.403 E3.70353
G1 X117.241 Y43.217 E3.72402
G1 X117.13 Y43.007 E3.74298
G1 X117.075 Y42.695 E3.76827
G1 X117.075 Y31.25 E4.68186
G1 X117.127 Y30.945 E4.70656
G1 X117.241 Y30.728 E4.72613
G1 X117.425 Y30.537 E4.7473
G1 X117.648 Y30.411 E4.76774
G1 X123.579 Y28.256 E5.27147
G1 X123.579 Y24.072 E5.60545
G1 X96.746 Y34.522 E7.90408
G1 X96.747 Y39.41 E8.29426
G1 X123.579 Y50.155 E10.60146
M204 S2000
G0 F7500 X124.179 Y51.041
M204 S500
;TYPE:WALL-OUTER
G1 F1800 X124.179 Y45.402 E11.05159
G1 X117.863 Y42.974 E11.59173
G1 X117.73 Y42.869 E11.60525
G1 X117.68 Y42.754 E11.61526
G1 X117.675 Y31.172 E12.53979
G1 X117.805 Y30.992 E12.55751
G1 X124.179 Y28.676 E13.09886
G1 X124.179 Y23.194 E13.53646
G1 X96.146 Y34.112 E15.9379
G1 X96.147 Y39.816 E16.39322
G1 X124.179 Y51.041 E18.80358
M204 S2000
G1 F2400 E18.00358
G1 F300 Z0.52
G0 F7500 X113.218 Y41.132 Z0.52
M204 S500
G1 F300 Z0.32
G1 F2400 E18.80358
G1 F1800 X113.089 Y41.133 E18.81388
G1 X102.888 Y37.351 E19.68233
G1 X102.759 Y37.252 E19.69531
G1 X102.703 Y37.115 E19.70713
G1 X102.703 Y36.692 E19.74089
G1 X102.757 Y36.549 E19.75309
G1 X102.839 Y36.463 E19.76258
G1 X113.114 Y32.721 E20.63547
G1 X113.301 Y32.766 E20.65083
G1 X113.451 Y32.942 E20.66929
G1 X113.447 Y40.891 E21.30381
G1 X113.374 Y41.041 E21.31713
G1 X113.218 Y41.132 E21.33154
M204 S2000
G1 F2400 E20.53154
G1 F300 Z0.52
G0 F7500 X104.244 Y72.935 Z0.52
M204 S500
;TYPE:WALL-INNER
G1 F300 Z0.32
G1 F2400 E21.33154
G1 F1800 X103.526 Y72.881 E21.38902
G1 X103.076 Y72.809 E21.4254
G1 X102.717 Y72.713 E21.45506
G1 X102.292 Y72.543 E21.4916
G1 X101.996 Y72.386 E21.51834
G1 X101.307 Y71.937 E21.58399
G1 X100.772 Y71.324 E21.64894
G1 X100.547 Y71.016 E21.67938
G1 X100.33 Y70.633 E21.71452
G1 X100.186 Y70.3 E21.74348
G1 X100.063 Y69.915 E21.77575
G1 X99.892 Y69.215 E21.83327
G1 X99.829 Y68.063 E21.92536
G1 X99.795 Y66.976 E22.01217
G1 X99.786 Y65.92 E22.09647
G1 X99.79 Y60.351 E22.54101
G1 X99.847 Y60.034 E22.56672
G1 X100 Y59.773 E22.59087
G1 X100.202 Y59.595 E22.61236
G1 X100.43 Y59.49 E22.6324
G1 X100.69 Y59.452 E22.65338
G1 X107.955 Y59.452 E23.2333
G1 X108.189 Y59.482 E23.25213
G1 X108.399 Y59.568 E23.27025
G1 X108.571 Y59.695 E23.28731
G1 X108.75 Y59.928 E23.31077
G1 X108.825 Y60.119 E23.32715
G1 X108.856 Y60.352 E23.34591
G1 X108.855 Y64.633 E23.68764
G1 X108.864 Y65.944 E23.79229
G1 X108.854 Y66.617 E23.84602
G1 X108.827 Y67.298 E23.90042
G1 X108.773 Y67.997 E23.95638
G1 X108.693 Y68.682 E24.01144
G1 X108.479 Y70.059 E24.12267
G1 X108.134 Y70.846 E24.19127
G1 X107.884 Y71.236 E24.22824
G1 X107.547 Y71.641 E24.2703
G1 X106.904 Y72.195 E24.33805
G1 X106.277 Y72.519 E24.39439
G1 X105.891 Y72.678 E24.42771
G1 X105.595 Y72.773 E24.45253
G1 X105.251 Y72.848 E24.48063
G1 X104.87 Y72.895 E24.51128
G1 X104.244 Y72.935 E24.56135
M204 S2000
G1 F2400 E23.76135
G1 F300 Z0.52
G0 F7500 X123.579 Y78.686 Z0.52
M204 S500
G1 F300 Z0.32
G1 F2400 E24.56135
G1 F1800 X123.579 Y73.88 E24.94498
G1 X116.648 Y69.24 E25.61078
G1 X115.552 Y68.48 E25.71724
G1 X115.018 Y68.089 E25.77007
G1 X114.489 Y67.684 E25.82326
G1 X113.427 Y66.836 E25.93174
G1 X113.009 Y66.397 E25.98013
G1 X112.777 Y66.126 E26.0086
G1 X112.579 Y65.859 E26.03514
G1 X112.312 Y65.419 E26.07622
G1 X111.99 Y64.726 E26.13722
G1 X111.798 Y63.865 E26.20764
G1 X111.73 Y63.475 E26.23924
G1 X111.679 Y63.073 E26.27158
G1 X111.647 Y62.653 E26.30521
G1 X111.633 Y62.286 E26.33452
G1 X111.626 Y60.352 E26.48891
G1 X111.656 Y60.119 E26.50766
G1 X111.731 Y59.928 E26.52404
G1 X111.91 Y59.695 E26.54749
G1 X112.082 Y59.568 E26.56456
G1 X112.293 Y59.482 E26.58275
G1 X112.526 Y59.452 E26.6015
G1 X123.579 Y59.452 E27.4838
G1 X123.579 Y55.47 E27.80166
G1 X96.747 Y55.471 E29.9435
G1 X96.746 Y66.744 E30.84336
G1 X96.764 Y68.422 E30.97732
G1 X96.8 Y69.252 E31.04363
G1 X96.863 Y70.041 E31.10682
G1 X96.967 Y70.809 E31.16868
G1 X97.11 Y71.575 E31.23088
G1 X97.295 Y72.392 E31.29775
G1 X97.485 Y73.163 E31.36114
G1 X97.89 Y73.949 E31.43172
G1 X98.149 Y74.382 E31.47199
G1 X98.406 Y74.733 E31.50672
G1 X98.621 Y74.978 E31.53274
G1 X99.065 Y75.377 E31.58039
G1 X99.836 Y75.969 E31.65798
G1 X100.284 Y76.205 E31.6984
G1 X100.793 Y76.454 E31.74363
G1 X101.283 Y76.662 E31.78613
G1 X101.753 Y76.817 E31.82563
G1 X102.235 Y76.925 E31.86506
G1 X102.799 Y77.005 E31.91053
G1 X103.336 Y77.052 E31.95356
G1 X103.881 Y77.085 E31.99714
G1 X104.649 Y77.03 E32.05861
G1 X105.262 Y76.961 E32.10785
G1 X105.831 Y76.861 E32.15396
G1 X106.148 Y76.783 E32.18002
G1 X106.419 Y76.698 E32.20269
G1 X106.693 Y76.593 E32.22612
G1 X106.98 Y76.46 E32.25137
G1 X107.23 Y76.325 E32.27405
G1 X107.523 Y76.15 E32.30129
G1 X108.082 Y75.781 E32.35476
G1 X108.581 Y75.425 E32.40369
G1 X109.027 Y74.893 E32.4591
G1 X109.482 Y74.311 E32.51807
G1 X109.696 Y74.009 E32.54762
G1 X109.856 Y73.763 E32.57104
G1 X110.048 Y73.43 E32.60173
G1 X110.19 Y73.141 E32.62743
G1 X110.329 Y72.804 E32.65653
G1 X110.443 Y72.487 E32.68342
G1 X110.642 Y71.785 E32.74166
G1 X110.807 Y71.042 E32.80242
G1 X110.888 Y70.614 E32.83719
G1 X111.032 Y70.346 E32.86148
G1 X111.205 Y70.17 E32.88118
G1 X111.47 Y70.022 E32.9054
G1 X112.017 Y69.919 E32.94984
G1 X112.42 Y69.983 E32.98241
G1 X112.642 Y70.11 E33.00282
G1 X112.793 Y70.249 E33.01921
G1 X113.153 Y70.819 E33.07302
G1 X113.378 Y71.151 E33.10504
G1 X113.644 Y71.514 E33.14096
G1 X113.919 Y71.854 E33.17587
G1 X114.228 Y72.202 E33.21302
G1 X114.853 Y72.858 E33.28534
G1 X115.835 Y73.65 E33.38605
G1 X116.452 Y74.128 E33.44835
G1 X117.031 Y74.542 E33.50517
G1 X117.606 Y74.934 E33.56072
G1 X118.182 Y75.31 E33.61563
G1 X123.579 Y78.686 E34.12378
M204 S2000
G0 F7500 X124.179 Y79.769
M204 S500
;TYPE:WALL-OUTER
G1 F1800 X124.179 Y73.56 E34.61941
G1 X116.99 Y68.746 E35.31005
G1 X115.906 Y67.996 E35.41527
G1 X115.383 Y67.613 E35.46701
G1 X114.863 Y67.215 E35.51928
G1 X113.851 Y66.407 E35.62266
G1 X113.435 Y65.973 E35.67065
G1 X113.256 Y65.765 E35.69255
G1 X113.088 Y65.541 E35.7149
G1 X112.856 Y65.166 E35.7501
G1 X112.575 Y64.561 E35.80335
G1 X112.389 Y63.759 E35.86907
G1 X112.325 Y63.398 E35.89833
G1 X112.277 Y63.027 E35.9282
G1 X112.247 Y62.63 E35.95998
G1 X112.233 Y62.253 E35.99009
G1 X112.226 Y60.352 E36.14184
G1 X112.32 Y60.133 E36.16086
G1 X112.466 Y60.052 E36.17419
G1 X124.179 Y60.052 E37.10917
G1 X124.179 Y54.87 E37.52282
G1 X96.147 Y54.871 E39.76046
G1 X96.146 Y66.75 E40.70869
G1 X96.164 Y68.447 E40.84416
G1 X96.199 Y69.261 E40.9092
G1 X96.262 Y70.069 E40.97389
G1 X96.315 Y70.513 E41.00958
G1 X96.37 Y70.881 E41.03929
G1 X96.522 Y71.696 E41.10546
G1 X96.712 Y72.535 E41.17413
G1 X96.919 Y73.375 E41.24319
G1 X97.365 Y74.241 E41.32095
G1 X97.702 Y74.805 E41.37339
G1 X97.942 Y75.115 E41.40469
G1 X98.193 Y75.401 E41.43506
G1 X98.679 Y75.837 E41.48718
G1 X99.125 Y76.187 E41.53244
G1 X99.514 Y76.478 E41.57121
G1 X100.02 Y76.744 E41.61685
G1 X100.544 Y77 E41.6634
G1 X101.066 Y77.222 E41.70868
G1 X101.593 Y77.396 E41.75298
G1 X101.887 Y77.468 E41.77714
G1 X102.135 Y77.517 E41.79732
G1 X102.731 Y77.601 E41.84537
G1 X103.292 Y77.65 E41.89032
G1 X103.884 Y77.686 E41.93766
G1 X104.703 Y77.628 E42.0032
G1 X105.301 Y77.561 E42.05124
G1 X105.639 Y77.51 E42.07852
G1 X105.96 Y77.447 E42.10463
G1 X106.31 Y77.361 E42.1334
G1 X106.616 Y77.265 E42.159
G1 X106.927 Y77.146 E42.18559
G1 X107.249 Y76.996 E42.21394
G1 X107.526 Y76.847 E42.23905
G1 X107.843 Y76.658 E42.26851
G1 X108.455 Y76.252 E42.32713
G1 X108.991 Y75.869 E42.37972
G1 X109.499 Y75.263 E42.44284
G1 X109.963 Y74.67 E42.50295
G1 X110.193 Y74.346 E42.53466
G1 X110.394 Y74.036 E42.56415
G1 X110.578 Y73.711 E42.59397
G1 X110.737 Y73.389 E42.62263
G1 X110.889 Y73.02 E42.65449
G1 X111.013 Y72.675 E42.68375
G1 X111.121 Y72.32 E42.71337
G1 X111.225 Y71.927 E42.74582
G1 X111.395 Y71.164 E42.80822
G1 X111.482 Y70.729 E42.84364
G1 X111.645 Y70.605 E42.85998
G1 X112.084 Y70.522 E42.89565
G1 X112.306 Y70.602 E42.91448
G1 X112.655 Y71.155 E42.96668
G1 X112.887 Y71.497 E42.99967
G1 X113.168 Y71.88 E43.03759
G1 X113.461 Y72.242 E43.07477
G1 X113.786 Y72.608 E43.11384
G1 X114.445 Y73.3 E43.19012
G1 X115.467 Y74.124 E43.29491
G1 X116.093 Y74.609 E43.35812
G1 X116.664 Y75.02 E43.41428
G1 X117.842 Y75.805 E43.52728
G1 X124.179 Y79.769 E44.12394
M204 S2000
G1 F2400 E43.32394
G1 F300 Z0.52
G0 F7500 X105.146 Y72.257 Z0.52
M204 S500
G1 F300 Z0.32
G1 F2400 E44.12394
G1 F1800 X104.832 Y72.296 E44.1492
G1 X104.224 Y72.332 E44.19782
G1 X103.558 Y72.281 E44.25114
G1 X103.256 Y72.234 E44.27553
G1 X102.91 Y72.145 E44.30405
G1 X102.572 Y72.012 E44.33305
G1 X102.281 Y71.857 E44.35936
G1 X101.713 Y71.491 E44.4133
G1 X101.254 Y70.967 E44.46891
G1 X101.05 Y70.689 E44.49643
G1 X100.896 Y70.425 E44.52083
G1 X100.748 Y70.09 E44.55006
G1 X100.646 Y69.773 E44.57665
G1 X100.487 Y69.105 E44.63146
G1 X100.429 Y68.044 E44.71628
G1 X100.395 Y66.971 E44.80197
G1 X100.386 Y65.92 E44.88587
G1 X100.39 Y60.27 E45.33688
G1 X100.527 Y60.099 E45.35437
G1 X100.629 Y60.052 E45.36333
G1 X108.008 Y60.052 E45.95236
G1 X108.19 Y60.164 E45.96942
G1 X108.256 Y60.296 E45.9812
G1 X108.255 Y64.637 E46.32771
G1 X108.264 Y65.935 E46.43133
G1 X108.254 Y66.594 E46.48394
G1 X108.229 Y67.252 E46.5365
G1 X108.177 Y67.928 E46.59062
G1 X108.1 Y68.59 E46.64382
G1 X107.89 Y69.916 E46.75099
G1 X107.601 Y70.57 E46.80806
G1 X107.385 Y70.902 E46.83968
G1 X107.086 Y71.253 E46.87649
G1 X106.565 Y71.695 E46.93103
G1 X106.006 Y71.981 E46.98115
G1 X105.744 Y72.093 E47.00389
G1 X105.444 Y72.193 E47.02914
G1 X105.146 Y72.257 E47.05347
M204 S2000
G1 F2400 E46.25347
G1 F300 Z0.52
G0 F7500 X116.127 Y104.353 Z0.52
M204 S500
;TYPE:WALL-INNER
G1 F300 Z0.32
G1 F2400 E47.05347
G1 F1500 X116.753 Y104.305 E47.10358
G1 X117.25 Y104.249 E47.14351
G1 X117.804 Y104.16 E47.1883
G1 X118.273 Y104.046 E47.22682
G1 X118.529 Y103.962 E47.24833
G1 X118.779 Y103.867 E47.26968
G1 X119.286 Y103.642 E47.31396
G1 X119.801 Y103.377 E47.36019
G1 X120.254 Y103.13 E47.40138
G1 X120.707 Y102.784 E47.44688
G1 X121.395 Y102.211 E47.51835
G1 X121.785 Y101.823 E47.56226
G1 X121.959 Y101.622 E47.58348
G1 X122.209 Y101.299 E47.61609
G1 X122.546 Y100.748 E47.66765
G1 X122.867 Y100.153 E47.72161
G1 X123.105 Y99.682 E47.76374
G1 X123.554 Y98.245 E47.88391
G1 X123.743 Y97.513 E47.94426
G1 X123.819 Y97.164 E47.97277
G1 X123.878 Y96.821 E48.00055
G1 X123.976 Y96.069 E48.06109
G1 X124.031 Y95.313 E48.1216
G1 X124.065 Y94.538 E48.18352
G1 X124.084 Y93.812 E48.24149
G1 X124.04 Y92.682 E48.33176
G1 X123.962 Y91.583 E48.41971
G1 X123.904 Y91.068 E48.46108
G1 X123.831 Y90.59 E48.49968
G1 X123.736 Y90.106 E48.53905
G1 X123.6 Y89.582 E48.58226
G1 X123.471 Y89.18 E48.61596
G1 X123.28 Y88.695 E48.65757
G1 X123.077 Y88.249 E48.69669
G1 X122.823 Y87.76 E48.74067
G1 X122.57 Y87.31 E48.78188
G1 X122.298 Y86.858 E48.82399
G1 X121.782 Y86.037 E48.9014
G1 X120.714 Y85.106 E49.0145
G1 X120.345 Y84.811 E49.05221
G1 X119.943 Y84.513 E49.09215
G1 X119.573 Y84.262 E49.12784
G1 X119.183 Y84.032 E49.16398
G1 X118.78 Y83.83 E49.19997
G1 X118.382 Y83.662 E49.23445
G1 X117.896 Y83.49 E49.2756
G1 X117.559 Y83.385 E49.30378
G1 X117.008 Y83.246 E49.34914
G1 X115.965 Y83.031 E49.43415
G1 X115.587 Y86.895 E49.74406
G1 X115.995 Y86.996 E49.77761
G1 X116.664 Y87.207 E49.83361
G1 X116.967 Y87.325 E49.85957
G1 X117.292 Y87.469 E49.88794
G1 X117.615 Y87.637 E49.917
G1 X117.848 Y87.778 E49.93874
G1 X118.175 Y87.998 E49.9702
G1 X118.406 Y88.169 E49.99314
G1 X118.912 Y88.581 E50.04523
G1 X119.474 Y89.08 E50.10522
G1 X119.851 Y89.663 E50.16064
G1 X120.169 Y90.191 E50.20985
G1 X120.448 Y90.749 E50.25964
G1 X120.563 Y91.024 E50.28344
G1 X120.676 Y91.352 E50.31113
G1 X120.776 Y91.719 E50.34149
G1 X120.836 Y92.011 E50.36529
G1 X120.927 Y92.647 E50.41658
G1 X120.964 Y93.11 E50.45365
G1 X121.004 Y93.834 E50.51153
G1 X120.984 Y94.474 E50.56265
G1 X120.948 Y95.065 E50.60991
G1 X120.863 Y95.782 E50.66754
G1 X120.742 Y96.315 E50.71117
G1 X120.663 Y96.581 E50.73332
G1 X120.552 Y96.891 E50.75961
G1 X120.423 Y97.196 E50.78604
G1 X120.286 Y97.481 E50.81128
G1 X119.988 Y98.025 E50.8608
G1 X119.642 Y98.608 E50.91491
G1 X119.284 Y98.978 E50.95601
G1 X118.955 Y99.289 E50.99215
G1 X118.596 Y99.584 E51.02924
G1 X118.136 Y99.88 E51.0729
G1 X117.581 Y100.109 E51.12083
G1 X117.194 Y100.215 E51.15286
G1 X116.689 Y100.309 E51.19386
G1 X116.182 Y100.378 E51.23471
G1 X115.545 Y100.323 E51.28574
G1 X114.922 Y100.178 E51.3368
G1 X114.38 Y99.918 E51.38479
G1 X113.83 Y99.558 E51.43726
G1 X113.303 Y98.955 E51.50119
G1 X113.082 Y98.66 E51.53061
G1 X112.882 Y98.341 E51.56067
G1 X112.715 Y98.021 E51.58948
G1 X112.567 Y97.686 E51.61871
G1 X112.325 Y97.054 E51.67273
G1 X111.886 Y95.568 E51.79642
G1 X111.652 Y94.708 E51.86757
G1 X110.838 Y91.501 E52.13168
G1 X110.599 Y90.642 E52.20285
G1 X110.355 Y89.87 E52.26748
G1 X110.199 Y89.436 E52.3043
G1 X110.045 Y89.052 E52.33732
G1 X109.891 Y88.701 E52.36792
G1 X109.716 Y88.346 E52.39951
G1 X109.5 Y87.947 E52.43573
G1 X109.296 Y87.598 E52.468
G1 X108.832 Y86.86 E52.53758
G1 X108.418 Y86.234 E52.59749
G1 X107.896 Y85.753 E52.65416
G1 X107.306 Y85.249 E52.7161
G1 X107.011 Y85.022 E52.74581
G1 X106.726 Y84.826 E52.77342
G1 X106.448 Y84.658 E52.79935
G1 X106.125 Y84.493 E52.8283
G1 X105.858 Y84.384 E52.85132
G1 X105.507 Y84.269 E52.8808
G1 X105.176 Y84.183 E52.9081
G1 X104.822 Y84.11 E52.93696
G1 X104.124 Y84 E52.99336
G1 X103.333 Y83.913 E53.05688
G1 X102.379 Y84.001 E53.13336
G1 X101.888 Y84.082 E53.17308
G1 X101.378 Y84.209 E53.21504
G1 X101.006 Y84.358 E53.24702
G1 X100.503 Y84.589 E53.29121
G1 X99.754 Y85 E53.35941
G1 X99.337 Y85.33 E53.40185
G1 X98.928 Y85.672 E53.44441
G1 X98.467 Y86.106 E53.49495
G1 X98.236 Y86.379 E53.5235
G1 X97.953 Y86.77 E53.56203
G1 X97.671 Y87.235 E53.60544
G1 X97.22 Y88.077 E53.68169
G1 X97.031 Y88.632 E53.72849
G1 X96.766 Y89.46 E53.79788
G1 X96.595 Y90.094 E53.8503
G1 X96.519 Y90.428 E53.87764
G1 X96.46 Y90.745 E53.90338
G1 X96.37 Y91.41 E53.95695
G1 X96.315 Y92.064 E54.00934
G1 X96.259 Y93.44 E54.11927
G1 X96.306 Y94.786 E54.22678
G1 X96.373 Y95.711 E54.30081
G1 X96.48 Y96.546 E54.36801
G1 X96.575 Y97.048 E54.40879
G1 X96.681 Y97.492 E54.44523
G1 X96.817 Y97.937 E54.48237
G1 X96.994 Y98.403 E54.52216
G1 X97.189 Y98.84 E54.56036
G1 X97.427 Y99.314 E54.6027
G1 X97.721 Y99.847 E54.65129
