;FLAVOR:Marlin
;TIME:25
;Filament used: 0.0556269m
;Layer height: 0.32
;MINX:66.549
;MINY:102.593
;MINZ:0.32
;MAXX:153.795
;MAXY:117.407
;MAXZ:0.52
;TARGET_MACHINE.NAME:Creality Ender-3 S1
;Generated with Cura_SteamEngine 5.6.0
M82 ;absolute extrusion mode
; Ender 3 S1 Start G-code
; M413 S0 ; Disable power loss recovery
G92 E0 ; Reset Extruder

; Prep surfaces before auto home for better accuracy
M140 S60
M104 S200

G28 ; Home all axes
G1 Z10.0 F3000 ; Move Z Axis up little to prevent scratching of Heat Bed
G1 X0 Y0

M190 S60
M109 S200

G1 X0.1 Y20 Z0.3 F5000.0 ; Move to start position
G1 X0.1 Y200.0 Z0.3 F1500.0 E15 ; Draw the first line
G1 X0.4 Y200.0 Z0.3 F5000.0 ; Move to side a little
G1 X0.4 Y20 Z0.3 F1500.0 E30 ; Draw the second line
G92 E0 ; Reset Extruder
G1 Z2.0 F3000 ; Move Z Axis up little to prevent scratching of Heat Bed
G1 X5 Y20 Z0.3 F5000.0 ; Move over to prevent blob squish

G92 E0
G92 E0
G1 F2400 E-0.8
;LAYER_COUNT:1
;LAYER:0
M107
M204 S2000
G1 F300 Z0.52
G0 F7500 X75.592 Y108.511 Z0.52
M204 S500
;TYPE:WALL-OUTER
G1 F300 Z0.32
G1 F2400 E0
G1 F1500 X71.686 Y108.511 E0.51966
G1 X73.619 Y113.823 E1.2717
G1 X75.592 Y108.511 E2.02559
M204 S2000
G1 F2400 E1.22559
G1 F300 Z0.52
G0 F7500 X75.182 Y117.163 Z0.52
M204 S500
G1 F300 Z0.32
G1 F2400 E2.02559
G1 F1500 X72.125 Y117.163 E2.43229
G1 X66.549 Y102.847 E4.47627
G1 X69.615 Y102.847 E4.88417
G1 X70.797 Y106.099 E5.34451
G1 X76.52 Y106.099 E6.10591
G1 X77.77 Y102.847 E6.56941
G1 X80.914 Y102.847 E6.98769
G1 X75.182 Y117.163 E9.0393
M204 S2000
G1 F2400 E8.2393
G1 F300 Z0.52
G0 F7500 X90.02 Y114.618 Z0.52
M204 S500
G1 F300 Z0.32
G1 F2400 E9.0393
G1 F1500 X90.308 Y114.508 E9.08031
G1 X90.565 Y114.339 E9.12123
G1 X90.802 Y114.131 E9.16319
G1 X91.077 Y113.704 E9.23076
G1 X91.164 Y113.281 E9.28821
G1 X91.188 Y112.964 E9.3305
G1 X91.17 Y112.68 E9.36836
G1 X91.123 Y112.404 E9.40561
G1 X91.025 Y112.142 E9.44283
G1 X90.895 Y111.89 E9.48055
G1 X90.727 Y111.692 E9.5151
G1 X90.54 Y111.519 E9.54899
G1 X90.321 Y111.389 E9.58287
G1 X90.084 Y111.284 E9.61736
G1 X89.44 Y111.184 E9.70406
G1 X89.116 Y111.146 E9.74746
G1 X88.792 Y111.122 E9.79069
G1 X88.14 Y111.104 E9.87746
G1 X85.348 Y111.108 E10.24891
G1 X85.348 Y114.741 E10.73225
G1 X88.659 Y114.739 E11.17275
G1 X89.713 Y114.692 E11.31311
G1 X90.02 Y114.618 E11.35512
M204 S2000
G1 F2400 E10.55512
G1 F300 Z0.52
G0 F7500 X91.876 Y116.777 Z0.52
M204 S500
G1 F300 Z0.32
G1 F2400 E11.35512
G1 F1500 X91.055 Y116.971 E11.46736
G1 X90.642 Y117.048 E11.52325
G1 X90.226 Y117.103 E11.57908
G1 X89.807 Y117.137 E11.635
G1 X89.386 Y117.155 E11.69106
G1 X88.541 Y117.163 E11.80349
G1 X82.457 Y117.163 E12.61291
G1 X82.457 Y102.847 E14.51752
G1 X85.348 Y102.847 E14.90214
G1 X85.348 Y108.823 E15.69719
G1 X86.338 Y108.819 E15.8289
G1 X86.704 Y108.794 E15.8777
G1 X87.03 Y108.743 E15.9216
G1 X87.389 Y108.662 E15.97057
G1 X87.631 Y108.55 E16.00604
G1 X87.859 Y108.417 E16.04116
G1 X88.065 Y108.251 E16.07636
G1 X88.258 Y108.066 E16.11192
G1 X88.861 Y107.3 E16.24162
G1 X89.422 Y106.504 E16.37118
G1 X91.871 Y102.847 E16.95673
G1 X95.328 Y102.847 E17.41665
G1 X93.164 Y106.303 E17.95913
G1 X92.807 Y106.838 E18.0447
G1 X92.382 Y107.409 E18.1394
G1 X91.935 Y107.964 E18.23421
G1 X91.301 Y108.554 E18.34943
G1 X90.804 Y108.903 E18.43023
G1 X90.387 Y109.165 E18.49575
G1 X90.784 Y109.241 E18.54952
G1 X91.214 Y109.337 E18.60814
G1 X91.594 Y109.449 E18.66084
G1 X91.923 Y109.578 E18.70786
G1 X92.269 Y109.761 E18.75993
G1 X92.596 Y109.983 E18.81251
G1 X92.91 Y110.229 E18.86558
G1 X93.219 Y110.488 E18.91922
G1 X93.432 Y110.787 E18.96806
G1 X93.632 Y111.089 E19.01625
G1 X93.808 Y111.401 E19.06391
G1 X93.947 Y111.726 E19.11094
G1 X94.042 Y112.068 E19.15816
G1 X94.102 Y112.421 E19.2058
G1 X94.14 Y112.783 E19.25422
G1 X94.166 Y113.149 E19.30304
G1 X94.114 Y113.803 E19.39032
G1 X94.046 Y114.209 E19.44509
G1 X93.966 Y114.49 E19.48396
G1 X93.81 Y114.873 E19.53898
G1 X93.541 Y115.405 E19.61829
G1 X93.204 Y115.845 E19.69202
G1 X93.022 Y116.048 E19.7283
G1 X92.824 Y116.232 E19.76426
G1 X92.606 Y116.392 E19.80023
G1 X92.372 Y116.531 E19.83644
G1 X91.876 Y116.777 E19.9101
M204 S2000
G1 F2400 E19.1101
G1 F300 Z0.52
G0 F7500 X103.524 Y117.29 Z0.52
M204 S500
G1 F300 Z0.32
G1 F2400 E19.9101
G1 F1500 X102.991 Y117.354 E19.98152
G1 X102.448 Y117.389 E20.05391
G1 X101.901 Y117.407 E20.12672
G1 X101.179 Y117.378 E20.22286
G1 X100.82 Y117.348 E20.27078
G1 X100.466 Y117.3 E20.31831
G1 X100.116 Y117.227 E20.36588
G1 X99.769 Y117.133 E20.41371
G1 X99.083 Y116.909 E20.50971
G1 X98.561 Y116.639 E20.5879
G1 X98.312 Y116.488 E20.62664
G1 X98.079 Y116.319 E20.66494
G1 X97.865 Y116.127 E20.70319
G1 X97.666 Y115.915 E20.74187
G1 X97.296 Y115.459 E20.82
G1 X97.037 Y114.979 E20.89256
G1 X96.925 Y114.734 E20.9284
G1 X96.834 Y114.482 E20.96404
G1 X96.769 Y114.222 E20.9997
G1 X96.726 Y113.956 E21.03555
G1 X96.676 Y113.413 E21.10809
G1 X96.727 Y112.959 E21.16887
G1 X96.783 Y112.592 E21.21827
G1 X96.875 Y112.199 E21.27196
G1 X97.013 Y111.826 E21.32488
G1 X97.206 Y111.479 E21.3777
G1 X97.469 Y111.121 E21.4368
G1 X97.712 Y110.839 E21.48633
G1 X97.994 Y110.532 E21.54178
G1 X98.749 Y110.045 E21.66131
G1 X99.138 Y109.828 E21.72057
G1 X99.541 Y109.641 E21.77968
G1 X99.958 Y109.483 E21.83901
G1 X100.385 Y109.349 E21.89855
G1 X100.819 Y109.229 E21.95845
G1 X102.418 Y108.823 E22.17794
G1 X103.57 Y108.491 E22.33744
G1 X103.997 Y108.318 E22.39873
G1 X104.304 Y108.14 E22.44594
G1 X104.61 Y107.871 E22.50015
G1 X104.838 Y107.466 E22.56198
G1 X104.908 Y107.007 E22.62375
G1 X104.826 Y106.492 E22.69313
G1 X104.707 Y106.219 E22.73275
G1 X104.487 Y105.916 E22.78257
G1 X104.2 Y105.625 E22.83694
G1 X103.713 Y105.348 E22.91148
G1 X103.394 Y105.202 E22.95815
G1 X103.007 Y105.1 E23.0114
G1 X102.659 Y105.06 E23.058
G1 X102.096 Y105.034 E23.13298
G1 X101.53 Y105.072 E23.20845
G1 X101.16 Y105.126 E23.2582
G1 X100.856 Y105.221 E23.30057
G1 X100.58 Y105.345 E23.34083
G1 X100.239 Y105.544 E23.39336
G1 X100.001 Y105.698 E23.43107
G1 X99.617 Y106.153 E23.51028
G1 X99.448 Y106.392 E23.54922
G1 X99.307 Y106.646 E23.58787
G1 X99.196 Y106.915 E23.62659
G1 X99.108 Y107.196 E23.66576
G1 X98.971 Y107.778 E23.74531
G1 X96.158 Y107.505 E24.12131
G1 X96.259 Y106.935 E24.19832
G1 X96.369 Y106.426 E24.2676
G1 X96.495 Y105.979 E24.32939
G1 X96.58 Y105.739 E24.36326
G1 X96.679 Y105.505 E24.39707
G1 X96.793 Y105.279 E24.43074
G1 X96.922 Y105.061 E24.46444
G1 X97.064 Y104.849 E24.49839
G1 X97.218 Y104.642 E24.53272
G1 X97.548 Y104.241 E24.60181
G1 X97.897 Y103.848 E24.67173
G1 X98.612 Y103.405 E24.78363
G1 X99.1 Y103.143 E24.85732
G1 X99.349 Y103.028 E24.89381
G1 X99.603 Y102.929 E24.93008
G1 X99.862 Y102.846 E24.96627
G1 X100.126 Y102.779 E25.0025
G1 X100.395 Y102.726 E25.03898
G1 X100.668 Y102.685 E25.0757
G1 X101.222 Y102.632 E25.14975
G1 X102.067 Y102.593 E25.26228
G1 X102.863 Y102.621 E25.36825
G1 X103.259 Y102.651 E25.42109
G1 X103.689 Y102.708 E25.47879
G1 X104.038 Y102.778 E25.52615
G1 X104.422 Y102.877 E25.57891
G1 X105.182 Y103.115 E25.68486
G1 X105.751 Y103.411 E25.77019
G1 X106.021 Y103.576 E25.81229
G1 X106.333 Y103.805 E25.86378
G1 X106.614 Y104.089 E25.91693
G1 X106.92 Y104.456 E25.9805
G1 X107.115 Y104.712 E26.02331
G1 X107.401 Y105.254 E26.10485
G1 X107.525 Y105.531 E26.14522
G1 X107.625 Y105.815 E26.18528
G1 X107.696 Y106.107 E26.22526
G1 X107.744 Y106.406 E26.26555
G1 X107.799 Y107.017 E26.34716
G1 X107.764 Y107.615 E26.42686
G1 X107.726 Y107.937 E26.46999
G1 X107.666 Y108.226 E26.50926
G1 X107.59 Y108.48 E26.54454
G1 X107.482 Y108.756 E26.58397
G1 X107.228 Y109.297 E26.66348
G1 X106.901 Y109.735 E26.7362
G1 X106.633 Y110.039 E26.79012
G1 X106.329 Y110.304 E26.84377
G1 X106.109 Y110.462 E26.8798
G1 X105.646 Y110.752 E26.95249
G1 X104.888 Y111.075 E27.06211
G1 X104.505 Y111.224 E27.11678
G1 X104.116 Y111.358 E27.17152
G1 X103.326 Y111.585 E27.28087
G1 X101.831 Y111.943 E27.48539
G1 X101.421 Y112.055 E27.54194
G1 X101.151 Y112.141 E27.57964
G1 X100.821 Y112.265 E27.62654
G1 X100.498 Y112.41 E27.67364
G1 X99.869 Y112.739 E27.76808
G1 X99.643 Y112.976 E27.81165
G1 X99.498 Y113.217 E27.84907
G1 X99.44 Y113.608 E27.90165
G1 X99.476 Y113.871 E27.93697
G1 X99.556 Y114.111 E27.97063
G1 X99.706 Y114.315 E28.00431
G1 X99.899 Y114.497 E28.03961
G1 X100.361 Y114.736 E28.10881
G1 X100.598 Y114.835 E28.14298
G1 X100.842 Y114.911 E28.17698
G1 X101.093 Y114.96 E28.211
G1 X101.349 Y114.989 E28.24528
G1 X101.871 Y115.015 E28.31481
G1 X102.525 Y114.986 E28.40191
G1 X102.852 Y114.918 E28.44634
G1 X103.275 Y114.76 E28.50642
G1 X103.702 Y114.531 E28.57088
G1 X104.005 Y114.189 E28.63167
G1 X104.247 Y113.815 E28.69093
G1 X104.397 Y113.393 E28.75052
G1 X104.498 Y112.944 E28.81174
G1 X107.389 Y113.071 E29.19674
G1 X107.329 Y113.567 E29.2632
G1 X107.257 Y114.01 E29.32291
G1 X107.163 Y114.397 E29.3759
G1 X107.015 Y114.806 E29.43376
G1 X106.809 Y115.187 E29.49139
G1 X106.553 Y115.546 E29.55005
G1 X106.264 Y115.89 E29.60982
G1 X105.958 Y116.226 E29.67028
G1 X105.494 Y116.512 E29.7428
G1 X105.024 Y116.778 E29.81465
G1 X104.785 Y116.899 E29.85029
G1 X104.542 Y117.007 E29.88567
G1 X104.295 Y117.101 E29.92083
G1 X104.043 Y117.178 E29.95588
G1 X103.785 Y117.241 E29.99121
G1 X103.524 Y117.29 E30.02655
M204 S2000
G1 F2400 E29.22655
G1 F300 Z0.52
G0 F7500 X113.199 Y117.046 Z0.52
M204 S500
G1 F300 Z0.32
G1 F2400 E30.02655
G1 F1500 X110.309 Y117.046 E30.41103
G1 X110.309 Y102.847 E32.30007
G1 X120.387 Y102.847 E33.64086
G1 X120.387 Y105.259 E33.96175
G1 X113.199 Y105.259 E34.91805
G1 X113.199 Y117.046 E36.4862
M204 S2000
G1 F2400 E35.6862
G1 F300 Z0.52
G0 F7500 X130.094 Y113.319 Z0.52
M204 S500
G1 F300 Z0.32
G1 F2400 E36.4862
G1 F1500 X129.717 Y113.214 E36.53826
G1 X129.349 Y113.073 E36.59069
G1 X128.987 Y112.907 E36.64367
G1 X128.629 Y112.729 E36.69686
G1 X128.375 Y112.5 E36.74236
G1 X128.016 Y112.141 E36.80991
G1 X127.805 Y111.883 E36.85425
G1 X127.586 Y111.538 E36.90861
G1 X127.413 Y111.147 E36.9655
G1 X127.184 Y110.503 E37.05643
G1 X129.674 Y110.054 E37.39305
G1 X129.854 Y110.48 E37.45457
G1 X130.047 Y110.781 E37.50214
G1 X130.338 Y111.064 E37.55615
G1 X130.696 Y111.242 E37.60934
G1 X131.078 Y111.334 E37.66161
G1 X131.481 Y111.353 E37.71529
G1 X131.87 Y111.347 E37.76705
G1 X132.249 Y111.304 E37.81779
G1 X132.61 Y111.187 E37.86828
G1 X132.955 Y111.016 E37.91951
G1 X133.25 Y110.616 E37.98563
G1 X133.33 Y110.2 E38.04199
G1 X133.346 Y109.888 E38.08355
G1 X133.346 Y109.614 E38.12
G1 X132.691 Y109.401 E38.21164
G1 X132.029 Y109.217 E38.30305
G1 X131.357 Y109.069 E38.3946
G1 X130.569 Y108.918 E38.50134
G1 X129.843 Y108.761 E38.60016
G1 X129.297 Y108.604 E38.67574
G1 X129.028 Y108.509 E38.7137
G1 X128.497 Y108.301 E38.78957
G1 X128.053 Y108.039 E38.85816
G1 X127.831 Y107.86 E38.89609
G1 X127.561 Y107.569 E38.94891
G1 X127.32 Y107.246 E39.00252
G1 X127.139 Y106.875 E39.05744
G1 X127.001 Y106.492 E39.1116
G1 X126.93 Y106.091 E39.16578
G1 X126.901 Y105.679 E39.22073
G1 X126.929 Y105.367 E39.26241
G1 X127.002 Y104.882 E39.32766
G1 X127.095 Y104.538 E39.37507
G1 X127.275 Y104.189 E39.42731
G1 X127.429 Y103.962 E39.4638
G1 X127.823 Y103.481 E39.54652
G1 X128.106 Y103.28 E39.5927
G1 X128.393 Y103.092 E39.63835
G1 X128.688 Y102.928 E39.68325
G1 X128.997 Y102.801 E39.7277
G1 X129.321 Y102.716 E39.77226
G1 X129.657 Y102.663 E39.81752
G1 X130.348 Y102.612 E39.9097
G1 X130.908 Y102.645 E39.98433
G1 X131.22 Y102.696 E40.02639
G1 X131.642 Y102.808 E40.08448
G1 X132.057 Y102.954 E40.14301
G1 X132.578 Y103.219 E40.22077
G1 X132.856 Y103.397 E40.26469
G1 X133.217 Y103.675 E40.32531
G1 X133.561 Y103.979 E40.38638
G1 X133.795 Y103.209 E40.49345
G1 X133.922 Y102.847 E40.54449
G1 X136.637 Y102.847 E40.90569
G1 X136.37 Y103.449 E40.99331
G1 X136.236 Y103.88 E41.05336
G1 X136.144 Y104.238 E41.10253
G1 X136.051 Y104.991 E41.20347
G1 X136.032 Y105.243 E41.23709
G1 X136.015 Y105.749 E41.30445
G1 X136.012 Y106.255 E41.37177
G1 X136.041 Y109.458 E41.79792
G1 X136.037 Y110.087 E41.8816
G1 X136.017 Y110.461 E41.93143
G1 X135.987 Y110.739 E41.96863
G1 X135.94 Y111.015 E42.00588
G1 X135.865 Y111.317 E42.04728
G1 X135.675 Y111.914 E42.13063
G1 X135.421 Y112.259 E42.18762
G1 X135.131 Y112.564 E42.24361
G1 X134.786 Y112.808 E42.29983
G1 X134.41 Y113.018 E42.35713
G1 X133.745 Y113.23 E42.44999
G1 X133.409 Y113.316 E42.49613
G1 X133.068 Y113.379 E42.54227
G1 X132.724 Y113.418 E42.58832
G1 X132.376 Y113.439 E42.63471
G1 X131.676 Y113.452 E42.72785
G1 X130.836 Y113.422 E42.83968
G1 X130.443 Y113.381 E42.89225
G1 X130.094 Y113.319 E42.9394
M204 S2000
G1 F2400 E42.1394
G1 F300 Z0.52
G0 F7500 X133.346 Y107.827 Z0.52
M204 S500
G1 F300 Z0.32
G1 F2400 E42.9394
G1 F1500 X133.346 Y106.943 E43.05701
G1 X133.331 Y106.574 E43.10614
G1 X133.295 Y106.274 E43.14634
G1 X133.238 Y105.942 E43.19116
G1 X133.128 Y105.678 E43.22921
G1 X132.987 Y105.434 E43.2667
G1 X132.8 Y105.224 E43.30411
G1 X132.584 Y105.034 E43.34238
G1 X132.257 Y104.834 E43.39338
G1 X131.915 Y104.675 E43.44355
G1 X131.549 Y104.588 E43.4936
G1 X131.168 Y104.546 E43.5446
G1 X130.675 Y104.593 E43.61049
G1 X130.318 Y104.784 E43.66435
G1 X130.074 Y104.966 E43.70485
G1 X129.895 Y105.184 E43.74238
G1 X129.755 Y105.419 E43.77877
G1 X129.68 Y105.682 E43.81515
G1 X129.645 Y105.962 E43.85269
G1 X129.692 Y106.251 E43.89165
G1 X129.788 Y106.513 E43.92877
G1 X129.962 Y106.733 E43.96609
G1 X130.182 Y106.929 E44.00529
G1 X130.541 Y107.091 E44.05769
G1 X130.909 Y107.225 E44.10979
G1 X131.29 Y107.325 E44.1622
G1 X132.516 Y107.597 E44.32927
G1 X133.346 Y107.827 E44.44385
M204 S2000
G1 F2400 E43.64385
G1 F300 Z0.52
G0 F7500 X138.541 Y113.218 Z0.52
M204 S500
G1 F300 Z0.32
G1 F2400 E44.44385
G1 F1500 X138.541 Y102.847 E45.82362
G1 X141.285 Y102.847 E46.18868
G1 X141.29 Y108.479 E46.93797
G1 X141.323 Y109.017 E47.00968
G1 X141.393 Y109.496 E47.07408
G1 X141.505 Y110.024 E47.14589
G1 X141.631 Y110.313 E47.18783
G1 X141.786 Y110.579 E47.22879
G1 X141.993 Y110.807 E47.26976
G1 X142.233 Y111.011 E47.31167
G1 X142.668 Y111.247 E47.37751
G1 X143.072 Y111.327 E47.4323
G1 X143.375 Y111.353 E47.47276
G1 X143.83 Y111.304 E47.53364
G1 X144.21 Y111.138 E47.58881
G1 X144.43 Y110.927 E47.62937
G1 X144.649 Y110.573 E47.68475
G1 X144.745 Y109.999 E47.76217
G1 X144.796 Y109.512 E47.82732
G1 X144.813 Y109.022 E47.89255
G1 X144.811 Y102.847 E48.71407
G1 X147.555 Y102.847 E49.07913
G1 X147.561 Y108.422 E49.82084
G1 X147.59 Y108.908 E49.88561
G1 X147.622 Y109.175 E49.92138
G1 X147.667 Y109.441 E49.95728
G1 X147.779 Y109.971 E50.02935
G1 X147.904 Y110.27 E50.07246
G1 X148.06 Y110.547 E50.11476
G1 X148.269 Y110.786 E50.15699
G1 X148.512 Y111.001 E50.20016
G1 X148.764 Y111.147 E50.23891
G1 X149.027 Y111.261 E50.27704
G1 X149.306 Y111.323 E50.31507
G1 X149.596 Y111.353 E50.35385
G1 X149.944 Y111.313 E50.40046
G1 X150.263 Y111.217 E50.44478
G1 X150.531 Y111.023 E50.48879
G1 X150.768 Y110.767 E50.53521
G1 X150.922 Y110.283 E50.60278
G1 X150.981 Y110.038 E50.63631
G1 X151.021 Y109.79 E50.66973
G1 X151.043 Y109.538 E50.70338
G1 X151.053 Y109.285 E50.73707
G1 X151.051 Y102.847 E51.59358
G1 X153.795 Y102.847 E51.95864
G1 X153.789 Y110.024 E52.91348
G1 X153.776 Y110.296 E52.9497
G1 X153.751 Y110.566 E52.98578
G1 X153.711 Y110.834 E53.02183
G1 X153.654 Y111.099 E53.05789
G1 X153.512 Y111.626 E53.1305
G1 X153.229 Y112.149 E53.20962
G1 X153.018 Y112.42 E53.25531
G1 X152.702 Y112.714 E53.31273
G1 X152.33 Y112.988 E53.3742
G1 X151.869 Y113.195 E53.44143
G1 X151.31 Y113.378 E53.51968
G1 X150.902 Y113.424 E53.57431
G1 X150.397 Y113.452 E53.6416
G1 X149.957 Y113.42 E53.70029
G1 X149.527 Y113.35 E53.75825
G1 X149.112 Y113.215 E53.81631
G1 X148.707 Y113.042 E53.8749
G1 X148.179 Y112.711 E53.95781
G1 X147.907 Y112.497 E54.00385
G1 X147.559 Y112.163 E54.06803
G1 X147.233 Y111.802 E54.13274
G1 X146.991 Y112.169 E54.19122
G1 X146.718 Y112.506 E54.24892
G1 X146.391 Y112.79 E54.30654
G1 X146.031 Y113.042 E54.36501
G1 X145.501 Y113.273 E54.44192
G1 X145.194 Y113.359 E54.48434
G1 X144.753 Y113.426 E54.54368
G1 X144.303 Y113.452 E54.60365
G1 X143.548 Y113.342 E54.70516
G1 X143.136 Y113.251 E54.76129
G1 X142.702 Y113.105 E54.82221
G1 X142.299 Y112.896 E54.88261
G1 X141.926 Y112.626 E54.94387
