;FLAVOR:Marlin
;TIME:72
;Filament used: 0.134695m
;Layer height: 0.32
;MINX:77.21
;MINY:36.444
;MINZ:0.32
;MAXX:142.854
;MAXY:183.52
;MAXZ:0.52
;TARGET_MACHINE.NAME:Creality Ender-3 S1
;POSTPROCESSED
;  [SearchAndReplace]
;Generated with Cura_SteamEngine 5.6.0
M82 ;absolute extrusion mode
; Ender 3 S1 Start G-code
; M413 S0 ; Disable power loss recovery
G92 E0 ; Reset Extruder

; Prep surfaces before auto home for better accuracy
M140 S60
M104 S200

G28 ; Home all axes
G1 Z10.0 F3000 ; Move Z Axis up little to prevent scratching of Heat Bed
G1 X0 Y0

M190 S60
M109 S200

G1 X0.1 Y20 Z0.3 F5000.0 ; Move to start position
G1 X0.1 Y200.0 Z0.3 F1500.0 E15 ; Draw the first line
G1 X0.4 Y200.0 Z0.3 F5000.0 ; Move to side a little
G1 X0.4 Y20 Z0.3 F1500.0 E30 ; Draw the second line
G92 E0 ; Reset Extruder
G1 Z2.0 F3000 ; Move Z Axis up little to prevent scratching of Heat Bed
G1 X5 Y20 Z0.3 F5000.0 ; Move over to prevent blob squish

G92 E0
G92 E0
G1 F2400 E-0.8
;LAYER_COUNT:1
;LAYER:0
M107
M204 S2000
G1 F300 Z0.52
;MESH:Body1.stl
G0 F7500 X120.048 Y180.834 Z0.52
M204 S500
;TYPE:WALL-INNER
G1 F300 Z0.32
G1 F2400 E0
G1 F1500 X118.974 Y180.541 E0.08886
G1 X118.002 Y180.213 E0.17075
G1 X117.071 Y179.84 E0.25081
G1 X116.179 Y179.411 E0.32982
G1 X115.285 Y178.897 E0.41214
G1 X114.48 Y178.354 E0.48965
G1 X113.657 Y177.718 E0.57268
G1 X112.883 Y177.048 E0.65439
G1 X111.196 Y175.433 E0.84082
G1 X110.871 Y175.138 E0.87585
G1 X110.436 Y174.785 E0.92057
G1 X110.14 Y174.624 E0.94747
G1 X110 Y174.623 E0.95864
G1 X109.75 Y174.736 E0.98054
G1 X109.54 Y174.884 E1.00105
G1 X109.263 Y175.108 E1.02949
G1 X108.931 Y175.407 E1.06515
G1 X108.111 Y176.201 E1.15627
G1 X106.771 Y177.405 E1.30006
G1 X105.433 Y178.416 E1.43393
G1 X104.009 Y179.292 E1.56739
G1 X102.546 Y180 E1.69713
G1 X101.018 Y180.547 E1.82668
G1 X99.505 Y180.924 E1.95114
G1 X97.894 Y181.157 E2.08108
G1 X96.165 Y181.239 E2.21925
G1 X95.043 Y181.201 E2.30887
G1 X93.913 Y181.081 E2.39957
G1 X92.796 Y180.889 E2.49005
G1 X91.603 Y180.611 E2.58783
G1 X90.473 Y180.271 E2.68202
G1 X89.452 Y179.897 E2.76882
G1 X88.418 Y179.434 E2.85925
G1 X87.414 Y178.88 E2.95079
G1 X86.583 Y178.315 E3.031
G1 X85.761 Y177.66 E3.1149
G1 X84.904 Y176.886 E3.20708
G1 X84.065 Y176.048 E3.30174
G1 X83.274 Y175.168 E3.39619
G1 X82.545 Y174.262 E3.48902
G1 X81.926 Y173.386 E3.57464
G1 X81.414 Y172.523 E3.65474
G1 X80.733 Y171.077 E3.78233
G1 X80.174 Y169.516 E3.91468
G1 X79.791 Y167.999 E4.03957
G1 X79.556 Y166.502 E4.16053
G1 X79.463 Y165.028 E4.27843
G1 X79.504 Y163.422 E4.40667
G1 X79.687 Y161.904 E4.52872
G1 X80.002 Y160.428 E4.64919
G1 X80.426 Y159.041 E4.76497
G1 X81.009 Y157.606 E4.88861
G1 X81.725 Y156.226 E5.01271
G1 X82.503 Y155.011 E5.12788
G1 X83.491 Y153.737 E5.25657
G1 X84.569 Y152.599 E5.3817
G1 X85.756 Y151.563 E5.50746
G1 X87.009 Y150.664 E5.63056
G1 X88.457 Y149.8 E5.76516
G1 X89.936 Y149.109 E5.89547
G1 X91.516 Y148.566 E6.02883
G1 X92.418 Y148.325 E6.10336
G1 X93.811 Y148.019 E6.21721
G1 X94.23 Y147.913 E6.25171
G1 X94.63 Y147.791 E6.28509
G1 X94.874 Y147.668 E6.3069
G1 X94.921 Y146.657 E6.38769
G1 X94.981 Y143.935 E6.60502
G1 X95.044 Y138.783 E7.01631
G1 X95.158 Y110.199 E9.29803
G1 X95.069 Y80.611 E11.65988
G1 X94.993 Y74.958 E12.11117
G1 X94.941 Y72.992 E12.26816
G1 X94.903 Y72.451 E12.31145
G1 X94.798 Y72.266 E12.32843
G1 X94.338 Y72.103 E12.36738
G1 X93.784 Y71.954 E12.41318
G1 X91.919 Y71.526 E12.56592
G1 X90.474 Y71.107 E12.68602
G1 X89.169 Y70.574 E12.79854
G1 X87.788 Y69.85 E12.92301
G1 X86.452 Y68.981 E13.05023
G1 X85.291 Y68.074 E13.16783
G1 X84.154 Y67.014 E13.29192
G1 X83.07 Y65.792 E13.42231
G1 X82.183 Y64.561 E13.54343
G1 X81.592 Y63.57 E13.63553
G1 X81.023 Y62.436 E13.73681
G1 X80.578 Y61.358 E13.8299
G1 X80.183 Y60.166 E13.93014
G1 X79.885 Y58.986 E14.02729
G1 X79.67 Y57.802 E14.12335
G1 X79.547 Y56.651 E14.21575
G1 X79.497 Y55.445 E14.3121
G1 X79.533 Y54.187 E14.41256
G1 X79.656 Y52.986 E14.50893
G1 X79.861 Y51.809 E14.6043
G1 X80.148 Y50.646 E14.69992
G1 X80.501 Y49.558 E14.79123
G1 X80.978 Y48.387 E14.89216
G1 X81.505 Y47.327 E14.98665
G1 X82.109 Y46.317 E15.08059
G1 X82.753 Y45.39 E15.17069
G1 X83.394 Y44.581 E15.25309
G1 X84.068 Y43.828 E15.33375
G1 X84.79 Y43.113 E15.41487
G1 X86.381 Y41.806 E15.57923
G1 X88.118 Y40.717 E15.74288
G1 X89.923 Y39.881 E15.90166
G1 X91.844 Y39.266 E16.06267
G1 X93.868 Y38.884 E16.22709
G1 X94.935 Y38.783 E16.31264
G1 X96.033 Y38.75 E16.40033
G1 X97.769 Y38.822 E16.53902
G1 X99.439 Y39.051 E16.67358
G1 X100.969 Y39.42 E16.79921
G1 X102.531 Y39.977 E16.93159
G1 X103.98 Y40.678 E17.06008
G1 X105.374 Y41.537 E17.19078
G1 X106.797 Y42.625 E17.33377
G1 X108.092 Y43.807 E17.47373
G1 X109.144 Y44.815 E17.59003
G1 X109.495 Y45.119 E17.62709
G1 X109.721 Y45.286 E17.64953
G1 X109.963 Y45.389 E17.67052
G1 X110.397 Y45.302 E17.70585
G1 X110.583 Y45.211 E17.72238
G1 X110.837 Y44.997 E17.74889
G1 X111.238 Y44.541 E17.79737
G1 X111.75 Y43.998 E17.85694
G1 X112.363 Y43.409 E17.9248
G1 X113.801 Y42.182 E18.0757
G1 X115.286 Y41.153 E18.21991
G1 X116.831 Y40.315 E18.36021
G1 X118.456 Y39.649 E18.5004
G1 X120.165 Y39.152 E18.64247
G1 X121.835 Y38.857 E18.77784
G1 X123.632 Y38.729 E18.92165
G1 X125.28 Y38.777 E19.05326
G1 X127.012 Y39.005 E19.1927
G1 X128.724 Y39.417 E19.33327
G1 X130.297 Y39.963 E19.46618
G1 X131.833 Y40.682 E19.60156
G1 X133.328 Y41.583 E19.74089
G1 X134.696 Y42.616 E19.87773
G1 X136.006 Y43.852 E20.02149
G1 X137.125 Y45.171 E20.15957
G1 X138.155 Y46.704 E20.30699
G1 X138.718 Y47.722 E20.39986
G1 X139.165 Y48.644 E20.48165
G1 X139.595 Y49.689 E20.57185
G1 X139.914 Y50.654 E20.65298
G1 X140.167 Y51.645 E20.73462
G1 X140.354 Y52.669 E20.81771
G1 X140.476 Y53.735 E20.90336
G1 X140.529 Y54.799 E20.9884
G1 X140.539 Y55.889 E21.07541
G1 X140.49 Y56.895 E21.15581
G1 X140.212 Y58.876 E21.31549
G1 X139.976 Y59.852 E21.39565
G1 X139.678 Y60.827 E21.47703
G1 X139.329 Y61.768 E21.55714
G1 X138.882 Y62.822 E21.64853
G1 X138.395 Y63.82 E21.73718
G1 X137.8 Y64.743 E21.82484
G1 X137.386 Y65.262 E21.87783
G1 X136.944 Y65.759 E21.93092
G1 X136.312 Y66.428 E22.00439
G1 X134.735 Y67.979 E22.18095
G1 X133.709 Y68.874 E22.28963
G1 X132.674 Y69.625 E22.39171
G1 X131.605 Y70.243 E22.49027
G1 X130.389 Y70.785 E22.59655
G1 X129.114 Y71.225 E22.70421
G1 X128.385 Y71.442 E22.76493
G1 X127.566 Y71.66 E22.83258
G1 X125.813 Y72.081 E22.97649
G1 X125.446 Y72.186 E23.00696
G1 X125.157 Y72.346 E23.03333
G1 X125.125 Y72.906 E23.0781
G1 X125.067 Y75.245 E23.26487
G1 X124.992 Y81.163 E23.73731
G1 X124.859 Y115.185 E26.45311
G1 X124.941 Y142.292 E28.61692
G1 X124.974 Y144.792 E28.8165
G1 X125.014 Y146.542 E28.95623
G1 X125.056 Y147.391 E29.02408
G1 X125.171 Y147.669 E29.0481
G1 X125.571 Y147.825 E29.08237
G1 X126.145 Y147.995 E29.13016
G1 X126.914 Y148.19 E29.19348
G1 X127.976 Y148.442 E29.28061
G1 X129.449 Y148.879 E29.40326
G1 X130.939 Y149.49 E29.53181
G1 X132.277 Y150.193 E29.65246
G1 X133.569 Y151.028 E29.77525
G1 X134.848 Y152.027 E29.9048
G1 X135.972 Y153.087 E30.02813
G1 X136.976 Y154.23 E30.14957
G1 X137.871 Y155.47 E30.27164
G1 X138.671 Y156.866 E30.40008
G1 X139.288 Y158.222 E30.519
G1 X139.798 Y159.669 E30.64147
G1 X140.162 Y161.083 E30.75802
G1 X140.403 Y162.52 E30.87433
G1 X140.524 Y164.048 E30.99668
G1 X140.519 Y165.47 E31.11019
G1 X140.382 Y166.965 E31.23003
G1 X140.132 Y168.371 E31.34402
G1 X139.765 Y169.754 E31.45824
G1 X139.256 Y171.153 E31.57708
G1 X138.657 Y172.439 E31.69032
G1 X137.881 Y173.762 E31.81275
G1 X137.047 Y174.931 E31.92738
G1 X136.092 Y176.032 E32.04372
G1 X135.031 Y177.043 E32.16071
G1 X134.16 Y177.756 E32.25056
G1 X133.234 Y178.417 E32.34138
G1 X132.37 Y178.956 E32.42267
G1 X131.4 Y179.482 E32.51075
G1 X130.422 Y179.935 E32.59678
G1 X129.423 Y180.322 E32.6823
G1 X128.399 Y180.647 E32.76806
G1 X127.368 Y180.9 E32.8528
G1 X126.365 Y181.085 E32.93422
G1 X125.32 Y181.213 E33.01826
G1 X124.257 Y181.272 E33.10324
G1 X123.189 Y181.265 E33.18849
G1 X122.09 Y181.184 E33.27646
G1 X121.05 Y181.04 E33.36027
G1 X120.048 Y180.834 E33.44193
M204 S2000
G1 F2400 E32.64193
G1 F300 Z0.52
G0 F7500 X119.872 Y182.453 Z0.52
M204 S500
G1 F300 Z0.32
G1 F2400 E33.44193
G1 F1500 X121.234 Y182.712 E33.55259
G1 X122.558 Y182.863 E33.65897
G1 X123.944 Y182.92 E33.7697
G1 X125.303 Y182.873 E33.87824
G1 X126.689 Y182.724 E33.98952
G1 X128.038 Y182.478 E34.09898
G1 X129.396 Y182.124 E34.211
G1 X130.686 Y181.68 E34.3199
G1 X132 Y181.116 E34.43405
G1 X133.229 Y180.474 E34.54473
G1 X134.126 Y179.897 E34.62987
G1 X135.065 Y179.17 E34.72466
G1 X136.057 Y178.294 E34.8303
G1 X136.984 Y177.385 E34.93394
G1 X137.891 Y176.4 E35.04082
G1 X138.712 Y175.404 E35.14385
G1 X139.399 Y174.451 E35.23763
G1 X139.92 Y173.585 E35.31831
G1 X140.467 Y172.479 E35.4168
G1 X140.937 Y171.371 E35.51287
G1 X141.327 Y170.287 E35.60483
G1 X141.654 Y169.167 E35.69797
G1 X141.912 Y168.037 E35.79049
G1 X142.1 Y166.901 E35.88241
G1 X142.212 Y165.781 E35.97225
G1 X142.254 Y164.632 E36.06403
G1 X142.226 Y163.564 E36.14932
G1 X142.125 Y162.417 E36.24123
G1 X141.952 Y161.299 E36.33153
G1 X141.715 Y160.21 E36.4205
G1 X141.393 Y159.066 E36.51537
G1 X140.999 Y157.932 E36.61119
G1 X140.54 Y156.824 E36.70693
G1 X140.037 Y155.778 E36.79958
G1 X139.522 Y154.875 E36.88256
G1 X138.924 Y154.035 E36.96487
G1 X138.558 Y153.595 E37.01055
G1 X138.122 Y153.108 E37.06273
G1 X137.597 Y152.548 E37.124
G1 X136.975 Y151.905 E37.19541
G1 X136.002 Y150.962 E37.30357
G1 X135.1 Y150.158 E37.40003
G1 X134.303 Y149.523 E37.48137
G1 X133.514 Y148.98 E37.55783
G1 X132.664 Y148.49 E37.63614
G1 X131.741 Y148.049 E37.7178
G1 X130.725 Y147.64 E37.80523
G1 X127.211 Y146.429 E38.10192
G1 X126.962 Y146.296 E38.12445
G1 X126.728 Y146.033 E38.15255
G1 X126.605 Y145.71 E38.18014
G1 X126.605 Y74.386 E43.87353
G1 X126.677 Y74.053 E43.90073
G1 X126.867 Y73.773 E43.92774
G1 X127.147 Y73.583 E43.95475
G1 X129.195 Y72.947 E44.12593
G1 X130.972 Y72.309 E44.27664
G1 X132.683 Y71.479 E44.42845
G1 X134.283 Y70.482 E44.57893
G1 X135.766 Y69.329 E44.72888
G1 X137.131 Y68.021 E44.87979
G1 X138.371 Y66.561 E45.03269
G1 X139.471 Y64.963 E45.18755
G1 X140.405 Y63.264 E45.34232
G1 X140.869 Y62.214 E45.43395
G1 X141.253 Y61.146 E45.52455
G1 X141.563 Y60.06 E45.6147
G1 X141.805 Y58.934 E45.70663
G1 X141.977 Y57.79 E45.79898
G1 X142.079 Y56.623 E45.89249
G1 X142.111 Y55.419 E45.98863
G1 X142.072 Y54.251 E46.08192
G1 X141.96 Y53.053 E46.17797
G1 X141.784 Y51.909 E46.27036
G1 X141.542 Y50.788 E46.3619
G1 X141.216 Y49.627 E46.45816
G1 X140.832 Y48.522 E46.55154
G1 X140.385 Y47.466 E46.64308
G1 X139.875 Y46.45 E46.73382
G1 X139.291 Y45.463 E46.82537
G1 X139.083 Y45.162 E46.85458
G1 X138.845 Y44.846 E46.88615
G1 X138.193 Y44.043 E46.96872
G1 X136.668 Y42.378 E47.14895
G1 X135.741 Y41.52 E47.24978
G1 X134.723 Y40.7 E47.35413
G1 X133.702 Y39.988 E47.45349
G1 X132.635 Y39.349 E47.55276
G1 X131.526 Y38.785 E47.65208
G1 X130.387 Y38.3 E47.7509
G1 X129.221 Y37.897 E47.84938
G1 X128.045 Y37.579 E47.94662
G1 X126.847 Y37.343 E48.04409
G1 X125.635 Y37.191 E48.14159
G1 X124.38 Y37.12 E48.24193
G1 X123.149 Y37.135 E48.34021
G1 X121.891 Y37.239 E48.44097
G1 X120.68 Y37.425 E48.53877
G1 X119.424 Y37.707 E48.64152
G1 X118.222 Y38.069 E48.74173
G1 X116.4 Y38.77 E48.89756
G1 X114.708 Y39.597 E49.04789
G1 X113.97 Y40.025 E49.11599
G1 X113.332 Y40.44 E49.17675
G1 X112.773 Y40.857 E49.23242
G1 X112.287 Y41.286 E49.28416
G1 X111.808 Y41.735 E49.33657
G1 X111.35 Y42.109 E49.38377
G1 X110.882 Y42.389 E49.42731
G1 X110.275 Y42.538 E49.4772
G1 X109.64 Y42.444 E49.52844
G1 X109.148 Y42.209 E49.57196
G1 X108.602 Y41.841 E49.62452
G1 X108.096 Y41.447 E49.67571
G1 X106.81 Y40.477 E49.8043
G1 X105.528 Y39.655 E49.92586
G1 X104.197 Y38.938 E50.04654
G1 X102.82 Y38.329 E50.16673
G1 X101.434 Y37.845 E50.28392
G1 X100.012 Y37.471 E50.40129
G1 X98.595 Y37.213 E50.51626
G1 X97.15 Y37.071 E50.63216
G1 X95.688 Y37.046 E50.74888
G1 X94.26 Y37.134 E50.86309
G1 X92.834 Y37.337 E50.97806
G1 X91.405 Y37.661 E51.09503
G1 X89.981 Y38.101 E51.214
G1 X88.588 Y38.658 E51.33375
G1 X87.22 Y39.332 E51.45549
G1 X85.887 Y40.12 E51.5791
G1 X85.163 Y40.646 E51.65053
G1 X84.314 Y41.361 E51.73913
G1 X83.478 Y42.158 E51.83133
G1 X82.623 Y43.053 E51.93014
G1 X81.839 Y43.952 E52.02535
G1 X81.116 Y44.87 E52.11863
G1 X80.504 Y45.746 E52.20393
G1 X80.034 Y46.542 E52.27772
G1 X79.408 Y47.842 E52.3929
G1 X78.904 Y49.108 E52.50167
G1 X78.482 Y50.438 E52.61305
G1 X78.17 Y51.741 E52.72
G1 X77.947 Y53.103 E52.83017
G1 X77.83 Y54.414 E52.93524
G1 X77.81 Y55.726 E53.03998
G1 X77.89 Y57.077 E53.14801
G1 X78.069 Y58.414 E53.25569
G1 X78.339 Y59.7 E53.36058
G1 X78.702 Y60.966 E53.46571
G1 X79.188 Y62.283 E53.57777
G1 X79.743 Y63.509 E53.68519
G1 X80.405 Y64.739 E53.79669
G1 X81.168 Y65.941 E53.91034
G1 X82.008 Y67.082 E54.02344
G1 X82.814 Y67.991 E54.12042
G1 X83.805 Y68.909 E54.22825
G1 X84.941 Y69.807 E54.34384
G1 X86.177 Y70.652 E54.46336
G1 X87.473 Y71.42 E54.58361
G1 X88.81 Y72.098 E54.70327
G1 X90.122 Y72.644 E54.81671
G1 X91.372 Y73.041 E54.9214
G1 X92.739 Y73.385 E55.03392
G1 X93.055 Y73.535 E55.06184
G1 X93.258 Y73.743 E55.08504
G1 X93.419 Y74.232 E55.12614
G1 X93.403 Y145.769 E60.83653
G1 X93.251 Y146.133 E60.86802
G1 X93.034 Y146.361 E60.89314
G1 X92.76 Y146.497 E60.91756
G1 X90.829 Y147.077 E61.07851
G1 X89.677 Y147.459 E61.17539
G1 X88.672 Y147.85 E61.26147
G1 X87.688 Y148.305 E61.34801
G1 X86.834 Y148.781 E61.42605
G1 X85.959 Y149.358 E61.50972
G1 X85.136 Y149.991 E61.5926
G1 X84.254 Y150.764 E61.68621
G1 X83.346 Y151.648 E61.78737
G1 X82.527 Y152.495 E61.88142
G1 X81.837 Y153.259 E61.9636
G1 X81.214 Y154.027 E62.04254
G1 X80.704 Y154.735 E62.11219
G1 X80.221 Y155.507 E62.18488
G1 X79.814 Y156.263 E62.25342
G1 X79.4 Y157.155 E62.33191
G1 X79.039 Y158.039 E62.40814
G1 X78.497 Y159.7 E62.54761
G1 X78.13 Y161.384 E62.68518
G1 X77.924 Y163.128 E62.82537
G1 X77.879 Y164.931 E62.96933
G1 X77.994 Y166.665 E63.10805
G1 X78.276 Y168.448 E63.25215
G1 X78.715 Y170.143 E63.39192
G1 X79.316 Y171.788 E63.53172
G1 X80.194 Y173.585 E63.69137
G1 X81.242 Y175.234 E63.84733
G1 X82.489 Y176.779 E64.00582
G1 X83.879 Y178.159 E64.16217
G1 X85.434 Y179.398 E64.32088
G1 X87.144 Y180.483 E64.48254
G1 X88.988 Y181.398 E64.64686
G1 X90.965 Y182.138 E64.81537
G1 X92.211 Y182.477 E64.91844
G1 X93.524 Y182.714 E65.02495
G1 X94.909 Y182.849 E65.13603
G1 X96.301 Y182.883 E65.24718
G1 X97.724 Y182.811 E65.36091
G1 X99.131 Y182.635 E65.4741
G1 X100.453 Y182.367 E65.58177
G1 X101.73 Y181.995 E65.68795
G1 X103.673 Y181.238 E65.8544
G1 X104.548 Y180.833 E65.93137
G1 X105.395 Y180.39 E66.00767
G1 X106.101 Y179.974 E66.07308
G1 X106.799 Y179.506 E66.14016
G1 X107.361 Y179.069 E66.19699
G1 X107.921 Y178.559 E66.25745
G1 X108.72 Y177.873 E66.34151
G1 X109.122 Y177.603 E66.38017
G1 X109.36 Y177.488 E66.40127
G1 X109.794 Y177.389 E66.4368
G1 X110.358 Y177.525 E66.48311
G1 X110.946 Y177.837 E66.53625
G1 X111.664 Y178.305 E66.60466
G1 X113.538 Y179.694 E66.79086
G1 X114.745 Y180.453 E66.90468
G1 X115.958 Y181.089 E67.014
G1 X117.24 Y181.645 E67.12555
G1 X118.523 Y182.092 E67.234
G1 X119.872 Y182.453 E67.34547
M204 S2000
G0 F7500 X119.738 Y183.039
M204 S500
;TYPE:WALL-OUTER
G1 F1500 X121.144 Y183.306 E67.45971
G1 X122.512 Y183.462 E67.56962
G1 X123.942 Y183.52 E67.68386
G1 X125.345 Y183.472 E67.79592
G1 X126.775 Y183.318 E67.91073
G1 X128.168 Y183.064 E68.02376
G1 X129.57 Y182.699 E68.1394
G1 X130.902 Y182.24 E68.25186
G1 X132.258 Y181.658 E68.36966
G1 X133.568 Y180.973 E68.48766
G1 X134.474 Y180.387 E68.57379
G1 X135.447 Y179.633 E68.67205
G1 X136.45 Y178.749 E68.77877
G1 X137.415 Y177.803 E68.88664
G1 X138.343 Y176.794 E68.99607
G1 X139.187 Y175.771 E69.10193
G1 X139.901 Y174.782 E69.1993
G1 X140.448 Y173.873 E69.28399
G1 X141.013 Y172.729 E69.38584
G1 X141.497 Y171.59 E69.48463
G1 X141.898 Y170.473 E69.57936
G1 X142.235 Y169.318 E69.6754
G1 X142.502 Y168.153 E69.77081
G1 X142.696 Y166.98 E69.86571
G1 X142.811 Y165.822 E69.95861
G1 X142.854 Y164.616 E70.05494
G1 X142.826 Y163.548 E70.14022
G1 X142.721 Y162.345 E70.23661
G1 X142.55 Y161.234 E70.32634
G1 X142.297 Y160.065 E70.42182
G1 X141.966 Y158.886 E70.51957
G1 X141.57 Y157.742 E70.6162
