;FLAVOR:Marlin
;TIME:72
;Filament used: 0.134696m
;Layer height: 0.32
;MINX:42.728
;MINY:42.673
;MINZ:0.32
;MAXX:177.274
;MAXY:177.328
;MAXZ:0.52
;TARGET_MACHINE.NAME:Creality Ender-3 S1
;POSTPROCESSED
;  [SearchAndReplace]
;Generated with Cura_SteamEngine 5.6.0
M82 ;absolute extrusion mode
; Ender 3 S1 Start G-code
; M413 S0 ; Disable power loss recovery
G92 E0 ; Reset Extruder

; Prep surfaces before auto home for better accuracy
M140 S60
M104 S200

G28 ; Home all axes
G1 Z10.0 F3000 ; Move Z Axis up little to prevent scratching of Heat Bed
G1 X0 Y0

M190 S60
M109 S200

G1 X0.1 Y20 Z0.3 F5000.0 ; Move to start position
G1 X0.1 Y200.0 Z0.3 F1500.0 E15 ; Draw the first line
G1 X0.4 Y200.0 Z0.3 F5000.0 ; Move to side a little
G1 X0.4 Y20 Z0.3 F1500.0 E30 ; Draw the second line
G92 E0 ; Reset Extruder
G1 Z2.0 F3000 ; Move Z Axis up little to prevent scratching of Heat Bed
G1 X5 Y20 Z0.3 F5000.0 ; Move over to prevent blob squish

G92 E0
G92 E0
G1 F2400 E-0.8
;LAYER_COUNT:1
;LAYER:0
M107
M204 S2000
G1 F300 Z0.52
;MESH:Body1.stl
G0 F7500 X88.08 Y173.618 Z0.52
M204 S500
;TYPE:WALL-INNER
G1 F300 Z0.32
G1 F2400 E0
G1 F1500 X86.948 Y174.091 E0.09793
G1 X85.84 Y174.461 E0.19118
G1 X84.683 Y174.755 E0.28647
G1 X83.594 Y174.95 E0.37478
G1 X82.589 Y175.068 E0.45556
G1 X81.536 Y175.128 E0.53975
G1 X80.519 Y175.123 E0.62093
G1 X78.476 Y174.921 E0.78481
G1 X76.485 Y174.464 E0.94787
G1 X74.612 Y173.777 E1.10712
G1 X72.83 Y172.86 E1.2671
G1 X71.112 Y171.689 E1.43306
G1 X70.297 Y171.013 E1.51758
G1 X69.508 Y170.272 E1.60399
G1 X68.317 Y168.979 E1.74431
G1 X67.329 Y167.679 E1.87465
G1 X66.476 Y166.288 E2.0049
G1 X65.758 Y164.766 E2.13924
G1 X65.228 Y163.229 E2.26902
G1 X64.849 Y161.601 E2.40244
G1 X64.624 Y159.914 E2.5383
G1 X64.546 Y158.212 E2.6743
G1 X64.534 Y157.315 E2.74591
G1 X64.512 Y156.656 E2.79855
G1 X64.482 Y156.24 E2.83184
G1 X64.44 Y155.961 E2.85436
G1 X64.34 Y155.713 E2.87571
G1 X63.971 Y155.468 E2.91106
G1 X63.776 Y155.4 E2.92755
G1 X63.455 Y155.374 E2.95326
G1 X62.809 Y155.412 E3.00491
G1 X62.136 Y155.433 E3.05866
G1 X61.195 Y155.414 E3.13379
G1 X59.362 Y155.267 E3.28058
G1 X57.653 Y154.962 E3.41915
G1 X55.931 Y154.457 E3.5624
G1 X54.286 Y153.772 E3.70464
G1 X52.712 Y152.904 E3.84812
G1 X51.319 Y151.934 E3.98362
G1 X49.967 Y150.762 E4.12645
G1 X48.833 Y149.556 E4.25859
G1 X47.771 Y148.172 E4.39784
G1 X46.887 Y146.737 E4.53238
G1 X46.124 Y145.165 E4.67187
G1 X45.551 Y143.582 E4.80625
G1 X45.125 Y141.876 E4.94661
G1 X44.891 Y140.192 E5.08233
G1 X44.842 Y138.386 E5.22654
G1 X44.994 Y136.585 E5.37082
G1 X45.346 Y134.814 E5.51495
G1 X45.658 Y133.731 E5.60492
G1 X45.991 Y132.765 E5.68648
G1 X46.435 Y131.712 E5.7777
G1 X46.884 Y130.814 E5.85785
G1 X47.413 Y129.921 E5.9407
G1 X47.998 Y129.074 E6.02287
G1 X48.654 Y128.249 E6.107
G1 X49.38 Y127.446 E6.19342
G1 X50.15 Y126.668 E6.28079
G1 X50.931 Y125.959 E6.36499
G1 X52.508 Y124.776 E6.52236
G1 X53.359 Y124.258 E6.60189
G1 X54.245 Y123.788 E6.68195
G1 X55.206 Y123.344 E6.76645
G1 X56.201 Y122.947 E6.85196
G1 X57.276 Y122.577 E6.94271
G1 X58.341 Y122.346 E7.0297
G1 X59.001 Y122.271 E7.08273
G1 X59.652 Y122.232 E7.13479
G1 X60.427 Y122.212 E7.19667
G1 X61.329 Y122.206 E7.26867
G1 X62.791 Y122.225 E7.38539
G1 X64.164 Y122.32 E7.49525
G1 X65.415 Y122.517 E7.59634
G1 X66.614 Y122.836 E7.69538
G1 X67.843 Y123.308 E7.80047
G1 X69.045 Y123.89 E7.90707
G1 X69.727 Y124.26 E7.96901
G1 X70.475 Y124.692 E8.03796
G1 X72.001 Y125.628 E8.18086
G1 X72.346 Y125.818 E8.2123
G1 X72.665 Y125.909 E8.23878
G1 X73.398 Y125.233 E8.31837
G1 X74.25 Y124.422 E8.41227
G1 X77.394 Y121.371 E8.76198
G1 X84.478 Y114.398 E9.55544
G1 X117.039 Y81.904 E13.22743
G1 X122.953 Y75.905 E13.89987
G1 X125.165 Y73.605 E14.15459
G1 X125.785 Y72.934 E14.22752
G1 X125.909 Y72.634 E14.25343
G1 X125.743 Y72.253 E14.28661
G1 X125.451 Y71.718 E14.33526
G1 X125.042 Y71.031 E14.39908
G1 X124.451 Y70.068 E14.48927
G1 X123.74 Y68.755 E14.60846
G1 X123.119 Y67.27 E14.73695
G1 X122.67 Y65.831 E14.85728
G1 X122.332 Y64.24 E14.98711
G1 X122.149 Y62.695 E15.11131
G1 X122.107 Y61.121 E15.23699
G1 X122.211 Y59.565 E15.36148
G1 X122.467 Y58.043 E15.48468
G1 X122.852 Y56.641 E15.60073
G1 X123.39 Y55.194 E15.72396
G1 X124.059 Y53.798 E15.84753
G1 X124.782 Y52.574 E15.96101
G1 X125.639 Y51.367 E16.07918
G1 X126.621 Y50.215 E16.20001
G1 X127.639 Y49.205 E16.31448
G1 X128.809 Y48.229 E16.4361
G1 X129.934 Y47.444 E16.54561
G1 X131.207 Y46.703 E16.66318
G1 X132.551 Y46.074 E16.78164
G1 X133.896 Y45.585 E16.89588
G1 X135.283 Y45.217 E17.01042
G1 X136.792 Y44.962 E17.13258
G1 X138.238 Y44.861 E17.24829
G1 X139.789 Y44.899 E17.37214
G1 X140.872 Y45.012 E17.45906
G1 X141.948 Y45.194 E17.54617
G1 X143.007 Y45.441 E17.63297
G1 X144.04 Y45.752 E17.71908
G1 X145.001 Y46.104 E17.80078
G1 X145.99 Y46.54 E17.88706
G1 X146.96 Y47.048 E17.97446
G1 X147.818 Y47.562 E18.0543
G1 X148.729 Y48.189 E18.14258
G1 X149.525 Y48.812 E18.22327
G1 X150.324 Y49.526 E18.3088
G1 X151.073 Y50.284 E18.39387
G1 X151.771 Y51.095 E18.47928
G1 X152.413 Y51.941 E18.56405
G1 X153.012 Y52.854 E18.65122
G1 X153.518 Y53.738 E18.73252
G1 X153.99 Y54.69 E18.81734
G1 X154.39 Y55.629 E18.89882
G1 X154.72 Y56.567 E18.97819
G1 X154.961 Y57.454 E19.05156
G1 X155.159 Y58.452 E19.13278
G1 X155.297 Y59.517 E19.2185
G1 X155.375 Y60.608 E19.30581
G1 X155.406 Y61.732 E19.39557
G1 X155.425 Y62.905 E19.48922
G1 X155.445 Y63.326 E19.52286
G1 X155.479 Y63.68 E19.55125
G1 X155.544 Y64.079 E19.58352
G1 X155.655 Y64.273 E19.60136
G1 X155.828 Y64.376 E19.61743
G1 X156.207 Y64.447 E19.64821
G1 X156.561 Y64.483 E19.67662
G1 X157.005 Y64.507 E19.71211
G1 X158.185 Y64.527 E19.80632
G1 X159.952 Y64.621 E19.94756
G1 X161.615 Y64.852 E20.08159
G1 X163.221 Y65.235 E20.21338
G1 X164.77 Y65.774 E20.3443
G1 X166.213 Y66.45 E20.4715
G1 X167.574 Y67.269 E20.59829
G1 X168.875 Y68.242 E20.72798
G1 X170.16 Y69.412 E20.8667
G1 X170.932 Y70.24 E20.95707
G1 X171.605 Y71.071 E21.04242
G1 X172.287 Y72.03 E21.13636
G1 X172.929 Y73.06 E21.23324
G1 X173.471 Y74.064 E21.32432
G1 X173.956 Y75.109 E21.41628
G1 X174.368 Y76.193 E21.50885
G1 X174.672 Y77.241 E21.59595
G1 X174.864 Y78.255 E21.67833
G1 X174.983 Y79.306 E21.76277
G1 X175.045 Y80.479 E21.85653
G1 X175.039 Y81.69 E21.9532
G1 X174.975 Y82.864 E22.04705
G1 X174.855 Y83.975 E22.13625
G1 X174.666 Y85.078 E22.22558
G1 X174.408 Y86.067 E22.30717
G1 X173.855 Y87.583 E22.43598
G1 X173.217 Y88.931 E22.55503
G1 X172.42 Y90.28 E22.6801
G1 X171.49 Y91.56 E22.8064
G1 X170.503 Y92.685 E22.92586
G1 X169.336 Y93.791 E23.05421
G1 X168.145 Y94.727 E23.17513
G1 X166.93 Y95.519 E23.2909
G1 X165.593 Y96.235 E23.41196
G1 X164.162 Y96.839 E23.53595
G1 X162.685 Y97.308 E23.65965
G1 X161.187 Y97.632 E23.78199
G1 X159.744 Y97.813 E23.89808
G1 X158.101 Y97.86 E24.02929
G1 X156.53 Y97.753 E24.15498
G1 X154.976 Y97.496 E24.28071
G1 X153.378 Y97.09 E24.41233
G1 X151.807 Y96.517 E24.54581
G1 X150.378 Y95.82 E24.67273
G1 X149.526 Y95.329 E24.75122
G1 X148.321 Y94.558 E24.86541
G1 X147.981 Y94.353 E24.89711
G1 X147.588 Y94.142 E24.93271
G1 X147.332 Y94.059 E24.95419
G1 X146.93 Y94.424 E24.99754
G1 X145.723 Y95.563 E25.13001
G1 X143.292 Y97.915 E25.40002
G1 X135.318 Y105.758 E26.29283
G1 X115.691 Y125.304 E28.50393
G1 X102.4 Y138.678 E30.00902
G1 X96.3 Y144.903 E30.70474
G1 X95.11 Y146.15 E30.84233
G1 X94.426 Y146.886 E30.92253
G1 X94.127 Y147.228 E30.9588
G1 X94.062 Y147.415 E30.9746
G1 X94.281 Y147.876 E31.01534
G1 X94.565 Y148.371 E31.06089
G1 X94.992 Y149.063 E31.1258
G1 X95.585 Y149.995 E31.21398
G1 X96.305 Y151.309 E31.33358
G1 X96.877 Y152.676 E31.45187
G1 X97.318 Y154.098 E31.57072
G1 X97.639 Y155.599 E31.69324
G1 X97.827 Y157.113 E31.81502
G1 X97.878 Y158.758 E31.9464
G1 X97.786 Y160.29 E32.06891
G1 X97.547 Y161.773 E32.18882
G1 X97.243 Y162.972 E32.28755
G1 X96.86 Y164.123 E32.38438
G1 X96.399 Y165.226 E32.47981
G1 X95.852 Y166.315 E32.57709
G1 X95.225 Y167.367 E32.67485
G1 X94.537 Y168.358 E32.77115
G1 X93.777 Y169.302 E32.86789
G1 X92.969 Y170.177 E32.96296
G1 X92.08 Y171.012 E33.06032
G1 X91.15 Y171.766 E33.15589
G1 X90.17 Y172.456 E33.25156
G1 X89.134 Y173.084 E33.34827
G1 X88.08 Y173.618 E33.44258
M204 S2000
G1 F2400 E32.64258
G1 F300 Z0.52
G0 F7500 X88.957 Y175.032 Z0.52
M204 S500
G1 F300 Z0.32
G1 F2400 E33.44258
G1 F1500 X90.169 Y174.403 E33.55158
G1 X91.33 Y173.694 E33.66017
G1 X92.423 Y172.905 E33.76778
G1 X93.444 Y172.053 E33.87393
G1 X94.398 Y171.128 E33.98
G1 X95.273 Y170.141 E34.08529
G1 X96.097 Y169.064 E34.19354
G1 X96.814 Y167.967 E34.29815
G1 X97.467 Y166.786 E34.40587
G1 X98.038 Y165.554 E34.51426
G1 X98.516 Y164.286 E34.62244
G1 X98.924 Y162.918 E34.73639
G1 X99.235 Y161.534 E34.84962
G1 X99.445 Y160.143 E34.96191
G1 X99.52 Y158.921 E35.05964
G1 X99.469 Y157.567 E35.1678
G1 X99.303 Y156.166 E35.28042
G1 X99.012 Y154.63 E35.40521
G1 X98.649 Y153.211 E35.52213
G1 X98.174 Y151.764 E35.6437
G1 X97.648 Y150.483 E35.75424
G1 X97.05 Y149.328 E35.85806
G1 X96.317 Y148.093 E35.9727
G1 X96.201 Y147.77 E36.00009
G1 X96.192 Y147.569 E36.01615
G1 X96.32 Y147.167 E36.04983
G1 X96.454 Y146.995 E36.06724
G1 X146.953 Y96.522 E41.76653
G1 X147.227 Y96.345 E41.79257
G1 X147.622 Y96.26 E41.82482
G1 X147.999 Y96.384 E41.8565
G1 X149.764 Y97.333 E42.01647
G1 X150.84 Y97.875 E42.11264
G1 X151.896 Y98.336 E42.20462
G1 X152.868 Y98.693 E42.28727
G1 X153.804 Y98.959 E42.36495
G1 X154.818 Y99.166 E42.44756
G1 X155.889 Y99.307 E42.53379
G1 X157.004 Y99.381 E42.62299
G1 X158.296 Y99.399 E42.72613
G1 X159.466 Y99.381 E42.81954
G1 X160.532 Y99.322 E42.90476
G1 X161.5 Y99.221 E42.98245
G1 X162.361 Y99.082 E43.05207
G1 X163.225 Y98.883 E43.12284
G1 X164.073 Y98.629 E43.1935
G1 X164.981 Y98.297 E43.27068
G1 X165.862 Y97.925 E43.34701
G1 X167.418 Y97.135 E43.48631
G1 X168.869 Y96.204 E43.62393
G1 X170.258 Y95.109 E43.76512
G1 X171.534 Y93.894 E43.90576
G1 X172.719 Y92.54 E44.04939
G1 X173.761 Y91.105 E44.19095
G1 X174.651 Y89.594 E44.33093
G1 X175.394 Y87.992 E44.4719
G1 X176.034 Y86.128 E44.62921
G1 X176.461 Y84.208 E44.78622
G1 X176.674 Y82.237 E44.94447
G1 X176.666 Y80.267 E45.10173
G1 X176.444 Y78.302 E45.25958
G1 X176.002 Y76.324 E45.42137
G1 X175.347 Y74.381 E45.58504
G1 X174.461 Y72.434 E45.75579
G1 X173.83 Y71.332 E45.85716
G1 X173.058 Y70.223 E45.96502
G1 X172.196 Y69.171 E46.07359
G1 X171.206 Y68.135 E46.18797
G1 X170.169 Y67.195 E46.2997
G1 X169.068 Y66.339 E46.41102
G1 X167.926 Y65.584 E46.5203
G1 X166.763 Y64.945 E46.62623
G1 X164.845 Y64.101 E46.7935
G1 X163.93 Y63.766 E46.87128
G1 X163.075 Y63.495 E46.94288
G1 X162.209 Y63.271 E47.01428
G1 X161.438 Y63.119 E47.07701
G1 X160.699 Y63.027 E47.13645
G1 X159.81 Y62.986 E47.20749
G1 X158.889 Y62.911 E47.28125
G1 X158.459 Y62.827 E47.31623
G1 X158.18 Y62.733 E47.33973
G1 X157.8 Y62.5 E47.37531
G1 X157.494 Y61.994 E47.42251
G1 X157.282 Y61.289 E47.48128
G1 X157.129 Y60.555 E47.54113
G1 X156.786 Y58.236 E47.72825
G1 X156.466 Y56.842 E47.84242
G1 X156.059 Y55.53 E47.95208
G1 X155.535 Y54.205 E48.06581
G1 X154.936 Y52.965 E48.17574
G1 X154.266 Y51.807 E48.28253
G1 X153.485 Y50.658 E48.39343
G1 X152.627 Y49.58 E48.50341
G1 X151.704 Y48.581 E48.61198
G1 X150.709 Y47.647 E48.72092
G1 X149.629 Y46.78 E48.83147
G1 X148.492 Y45.994 E48.94181
G1 X147.307 Y45.299 E49.05147
G1 X146.028 Y44.674 E49.1651
G1 X144.719 Y44.154 E49.27754
G1 X143.393 Y43.736 E49.38852
G1 X142.355 Y43.515 E49.47323
G1 X141.192 Y43.367 E49.56682
G1 X139.901 Y43.285 E49.67008
G1 X138.55 Y43.273 E49.77792
G1 X137.221 Y43.329 E49.8841
G1 X135.923 Y43.454 E49.9882
G1 X134.793 Y43.636 E50.07956
G1 X133.801 Y43.884 E50.16118
G1 X132.637 Y44.28 E50.25933
G1 X131.522 Y44.73 E50.35531
G1 X130.46 Y45.229 E50.44897
G1 X129.459 Y45.779 E50.54014
G1 X128.46 Y46.404 E50.63421
G1 X127.555 Y47.054 E50.72315
G1 X126.665 Y47.78 E50.81483
G1 X125.835 Y48.554 E50.90543
G1 X125.094 Y49.335 E50.99136
G1 X124.349 Y50.224 E51.08395
G1 X123.689 Y51.12 E51.17278
G1 X123.077 Y52.07 E51.26299
G1 X122.488 Y53.129 E51.35972
G1 X121.996 Y54.141 E51.44954
G1 X121.526 Y55.273 E51.54738
G1 X121.122 Y56.425 E51.64483
G1 X120.859 Y57.391 E51.72475
G1 X120.686 Y58.418 E51.80788
G1 X120.634 Y58.981 E51.85301
G1 X120.598 Y59.633 E51.90514
G1 X120.573 Y60.403 E51.96664
G1 X120.559 Y61.319 E52.03976
G1 X120.579 Y62.649 E52.14594
G1 X120.647 Y63.833 E52.24061
G1 X120.759 Y64.849 E52.3222
G1 X120.945 Y65.846 E52.40316
G1 X121.186 Y66.742 E52.47723
G1 X121.528 Y67.712 E52.55933
G1 X121.953 Y68.707 E52.64569
G1 X123.624 Y72.144 E52.95076
G1 X123.681 Y72.506 E52.98001
G1 X123.643 Y72.73 E52.99815
G1 X123.432 Y73.091 E53.03152
G1 X72.997 Y123.522 E58.72484
G1 X72.612 Y123.675 E58.75791
G1 X72.457 Y123.688 E58.77032
G1 X72.124 Y123.625 E58.79738
G1 X70.238 Y122.635 E58.96741
G1 X68.508 Y121.817 E59.12016
G1 X66.741 Y121.206 E59.2694
G1 X64.879 Y120.773 E59.422
G1 X63.02 Y120.541 E59.57155
G1 X61.119 Y120.5 E59.72333
G1 X59.227 Y120.654 E59.87486
G1 X57.321 Y121.006 E60.02957
G1 X55.438 Y121.554 E60.18612
G1 X54.393 Y121.957 E60.27552
G1 X53.376 Y122.436 E60.36526
G1 X52.365 Y122.999 E60.45763
G1 X51.39 Y123.629 E60.55029
G1 X50.495 Y124.288 E60.63901
G1 X49.554 Y125.079 E60.73714
G1 X48.723 Y125.865 E60.82845
G1 X47.903 Y126.743 E60.92434
G1 X47.147 Y127.653 E61.01878
G1 X46.467 Y128.579 E61.11049
G1 X45.827 Y129.568 E61.20452
G1 X45.237 Y130.617 E61.30059
G1 X44.743 Y131.641 E61.39135
G1 X44.294 Y132.748 E61.48671
G1 X43.936 Y133.828 E61.57753
G1 X43.655 Y134.927 E61.66808
G1 X43.589 Y135.286 E61.69722
G1 X43.534 Y135.659 E61.72731
G1 X43.428 Y136.703 E61.81108
G1 X43.328 Y138.956 E61.9911
G1 X43.374 Y140.194 E62.08999
G1 X43.516 Y141.52 E62.19644
G1 X43.735 Y142.753 E62.29641
G1 X44.033 Y143.94 E62.3941
G1 X44.416 Y145.119 E62.49305
G1 X44.889 Y146.288 E62.59372
G1 X45.413 Y147.37 E62.68968
G1 X46.038 Y148.456 E62.7897
G1 X46.717 Y149.468 E62.88698
G1 X47.475 Y150.446 E62.98575
G1 X48.297 Y151.366 E63.08423
G1 X49.164 Y152.21 E63.18082
G1 X50.14 Y153.038 E63.28299
G1 X51.122 Y153.76 E63.38028
G1 X52.2 Y154.444 E63.48219
G1 X53.323 Y155.05 E63.58405
G1 X55.14 Y155.853 E63.74263
G1 X56.865 Y156.447 E63.88826
G1 X57.695 Y156.668 E63.95682
G1 X58.476 Y156.833 E64.02054
G1 X59.152 Y156.934 E64.0751
G1 X59.778 Y156.972 E64.12516
G1 X60.451 Y156.993 E64.17891
G1 X61.038 Y157.051 E64.226
G1 X61.57 Y157.187 E64.26983
G1 X62.101 Y157.51 E64.31944
G1 X62.482 Y158.017 E64.37007
G1 X62.668 Y158.54 E64.41438
G1 X62.794 Y159.179 E64.46637
G1 X62.873 Y159.819 E64.51784
G1 X63.097 Y161.416 E64.64657
G1 X63.423 Y162.913 E64.76887
G1 X63.857 Y164.355 E64.88907
G1 X64.4 Y165.759 E65.00924
G1 X65.028 Y167.065 E65.12491
G1 X65.774 Y168.347 E65.24331
G1 X66.603 Y169.54 E65.35928
G1 X67.505 Y170.641 E65.47289
G1 X68.523 Y171.694 E65.5898
G1 X69.601 Y172.647 E65.70466
G1 X70.765 Y173.52 E65.8208
G1 X72.008 Y174.307 E65.93824
G1 X73.294 Y174.984 E66.05425
G1 X74.691 Y175.584 E66.17562
G1 X76.155 Y176.083 E66.29908
G1 X77.636 Y176.461 E66.42109
G1 X78.557 Y176.608 E66.49554
G1 X79.63 Y176.696 E66.58148
G1 X80.798 Y176.728 E66.67475
G1 X82.018 Y176.699 E66.77216
G1 X83.195 Y176.62 E66.86633
G1 X84.356 Y176.482 E66.95965
G1 X85.419 Y176.293 E67.04584
G1 X86.316 Y176.062 E67.11978
G1 X87.656 Y175.593 E67.2331
G1 X88.957 Y175.032 E67.3462
M204 S2000
G0 F7500 X89.214 Y175.574
M204 S500
;TYPE:WALL-OUTER
G1 F1500 X90.464 Y174.927 E67.45855
G1 X91.662 Y174.194 E67.57066
G1 X92.791 Y173.379 E67.68181
G1 X93.846 Y172.499 E67.79148
G1 X94.832 Y171.543 E67.90111
G1 X95.737 Y170.523 E68.00996
G1 X96.587 Y169.411 E68.12168
G1 X97.328 Y168.277 E68.22982
G1 X98.003 Y167.058 E68.34104
G1 X98.592 Y165.786 E68.45294
G1 X99.085 Y164.478 E68.56452
G1 X99.506 Y163.07 E68.68183
G1 X99.825 Y161.644 E68.79847
G1 X100.043 Y160.207 E68.91449
G1 X100.121 Y158.928 E69.01677
G1 X100.067 Y157.521 E69.12917
G1 X99.897 Y156.075 E69.24539
G1 X99.594 Y154.482 E69.37483
G1 X99.225 Y153.043 E69.49341
G1 X98.738 Y151.556 E69.61832
G1 X98.193 Y150.231 E69.73268
G1 X97.575 Y149.036 E69.84007
G1 X96.833 Y147.787 E69.95604
G1 X96.791 Y147.611 E69.97048
G1 X96.84 Y147.458 E69.98331
G1 X147.365 Y96.958 E75.6856
G1 X147.564 Y96.876 E75.70278
G1 X147.715 Y96.912 E75.71517
