;FLAVOR:Marlin
;TIME:117
;Filament used: 0.202762m
;Layer height: 0.32
;MINX:65.104
;MINY:69.697
;MINZ:0.32
;MAXX:145.782
;MAXY:150.304
;MAXZ:0.52
;TARGET_MACHINE.NAME:Creality Ender-3 S1
;POSTPROCESSED
;  [SearchAndReplace]
;Generated with Cura_SteamEngine 5.6.0
M82 ;absolute extrusion mode
; Ender 3 S1 Start G-code
; M413 S0 ; Disable power loss recovery
G92 E0 ; Reset Extruder

; Prep surfaces before auto home for better accuracy
M140 S60
M104 S200

G28 ; Home all axes
G1 Z10.0 F3000 ; Move Z Axis up little to prevent scratching of Heat Bed
G1 X0 Y0

M190 S60
M109 S200

G1 X0.1 Y20 Z0.3 F5000.0 ; Move to start position
G1 X0.1 Y200.0 Z0.3 F1500.0 E15 ; Draw the first line
G1 X0.4 Y200.0 Z0.3 F5000.0 ; Move to side a little
G1 X0.4 Y20 Z0.3 F1500.0 E30 ; Draw the second line
G92 E0 ; Reset Extruder
G1 Z2.0 F3000 ; Move Z Axis up little to prevent scratching of Heat Bed
G1 X5 Y20 Z0.3 F5000.0 ; Move over to prevent blob squish

G92 E0
G92 E0
G1 F2400 E-0.8
;LAYER_COUNT:1
;LAYER:0
M107
M204 S2000
G1 F300 Z0.52
;MESH:robot icon v1.stl
G0 F7500 X80.925 Y92.774 Z0.52
M204 S500
;TYPE:WALL-INNER
G1 F300 Z0.32
G1 F2400 E0
G1 F1312 X81.183 Y92.731 E0.02387
G1 X81.353 Y92.614 E0.04271
G1 X81.405 Y92.22 E0.07898
G1 F1273 X81.434 Y91.279 E0.16753
G1 F1222.8 X81.447 Y90.118 E0.28122
G1 F1209.7 X81.448 Y87.512 E0.53917
G1 F1217.9 X81.432 Y85.945 E0.69324
G1 F1251.7 X81.393 Y84.132 E0.8667
G1 F1302.5 X81.23 Y84.02 E0.88488
G1 F1329.4 X80.94 Y83.958 E0.91159
G1 X80.768 Y84.11 E0.93227
G1 X80.723 Y84.359 E0.95506
G1 F1298.7 X80.701 Y85.055 E1.01926
G1 F1260.5 X80.705 Y91.646 E1.64534
G1 F1267.6 X80.736 Y92.598 E1.73532
G1 F1296.8 X80.925 Y92.774 E1.75916
M204 S2000
G0 F7500 X81.122 Y93.418
M204 S500
;TYPE:WALL-OUTER
G1 F1500 X81.457 Y93.32 E1.78702
G1 X81.747 Y93.129 E1.81474
G1 X81.887 Y92.975 E1.83136
G1 X81.989 Y92.719 E1.85335
G1 X82.045 Y92.294 E1.88757
G1 X82.098 Y91.29 E1.96783
G1 X82.118 Y90.119 E2.06131
G1 X82.12 Y87.513 E2.26934
G1 X82.099 Y85.921 E2.39643
G1 X82.042 Y84.449 E2.51402
G1 X82.019 Y84.128 E2.53971
G1 X81.979 Y83.877 E2.56
G1 X81.822 Y83.651 E2.58196
G1 X81.514 Y83.441 E2.61172
G1 X81.146 Y83.321 E2.64262
G1 X80.743 Y83.318 E2.67479
G1 X80.401 Y83.554 E2.70796
G1 X80.168 Y83.833 E2.73697
G1 X80.089 Y84.287 E2.77376
G1 X80.047 Y85.024 E2.83268
G1 X80.028 Y86.293 E2.93399
G1 X80.033 Y90.882 E3.3003
G1 X80.047 Y91.681 E3.36409
G1 X80.086 Y92.429 E3.42388
G1 X80.135 Y92.793 E3.4532
G1 X80.203 Y92.956 E3.4673
G1 X80.4 Y93.195 E3.49202
G1 X80.729 Y93.417 E3.52371
G1 X81.122 Y93.418 E3.55508
M204 S2000
G1 F2400 E2.75508
G1 F300 Z0.52
G0 F7500 X83.803 Y114.828 Z0.52
M204 S500
;TYPE:WALL-INNER
G1 F300 Z0.32
G1 F2400 E3.55508
G1 F1181.1 X83.184 Y114.961 E3.61926
G1 F1179.6 X82.566 Y115.018 E3.68226
G1 F1178 X81.962 Y115.005 E3.74367
G1 F1170.4 X81.603 Y114.959 E3.7807
G1 F1165.8 X81.316 Y114.909 E3.81062
G1 F1178 X80.735 Y114.738 E3.87218
G1 F1193.6 X80.219 Y114.519 E3.92841
G1 F1204.8 X79.684 Y114.217 E3.98946
G1 F1206.4 X79.241 Y113.896 E4.04376
G1 F1203.2 X78.794 Y113.491 E4.10378
G1 F1204.8 X78.388 Y112.999 E4.16718
G1 X78.069 Y112.503 E4.22579
G1 F1203.2 X77.788 Y111.921 E4.2901
G1 F1200 X77.592 Y111.316 E4.35356
G1 X77.475 Y110.716 E4.41455
G1 F1196.8 X77.431 Y110.086 E4.47773
G1 F1195.2 X77.445 Y109.668 E4.51963
G1 F1196.8 X77.491 Y109.25 E4.5617
G1 F1198.4 X77.579 Y108.819 E4.60566
G1 F1200 X77.686 Y108.444 E4.64457
G1 F1198.4 X77.793 Y108.148 E4.67601
G1 F1195.2 X77.987 Y107.733 E4.72191
G1 F1193.6 X78.337 Y107.162 E4.78909
G1 F1190.5 X78.765 Y106.639 E4.85706
G1 F1182.7 X79.302 Y106.146 E4.93087
G1 F1173.4 X79.9 Y105.736 E5.00485
G1 F1167.3 X80.515 Y105.429 E5.07536
G1 F1165.8 X81.161 Y105.213 E5.14532
G1 F1171.9 X81.881 Y105.077 E5.22019
G1 F1182.7 X82.573 Y105.046 E5.29032
G1 F1196.8 X83.284 Y105.115 E5.36178
G1 F1209.7 X84.004 Y105.297 E5.43529
G1 F1214.6 X84.321 Y105.415 E5.46864
G1 X84.666 Y105.572 E5.50601
G1 F1216.2 X85.048 Y105.785 E5.54906
G1 F1214.6 X85.34 Y105.98 E5.58368
G1 F1211.3 X85.659 Y106.231 E5.6238
G1 F1206.4 X85.94 Y106.492 E5.66187
G1 F1204.8 X86.273 Y106.843 E5.70995
G1 F1206.4 X86.554 Y107.211 E5.7559
G1 F1204.8 X86.724 Y107.478 E5.78736
G1 X86.855 Y107.707 E5.81358
G1 F1206.4 X87.044 Y108.123 E5.85893
G1 F1201.6 X87.187 Y108.556 E5.90437
G1 F1195.2 X87.288 Y108.996 E5.94959
G1 F1185.8 X87.358 Y109.568 E6.00778
G1 F1179.6 X87.374 Y110.015 E6.05319
G1 F1181.1 X87.334 Y110.748 E6.12761
G1 F1193.6 X87.178 Y111.496 E6.20425
G1 F1203.2 X86.93 Y112.182 E6.27685
G1 F1211.3 X86.586 Y112.815 E6.34806
G1 F1219.5 X86.196 Y113.336 E6.41196
G1 X85.659 Y113.867 E6.48611
G1 F1211.3 X85.116 Y114.255 E6.55208
G1 F1198.4 X84.467 Y114.595 E6.62528
G1 F1185.8 X83.803 Y114.828 E6.69634
M204 S2000
G0 F7500 X84.061 Y115.547
M204 S500
G1 F1181.1 X84.637 Y115.343 E6.75828
G1 F1184.2 X85.166 Y115.092 E6.81749
G1 F1192.1 X85.685 Y114.776 E6.87852
G1 F1206.4 X86.163 Y114.411 E6.93821
G1 F1211.3 X86.603 Y113.99 E6.99841
G1 F1206.4 X86.988 Y113.533 E7.05771
G1 F1204.8 X87.323 Y113.038 E7.11711
G1 X87.609 Y112.497 E7.17793
G1 F1196.8 X87.832 Y111.927 E7.23917
G1 F1185.8 X87.999 Y111.32 E7.30274
G1 F1179.6 X88.102 Y110.684 E7.36814
G1 F1178 X88.138 Y109.975 E7.4403
G1 F1179.6 X88.122 Y109.541 E7.48438
G1 F1181.1 X88.071 Y109.089 E7.53049
G1 F1184.2 X87.987 Y108.652 E7.57549
G1 F1190.5 X87.87 Y108.221 E7.62041
G1 F1200 X87.746 Y107.868 E7.65774
G1 F1204.8 X87.54 Y107.411 E7.70756
G1 X87.364 Y107.092 E7.74377
G1 F1203.2 X87.117 Y106.715 E7.78862
G1 X86.872 Y106.397 E7.82857
G1 F1200 X86.595 Y106.088 E7.86997
G1 F1198.4 X86.307 Y105.81 E7.90997
G1 F1201.6 X85.995 Y105.544 E7.95082
G1 F1206.4 X85.663 Y105.301 E7.99166
G1 F1209.7 X85.322 Y105.086 E8.03156
G1 F1212.9 X84.963 Y104.893 E8.07179
G1 F1214.6 X84.582 Y104.721 E8.113
G1 X84.238 Y104.593 E8.14919
G1 F1206.4 X83.815 Y104.471 E8.19288
G1 F1203.2 X83.396 Y104.376 E8.23564
G1 F1196.8 X83.026 Y104.325 E8.273
G1 F1188.9 X82.583 Y104.29 E8.31776
G1 F1182.7 X82.214 Y104.292 E8.35512
G1 F1176.5 X81.764 Y104.321 E8.40101
G1 F1170.4 X81.392 Y104.377 E8.4395
G1 F1165.8 X80.986 Y104.462 E8.4821
G1 F1161.3 X80.587 Y104.58 E8.525
G1 F1159.8 X80.154 Y104.745 E8.57284
G1 F1161.3 X79.802 Y104.914 E8.6131
G1 F1162.8 X79.413 Y105.133 E8.65907
G1 F1167.3 X79.061 Y105.37 E8.7026
G1 F1170.4 X78.702 Y105.651 E8.74924
G1 F1176.5 X78.358 Y105.969 E8.79692
G1 F1179.6 X77.968 Y106.401 E8.85599
G1 F1184.2 X77.613 Y106.885 E8.91669
G1 F1192.1 X77.331 Y107.362 E8.97234
G1 F1195.2 X77.095 Y107.869 E9.02837
G1 F1196.8 X76.914 Y108.392 E9.08374
G1 F1195.2 X76.777 Y108.964 E9.14266
G1 F1193.6 X76.704 Y109.467 E9.19365
G1 X76.677 Y110.053 E9.25249
G1 F1192.1 X76.703 Y110.583 E9.30579
G1 F1190.5 X76.78 Y111.127 E9.36105
G1 F1192.1 X76.914 Y111.681 E9.4183
G1 F1198.4 X77.092 Y112.198 E9.47294
G1 F1200 X77.331 Y112.712 E9.5295
G1 F1196.8 X77.619 Y113.204 E9.58653
G1 F1195.2 X77.962 Y113.672 E9.64466
G1 X78.354 Y114.108 E9.7034
G1 F1196.8 X78.67 Y114.397 E9.74624
G1 F1200 X79.053 Y114.687 E9.79417
G1 F1201.6 X79.45 Y114.949 E9.84157
G1 X79.897 Y115.195 E9.89241
G1 F1193.6 X80.295 Y115.378 E9.93636
G1 F1181.1 X80.717 Y115.535 E9.982
G1 F1173.4 X81.133 Y115.657 E10.02624
G1 F1165.8 X81.493 Y115.724 E10.06385
G1 X82.164 Y115.785 E10.13305
G1 F1168.8 X82.819 Y115.772 E10.20016
G1 F1171.9 X83.446 Y115.695 E10.26471
G1 F1176.5 X84.061 Y115.547 E10.32909
M204 S2000
G0 F7500 X84.236 Y116.207
M204 S500
;TYPE:WALL-OUTER
G1 F1500 X84.898 Y115.973 E10.38513
G1 X85.492 Y115.689 E10.43769
G1 X86.07 Y115.332 E10.49192
G1 X86.601 Y114.921 E10.54552
G1 X87.093 Y114.451 E10.59983
G1 X87.525 Y113.941 E10.65319
G1 X87.901 Y113.385 E10.70676
G1 X88.222 Y112.781 E10.76136
G1 X88.476 Y112.145 E10.81603
G1 X88.665 Y111.468 E10.87214
G1 X88.782 Y110.757 E10.92966
G1 X88.821 Y110.014 E10.98905
G1 X88.801 Y109.474 E11.03218
G1 X88.745 Y108.985 E11.07147
G1 X88.653 Y108.512 E11.10994
G1 X88.52 Y108.029 E11.14993
G1 X88.357 Y107.579 E11.18813
G1 X88.149 Y107.122 E11.22821
G1 X87.942 Y106.746 E11.26247
G1 X87.676 Y106.337 E11.30142
G1 X87.401 Y105.977 E11.33758
G1 X87.122 Y105.661 E11.37123
G1 X86.771 Y105.318 E11.41041
G1 X86.424 Y105.022 E11.44681
G1 X86.052 Y104.751 E11.48355
G1 X85.672 Y104.511 E11.51943
G1 X85.288 Y104.305 E11.55421
G1 X84.85 Y104.105 E11.59265
G1 X84.451 Y103.956 E11.62665
G1 X83.987 Y103.818 E11.66529
G1 X83.552 Y103.719 E11.7009
G1 X83.105 Y103.651 E11.73699
G1 X82.66 Y103.614 E11.77264
G1 X82.211 Y103.609 E11.80848
G1 X81.735 Y103.638 E11.84655
G1 X81.289 Y103.697 E11.88246
G1 X80.82 Y103.797 E11.92074
G1 X80.385 Y103.921 E11.95685
G1 X79.951 Y104.085 E11.99388
G1 X79.499 Y104.295 E12.03366
G1 X79.076 Y104.535 E12.07249
G1 X78.656 Y104.815 E12.11278
G1 X78.269 Y105.123 E12.15226
G1 X77.872 Y105.489 E12.19536
G1 X77.438 Y105.971 E12.24714
G1 X77.055 Y106.496 E12.29901
G1 X76.731 Y107.046 E12.34997
G1 X76.467 Y107.615 E12.40004
G1 X76.264 Y108.201 E12.44954
G1 X76.114 Y108.818 E12.50023
G1 X76.029 Y109.402 E12.54734
G1 X75.999 Y110.036 E12.598
G1 X76.029 Y110.666 E12.64835
G1 X76.114 Y111.255 E12.69585
G1 X76.264 Y111.872 E12.74654
G1 X76.465 Y112.452 E12.79554
G1 X76.732 Y113.026 E12.84607
G1 X77.053 Y113.576 E12.8969
G1 X77.437 Y114.098 E12.94863
G1 X77.873 Y114.586 E13.00087
G1 X78.238 Y114.916 E13.04015
G1 X78.651 Y115.23 E13.08156
G1 X79.089 Y115.519 E13.12345
G1 X79.542 Y115.772 E13.16487
G1 X80.027 Y116.003 E13.20775
G1 X80.482 Y116.177 E13.24664
G1 X80.969 Y116.323 E13.28722
G1 X81.397 Y116.406 E13.32202
G1 X82.141 Y116.47 E13.38163
G1 X82.869 Y116.455 E13.43975
G1 X83.569 Y116.368 E13.49606
G1 X84.236 Y116.207 E13.55083
M204 S2000
G1 F2400 E12.75083
G1 F300 Z0.52
G0 F7500 X83.638 Y114.166 Z0.52
M204 S500
G1 F300 Z0.32
G1 F2400 E13.55083
G1 F1500 X83.091 Y114.286 E13.59553
G1 X82.573 Y114.336 E13.63708
G1 X82.021 Y114.325 E13.68115
G1 X81.472 Y114.242 E13.72547
G1 X81.005 Y114.113 E13.76414
G1 X80.492 Y113.901 E13.80845
G1 X80.041 Y113.647 E13.84977
G1 X79.65 Y113.36 E13.88849
G1 X79.273 Y113.01 E13.92955
G1 X78.942 Y112.616 E13.97063
G1 X78.65 Y112.162 E14.01372
G1 X78.423 Y111.69 E14.05552
G1 X78.254 Y111.179 E14.09849
G1 X78.143 Y110.618 E14.14414
G1 X78.108 Y110.027 E14.19139
G1 X78.122 Y109.672 E14.21975
G1 X78.162 Y109.334 E14.24692
G1 X78.229 Y109.001 E14.27404
G1 X78.321 Y108.674 E14.30115
G1 X78.418 Y108.406 E14.3239
G1 X78.549 Y108.114 E14.34945
G1 X78.896 Y107.546 E14.40258
G1 X79.27 Y107.094 E14.44941
G1 X79.726 Y106.68 E14.49858
G1 X80.238 Y106.332 E14.54799
G1 X80.782 Y106.062 E14.59647
G1 X81.378 Y105.866 E14.64655
G1 X81.96 Y105.754 E14.69386
G1 X82.585 Y105.725 E14.74381
G1 X83.206 Y105.787 E14.79363
G1 X83.793 Y105.934 E14.84193
G1 X84.105 Y106.051 E14.86853
G1 X84.395 Y106.186 E14.89406
G1 X84.696 Y106.359 E14.92178
G1 X84.944 Y106.524 E14.94555
G1 X85.222 Y106.744 E14.97385
G1 X85.471 Y106.977 E15.00107
G1 X85.768 Y107.289 E15.03546
G1 X86.035 Y107.643 E15.07085
G1 X86.234 Y107.969 E15.10134
G1 X86.411 Y108.354 E15.13517
G1 X86.535 Y108.736 E15.16723
G1 X86.626 Y109.148 E15.20091
G1 X86.677 Y109.593 E15.23666
G1 X86.693 Y110.055 E15.27356
G1 X86.649 Y110.704 E15.32549
G1 X86.527 Y111.314 E15.37514
G1 X86.326 Y111.882 E15.42324
G1 X86.031 Y112.439 E15.47355
G1 X85.685 Y112.904 E15.51982
G1 X85.271 Y113.316 E15.56644
G1 X84.762 Y113.681 E15.61644
G1 X84.221 Y113.959 E15.66499
G1 X83.638 Y114.166 E15.71438
M204 S2000
G1 F2400 E14.91438
G1 F300 Z0.52
G0 F7500 X97.441 Y127.949 Z0.52
M204 S500
;TYPE:WALL-INNER
G1 F300 Z0.32
G1 F2400 E15.71438
G1 F1331.4 X97.567 Y127.868 E15.72785
G1 X97.672 Y127.645 E15.75001
G1 X97.368 Y127.267 E15.79364
G1 F1302.5 X97.001 Y126.883 E15.84247
G1 F1248.3 X93.686 Y123.561 E16.29264
G1 F1262.3 X92.431 Y122.334 E16.45913
G1 F1331.4 X92.095 Y122.031 E16.49982
G1 F1359.5 X91.793 Y121.813 E16.53263
G1 X91.505 Y122.105 E16.56875
G1 X91.479 Y122.219 E16.57904
G1 F1337.3 X91.567 Y122.428 E16.59935
G1 F1293.1 X92.203 Y123.096 E16.68475
G1 F1244.8 X93.822 Y124.746 E16.90711
G1 F1236.3 X96.282 Y127.177 E17.24208
G1 F1276.6 X96.729 Y127.599 E17.29973
G1 F1315.8 X97.094 Y127.913 E17.34355
G1 F1331.4 X97.226 Y127.984 E17.35703
G1 X97.441 Y127.949 E17.37662
M204 S2000
G0 F7500 X97.606 Y128.59
M204 S500
;TYPE:WALL-OUTER
G1 F1500 X98.011 Y128.331 E17.41499
G1 X98.281 Y127.949 E17.45233
G1 X98.319 Y127.568 E17.4829
G1 X98.219 Y127.306 E17.50528
G1 X97.86 Y126.86 E17.55099
G1 X97.471 Y126.43 E17.59727
G1 X96.654 Y125.584 E17.69115
G1 X94.15 Y123.082 E17.97371
G1 X93.209 Y122.173 E18.07815
G1 X92.853 Y121.846 E18.11674
G1 X92.576 Y121.607 E18.14594
G1 X92.315 Y121.403 E18.17238
G1 X92.007 Y121.197 E18.20196
G1 X91.837 Y121.144 E18.21618
G1 X91.653 Y121.151 E18.23088
G1 X91.463 Y121.259 E18.24832
G1 X91.192 Y121.504 E18.27748
G1 X90.976 Y121.75 E18.30362
G1 X90.884 Y121.937 E18.32025
G1 X90.841 Y122.219 E18.34302
G1 X90.871 Y122.419 E18.35917
G1 X91.03 Y122.77 E18.38992
G1 X91.729 Y123.547 E18.47335
G1 X92.409 Y124.259 E18.55194
G1 X93.352 Y125.221 E18.65948
G1 X95.221 Y127.07 E18.86934
G1 X95.838 Y127.664 E18.9377
G1 X96.299 Y128.083 E18.98743
G1 X96.732 Y128.442 E19.03233
G1 X96.979 Y128.579 E19.05488
G1 X97.165 Y128.633 E19.07034
G1 X97.606 Y128.59 E19.10571
M204 S2000
G1 F2400 E18.30571
G1 F300 Z0.52
G0 F7500 X109.627 Y143.501 Z0.52
M204 S500
;TYPE:WALL-INNER
G1 F300 Z0.32
G1 F2400 E19.10571
G1 F1188.9 X109.088 Y143.486 E19.16001
G1 F1200 X108.351 Y143.379 E19.23432
G1 F1208.1 X107.778 Y143.2 E19.29382
G1 F1211.3 X107.258 Y142.967 E19.35015
G1 F1214.6 X106.694 Y142.624 E19.41522
G1 F1209.7 X106.218 Y142.249 E19.4752
G1 F1208.1 X105.895 Y141.937 E19.51971
G1 F1211.3 X105.596 Y141.594 E19.56469
G1 F1212.9 X105.378 Y141.301 E19.60074
G1 X105.181 Y140.993 E19.63684
G1 X105.008 Y140.669 E19.67309
G1 F1214.6 X104.837 Y140.279 E19.71507
G1 F1211.3 X104.704 Y139.86 E19.75853
G1 F1214.6 X104.621 Y139.56 E19.78921
G1 F1219.5 X104.512 Y138.807 E19.86392
G1 F1214.6 X104.519 Y138.117 E19.93194
G1 F1212.9 X104.616 Y137.423 E20.00112
G1 F1214.6 X104.831 Y136.714 E20.07416
G1 F1212.9 X105.141 Y136.033 E20.14802
G1 F1209.7 X105.536 Y135.437 E20.21879
G1 F1206.4 X105.982 Y134.921 E20.28648
G1 F1204.8 X106.526 Y134.459 E20.35741
G1 F1203.2 X106.873 Y134.224 E20.39912
G1 F1196.8 X107.179 Y134.05 E20.43434
G1 F1190.5 X107.492 Y133.9 E20.46925
G1 F1178 X107.911 Y133.737 E20.51494
G1 F1168.8 X108.186 Y133.661 E20.54417
G1 F1190.5 X108.623 Y133.58 E20.58887
G1 F1236.3 X109.096 Y133.541 E20.63484
G1 F1264 X109.548 Y133.529 E20.67767
G1 F1257 X110.028 Y133.551 E20.72344
G1 F1216.2 X110.535 Y133.605 E20.77364
G1 F1176.5 X110.955 Y133.705 E20.81758
G1 F1182.7 X111.378 Y133.858 E20.86312
G1 F1211.3 X111.879 Y134.091 E20.91774
G1 F1226.2 X112.282 Y134.328 E20.96339
G1 F1224.5 X112.702 Y134.63 E21.01398
G1 F1221.2 X113.036 Y134.927 E21.0578
G1 F1216.2 X113.388 Y135.307 E21.10879
G1 F1212.9 X113.665 Y135.675 E21.15426
G1 X113.899 Y136.056 E21.1984
G1 F1211.3 X114.126 Y136.523 E21.24973
G1 F1209.7 X114.284 Y136.964 E21.2961
G1 F1208.1 X114.417 Y137.487 E21.34958
G1 X114.486 Y137.945 E21.39549
G1 F1206.4 X114.512 Y138.485 E21.44915
G1 F1200 X114.493 Y138.904 E21.491
G1 F1195.2 X114.44 Y139.304 E21.53142
G1 F1192.1 X114.368 Y139.642 E21.56613
G1 F1188.9 X114.257 Y140.024 E21.6062
G1 F1185.8 X114.106 Y140.411 E21.64814
G1 F1182.7 X113.912 Y140.811 E21.69315
G1 X113.727 Y141.131 E21.73058
G1 X113.49 Y141.471 E21.77254
G1 X113.237 Y141.781 E21.81305
G1 F1184.2 X112.963 Y142.07 E21.85331
G1 F1185.8 X112.684 Y142.324 E21.89141
G1 F1188.9 X112.399 Y142.546 E21.9278
G1 F1195.2 X112.065 Y142.768 E21.96797
G1 F1198.4 X111.722 Y142.956 E22.00705
G1 F1200 X111.335 Y143.13 E22.04939
G1 F1198.4 X110.975 Y143.253 E22.0874
G1 F1200 X110.338 Y143.409 E22.15284
G1 F1195.2 X109.627 Y143.501 E22.22466
M204 S2000
G0 F7500 X109.522 Y144.266
M204 S500
G1 F1178 X109.773 Y144.249 E22.25023
G1 F1190.5 X110.409 Y144.159 E22.31484
G1 F1193.6 X110.947 Y144.044 E22.37003
G1 F1188.9 X111.447 Y143.891 E22.42269
G1 F1190.5 X111.907 Y143.703 E22.47267
G1 X112.349 Y143.474 E22.52274
G1 X112.797 Y143.192 E22.57598
G1 F1187.3 X113.18 Y142.898 E22.62467
G1 F1184.2 X113.533 Y142.577 E22.67291
