;FLAVOR:Marlin
;TIME:155
;Filament used: 0.151932m
;Layer height: 0.2
;MINX:84.707
;MINY:69.663
;MINZ:0.2
;MAXX:165.432
;MAXY:150.339
;MAXZ:0.4
;TARGET_MACHINE.NAME:Creality Ender-3 S1
;POSTPROCESSED
;  [SearchAndReplace]
;Generated with Cura_SteamEngine 5.6.0
M82 ;absolute extrusion mode
; Ender 3 S1 Start G-code
; M413 S0 ; Disable power loss recovery
G92 E0 ; Reset Extruder

; Prep surfaces before auto home for better accuracy
M140 S60
M104 S200

G28 ; Home all axes
G1 Z10.0 F3000 ; Move Z Axis up little to prevent scratching of Heat Bed
G1 X0 Y0

M190 S60
M109 S200

G1 X0.1 Y20 Z0.3 F5000.0 ; Move to start position
G1 X0.1 Y200.0 Z0.3 F1500.0 E15 ; Draw the first line
G1 X0.4 Y200.0 Z0.3 F5000.0 ; Move to side a little
G1 X0.4 Y20 Z0.3 F1500.0 E30 ; Draw the second line
G92 E0 ; Reset Extruder
G1 Z2.0 F3000 ; Move Z Axis up little to prevent scratching of Heat Bed
G1 X5 Y20 Z0.3 F5000.0 ; Move over to prevent blob squish

G92 E0
G92 E0
G1 F2400 E-0.8
;LAYER_COUNT:1
;LAYER:0
M107
M204 S2000
G1 F300 Z0.4
;MESH:smile v2.stl
G0 F7500 X119.644 Y146.67 Z0.4
M204 S500
;TYPE:WALL-INNER
G1 F300 Z0.2
G1 F2400 E0
G1 F1093.3 X118.249 Y146.438 E0.08067
G1 F1090.1 X116.798 Y146.137 E0.16544
G1 F1091.7 X115.306 Y145.765 E0.25328
G1 X113.819 Y145.333 E0.34174
G1 X112.455 Y144.874 E0.42395
G1 F1098.1 X110.999 Y144.316 E0.5125
G1 F1102.9 X109.618 Y143.722 E0.5975
G1 F1104.6 X108.298 Y143.088 E0.68018
G1 F1106.2 X107.094 Y142.449 E0.75702
G1 F1102.9 X105.808 Y141.696 E0.84128
G1 F1094.9 X104.386 Y140.776 E0.93775
G1 F1088.5 X102.989 Y139.786 E1.03584
G1 X101.743 Y138.821 E1.12613
G1 F1090.1 X100.441 Y137.717 E1.22379
G1 F1088.5 X99.151 Y136.52 E1.32461
G1 X98.129 Y135.485 E1.40794
G1 F1090.1 X97.011 Y134.257 E1.50295
G1 X95.967 Y133.002 E1.59633
G1 F1091.7 X94.988 Y131.711 E1.68889
G1 F1088.5 X94.677 Y131.27 E1.7198
G1 X94.019 Y130.304 E1.78677
G1 F1093.3 X93.191 Y128.983 E1.8757
G1 X92.395 Y127.577 E1.96786
G1 F1096.5 X91.676 Y126.165 E2.05798
G1 F1098.1 X90.976 Y124.623 E2.15415
G1 F1096.5 X90.361 Y123.098 E2.24767
G1 X89.806 Y121.51 E2.34335
G1 F1094.9 X89.484 Y120.484 E2.4046
G1 F1098.1 X89.205 Y119.495 E2.46295
G1 F1101.3 X88.937 Y118.449 E2.5241
G1 X88.724 Y117.506 E2.57884
G1 F1102.9 X88.51 Y116.438 E2.64043
G1 F1099.7 X88.338 Y115.426 E2.69864
G1 F1104.6 X88.204 Y114.423 E2.75577
G1 F1127.8 X88.106 Y113.49 E2.80765
G1 F1162.8 X87.982 Y111.594 E2.90955
G1 F1171.9 X87.942 Y109.691 E3.01084
G1 F1131.2 X87.981 Y107.994 E3.10442
G1 F1091.7 X88.023 Y107.358 E3.14083
G1 F1093.3 X88.141 Y106.057 E3.21535
G1 F1101.3 X88.368 Y104.335 E3.3137
G1 F1087 X88.699 Y102.497 E3.42085
G1 F1076 X89.131 Y100.658 E3.53033
G1 F1068.4 X89.649 Y98.865 E3.63927
G1 F1063.8 X90.238 Y97.148 E3.74568
G1 F1066.9 X90.929 Y95.421 E3.85441
G1 F1073 X91.721 Y93.693 E3.96489
G1 F1080.7 X92.552 Y92.092 E4.06898
G1 F1090.1 X93.506 Y90.461 E4.17708
G1 F1102.9 X94.526 Y88.895 E4.28275
G1 F1112.8 X95.576 Y87.444 E4.38313
G1 F1124.4 X96.798 Y85.918 E4.49155
G1 F1132.9 X97.598 Y85.004 E4.55842
G1 F1134.6 X98.525 Y84.02 E4.63272
G1 F1138.1 X99.424 Y83.13 E4.70204
G1 F1134.6 X100.298 Y82.321 E4.76749
G1 F1127.8 X101.253 Y81.497 E4.83724
G1 F1121.1 X102.219 Y80.717 E4.90631
G1 F1111.1 X103.417 Y79.823 E4.9902
G1 F1099.7 X104.267 Y79.231 E5.04895
G1 F1091.7 X105.325 Y78.543 E5.12104
G1 F1082.3 X106.504 Y77.834 E5.20031
G1 F1073 X107.622 Y77.211 E5.2747
G1 F1069.9 X108.776 Y76.626 E5.35012
G1 F1071.4 X109.88 Y76.111 E5.42102
G1 F1077.6 X111.071 Y75.608 E5.49584
G1 F1087 X112.31 Y75.135 E5.57193
G1 F1088.5 X113.506 Y74.722 E5.64442
G1 F1090.1 X114.881 Y74.303 E5.72666
G1 F1096.5 X116.331 Y73.916 E5.81201
G1 F1101.3 X117.803 Y73.583 E5.89747
G1 F1099.7 X119.248 Y73.315 E5.98081
G1 F1090.1 X120.621 Y73.111 E6.06022
G1 F1102.9 X122.098 Y72.97 E6.14411
G1 F1145 X123.53 Y72.889 E6.22223
G1 F1175.5 X125.034 Y72.862 E6.30203
G1 F1179.2 X126.565 Y72.891 E6.38301
G1 F1157.4 X127.885 Y72.966 E6.45424
G1 F1121.1 X129.339 Y73.099 E6.53546
G1 F1091.7 X129.735 Y73.149 E6.55827
G1 X130.876 Y73.317 E6.62415
G1 F1101.3 X132.298 Y73.581 E6.70604
G1 X133.752 Y73.91 E6.79046
G1 F1096.5 X135.189 Y74.291 E6.87501
G1 F1090.1 X136.655 Y74.74 E6.96272
G1 F1085.4 X137.945 Y75.189 E7.0412
G1 F1080.7 X139.246 Y75.695 E7.12176
G1 F1074.5 X140.394 Y76.192 E7.19436
G1 F1071.4 X141.624 Y76.777 E7.27364
G1 F1074.5 X142.825 Y77.401 E7.35219
G1 F1080.7 X144.023 Y78.085 E7.4318
G1 F1085.4 X145.171 Y78.799 E7.50948
G1 F1090.1 X146.281 Y79.547 E7.58605
G1 F1098.1 X147.371 Y80.341 E7.66263
G1 F1106.2 X148.435 Y81.182 E7.73909
G1 F1111.1 X149.46 Y82.049 E7.81444
G1 F1116.1 X150.433 Y82.933 E7.8879
G1 F1119.4 X151.322 Y83.796 E7.95692
G1 F1122.8 X152.241 Y84.754 E8.03066
G1 F1126.1 X153.146 Y85.764 E8.10576
G1 F1124.4 X153.995 Y86.785 E8.17941
G1 F1117.7 X154.773 Y87.79 E8.25032
G1 F1107.8 X155.615 Y88.963 E8.3316
G1 F1098.1 X156.424 Y90.19 E8.41507
G1 F1096.5 X156.997 Y91.121 E8.47724
G1 F1098.1 X157.658 Y92.284 E8.55321
G1 F1093.3 X158.279 Y93.479 E8.63003
G1 F1088.5 X158.881 Y94.743 E8.71024
G1 F1083.8 X159.335 Y95.79 E8.77591
G1 F1082.3 X159.853 Y97.114 E8.85783
G1 F1087 X160.304 Y98.402 E8.93613
G1 F1093.3 X160.706 Y99.711 E9.01424
G1 F1096.5 X161.064 Y101.05 E9.09307
G1 F1104.6 X161.426 Y102.631 E9.18464
G1 F1102.9 X161.465 Y102.882 E9.199
G1 F1101.3 X161.63 Y103.755 E9.24931
G1 F1106.2 X161.835 Y105.095 E9.32573
G1 F1109.5 X161.983 Y106.371 E9.39794
G1 F1112.8 X162.105 Y107.951 E9.48675
G1 X162.153 Y109.379 E9.56682
G1 F1109.5 X162.145 Y110.879 E9.65114
G1 F1106.2 X162.085 Y112.288 E9.73064
G1 F1096.5 X161.959 Y113.749 E9.81405
G1 F1090.1 X161.747 Y115.411 E9.9099
G1 F1093.3 X161.515 Y116.781 E9.98916
G1 F1098.1 X161.206 Y118.272 E10.07563
G1 F1101.3 X160.832 Y119.762 E10.16262
G1 X160.402 Y121.22 E10.2487
G1 F1102.9 X159.963 Y122.527 E10.32665
G1 X159.392 Y124.024 E10.41725
G1 F1111.1 X158.837 Y125.315 E10.49612
G1 F1119.4 X158.198 Y126.651 E10.57862
G1 F1121.1 X157.503 Y127.963 E10.66121
G1 F1116.1 X156.733 Y129.27 E10.74598
G1 F1104.6 X156.128 Y130.219 E10.80952
G1 F1099.7 X155.551 Y131.068 E10.86773
G1 F1093.3 X154.921 Y131.943 E10.92923
G1 F1088.5 X154.253 Y132.816 E10.99221
G1 F1087 X153.561 Y133.675 E11.05549
G1 F1083.8 X152.851 Y134.5 E11.11812
G1 F1082.3 X152.065 Y135.37 E11.18569
G1 F1080.7 X151.352 Y136.104 E11.24474
G1 F1076 X150.56 Y136.876 E11.30884
G1 X149.804 Y137.576 E11.36855
G1 F1079.1 X149.007 Y138.272 E11.4297
G1 X148.19 Y138.947 E11.49094
G1 F1080.7 X147.355 Y139.598 E11.55204
G1 X146.504 Y140.222 E11.61293
G1 X145.56 Y140.869 E11.67898
G1 F1083.8 X144.69 Y141.433 E11.73863
G1 F1087 X143.809 Y141.968 E11.79777
G1 F1088.5 X142.978 Y142.442 E11.85258
G1 F1098.1 X141.618 Y143.164 E11.94003
G1 F1101.3 X141.379 Y143.272 E11.95488
G1 F1093.3 X140.986 Y143.468 E11.97993
G1 F1098.1 X140.023 Y143.91 E12.0401
G1 F1104.6 X138.996 Y144.345 E12.10307
G1 F1102.9 X137.994 Y144.735 E12.16387
G1 F1104.6 X137.137 Y145.041 E12.21525
G1 F1102.9 X135.975 Y145.425 E12.28444
G1 F1107.8 X134.985 Y145.714 E12.3425
G1 F1112.8 X133.986 Y145.977 E12.40039
G1 X132.935 Y146.222 E12.46087
G1 F1114.4 X131.782 Y146.452 E12.52667
G1 F1112.8 X130.729 Y146.635 E12.58657
G1 F1116.1 X129.689 Y146.783 E12.64526
G1 F1121.1 X128.546 Y146.91 E12.70924
G1 F1119.4 X127.058 Y147.024 E12.79238
G1 F1117.7 X125.686 Y147.072 E12.86897
G1 F1114.4 X124.09 Y147.061 E12.95829
G1 X122.786 Y147.004 E13.03133
G1 F1109.5 X121.168 Y146.864 E13.12262
G1 F1101.3 X119.644 Y146.67 E13.20961
M204 S2000
G0 F7500 X119.736 Y146.086
M204 S500
G1 F1500 X118.264 Y145.836 E13.27168
G1 X116.919 Y145.556 E13.3288
G1 X115.454 Y145.191 E13.39157
G1 X113.983 Y144.762 E13.45528
G1 X112.652 Y144.314 E13.51366
G1 X111.231 Y143.773 E13.57688
G1 X109.872 Y143.19 E13.63836
G1 X108.622 Y142.592 E13.69597
G1 X107.371 Y141.929 E13.75483
G1 X106.111 Y141.189 E13.81558
G1 X104.662 Y140.246 E13.88746
G1 X103.309 Y139.283 E13.9565
G1 X102.107 Y138.351 E14.01974
G1 X100.832 Y137.27 E14.08924
G1 X99.672 Y136.198 E14.1549
G1 X98.487 Y134.999 E14.22499
G1 X97.399 Y133.798 E14.29236
G1 X96.38 Y132.567 E14.3588
G1 X95.424 Y131.301 E14.42476
G1 X94.522 Y129.989 E14.49095
G1 X93.669 Y128.625 E14.55784
G1 X92.94 Y127.337 E14.61937
G1 X92.158 Y125.802 E14.69099
G1 X91.521 Y124.392 E14.75532
G1 X90.916 Y122.892 E14.82256
G1 X90.371 Y121.334 E14.89118
G1 X90.055 Y120.321 E14.9353
G1 X89.768 Y119.313 E14.97887
G1 X89.528 Y118.378 E15.01901
G1 X89.292 Y117.336 E15.06342
G1 X89.092 Y116.339 E15.1057
G1 X88.925 Y115.345 E15.14761
G1 X88.788 Y114.356 E15.18912
G1 X88.671 Y113.326 E15.23221
G1 X88.549 Y111.569 E15.30544
G1 X88.515 Y109.71 E15.38274
G1 X88.57 Y108.013 E15.45333
G1 X88.732 Y106.076 E15.53414
G1 X88.972 Y104.305 E15.60844
G1 X89.285 Y102.612 E15.68002
G1 X89.711 Y100.812 E15.75693
G1 X90.221 Y99.053 E15.83307
G1 X90.805 Y97.353 E15.9078
G1 X91.481 Y95.659 E15.98363
G1 X92.269 Y93.936 E16.0624
G1 X93.087 Y92.357 E16.13633
G1 X94.009 Y90.772 E16.21257
G1 X94.964 Y89.296 E16.28566
G1 X96.118 Y87.698 E16.36761
G1 X97.244 Y86.291 E16.44253
G1 X98.079 Y85.339 E16.49518
G1 X98.934 Y84.431 E16.54703
G1 X99.817 Y83.555 E16.59874
G1 X100.723 Y82.721 E16.64994
G1 X101.674 Y81.907 E16.70198
G1 X102.583 Y81.175 E16.7505
G1 X103.652 Y80.379 E16.80591
G1 X104.667 Y79.676 E16.85724
G1 X105.632 Y79.053 E16.905
G1 X106.761 Y78.375 E16.95975
G1 X107.895 Y77.747 E17.01364
G1 X109.029 Y77.17 E17.06654
G1 X110.123 Y76.66 E17.11673
G1 X111.328 Y76.147 E17.17117
G1 X112.504 Y75.696 E17.22354
G1 X113.681 Y75.291 E17.27529
G1 X115.051 Y74.871 E17.33486
G1 X116.476 Y74.489 E17.3962
G1 X117.97 Y74.151 E17.45988
G1 X119.292 Y73.907 E17.51577
G1 X120.817 Y73.688 E17.57983
G1 X122.157 Y73.55 E17.63583
G1 X123.659 Y73.456 E17.6984
G1 X125.037 Y73.428 E17.7557
G1 X126.53 Y73.46 E17.81779
G1 X127.938 Y73.55 E17.87645
G1 X129.278 Y73.687 E17.93245
G1 X130.776 Y73.9 E17.99535
G1 X132.177 Y74.159 E18.05459
G1 X133.609 Y74.484 E18.11564
G1 X135.023 Y74.862 E18.17649
G1 X136.467 Y75.305 E18.23928
G1 X137.733 Y75.747 E18.29503
G1 X139.01 Y76.246 E18.35203
G1 X140.169 Y76.75 E18.40458
G1 X141.436 Y77.354 E18.46293
G1 X142.545 Y77.93 E18.51489
G1 X143.721 Y78.6 E18.57116
G1 X144.849 Y79.301 E18.62637
G1 X145.94 Y80.033 E18.681
G1 X147.011 Y80.81 E18.73601
G1 X148.057 Y81.632 E18.79132
G1 X149.067 Y82.484 E18.84625
G1 X150.026 Y83.353 E18.90006
G1 X150.914 Y84.215 E18.95151
G1 X151.818 Y85.155 E19.00573
G1 X152.706 Y86.148 E19.06111
G1 X153.539 Y87.151 E19.11532
G1 X154.343 Y88.195 E19.1701
G1 X155.121 Y89.279 E19.22558
G1 X155.834 Y90.362 E19.27948
G1 X156.491 Y91.428 E19.33155
G1 X157.139 Y92.569 E19.3861
G1 X157.747 Y93.743 E19.44107
G1 X158.328 Y94.964 E19.49728
G1 X158.817 Y96.098 E19.54863
G1 X159.297 Y97.33 E19.6036
G1 X159.741 Y98.593 E19.65926
G1 X160.137 Y99.877 E19.71512
G1 X160.49 Y101.191 E19.77169
G1 X160.849 Y102.746 E19.83804
G1 X160.875 Y102.947 E19.84646
G1 X161.048 Y103.845 E19.88448
G1 X161.25 Y105.163 E19.93992
G1 X161.399 Y106.437 E19.99325
G1 X161.518 Y107.971 E20.05722
G1 X161.566 Y109.391 E20.11629
G1 X161.557 Y110.862 E20.17744
G1 X161.503 Y111.952 E20.22282
G1 X161.497 Y112.242 E20.23488
G1 X161.353 Y113.835 E20.30137
G1 X161.161 Y115.312 E20.3633
G1 X160.932 Y116.678 E20.42088
G1 X160.629 Y118.142 E20.48304
G1 X160.262 Y119.605 E20.54575
G1 X159.849 Y121.022 E20.60711
G1 X159.404 Y122.339 E20.66491
G1 X158.886 Y123.704 E20.72561
G1 X158.301 Y125.08 E20.78777
G1 X157.675 Y126.391 E20.84817
G1 X156.992 Y127.678 E20.90874
G1 X156.251 Y128.933 E20.96934
G1 X155.64 Y129.886 E21.0164
G1 X155.064 Y130.732 E21.05895
G1 X154.403 Y131.644 E21.10578
G1 X153.782 Y132.455 E21.14825
G1 X153.101 Y133.295 E21.19321
G1 X152.401 Y134.109 E21.23784
G1 X151.625 Y134.967 E21.28594
G1 X150.92 Y135.686 E21.3278
G1 X150.202 Y136.391 E21.36964
G1 X149.406 Y137.13 E21.41479
G1 X148.62 Y137.817 E21.4582
G1 X147.815 Y138.482 E21.50161
G1 X146.992 Y139.123 E21.54498
G1 X146.153 Y139.738 E21.58823
G1 X145.235 Y140.368 E21.63451
G1 X144.365 Y140.931 E21.6776
G1 X143.506 Y141.455 E21.71943
G1 X142.69 Y141.922 E21.75852
G1 X141.353 Y142.638 E21.82157
G1 X141.16 Y142.719 E21.83028
G1 X140.75 Y142.924 E21.84933
G1 X139.783 Y143.371 E21.89363
G1 X138.843 Y143.77 E21.93608
G1 X137.795 Y144.18 E21.98287
G1 X136.951 Y144.482 E22.02014
G1 X135.884 Y144.836 E22.06687
G1 X134.826 Y145.148 E22.11273
G1 X133.836 Y145.409 E22.1553
G1 X132.739 Y145.664 E22.20212
G1 X131.683 Y145.875 E22.24689
G1 X130.646 Y146.053 E22.29064
G1 X129.613 Y146.203 E22.33404
G1 X128.5 Y146.327 E22.38059
G1 X127.038 Y146.439 E22.44156
G1 X125.666 Y146.486 E22.49863
G1 X124.118 Y146.474 E22.56299
G1 X122.821 Y146.419 E22.61696
G1 X121.188 Y146.273 E22.68513
G1 X119.736 Y146.086 E22.74599
M204 S2000
G0 F7500 X119.813 Y145.592
M204 S500
G1 F1500 X118.366 Y145.346 E22.80701
G1 X117.021 Y145.066 E22.86413
G1 X115.579 Y144.707 E22.92591
G1 X114.142 Y144.288 E22.98814
G1 X112.818 Y143.843 E23.04622
G1 X111.428 Y143.313 E23.10806
G1 X110.154 Y142.769 E23.16566
G1 X108.846 Y142.145 E23.22591
G1 X107.605 Y141.487 E23.28431
G1 X106.368 Y140.76 E23.34396
G1 X104.993 Y139.867 E23.41212
G1 X103.616 Y138.888 E23.48237
G1 X102.414 Y137.956 E23.5456
G1 X101.161 Y136.893 E23.61392
G1 X100.011 Y135.831 E23.679
G1 X98.857 Y134.663 E23.74726
G1 X97.826 Y133.528 E23.81101
G1 X96.778 Y132.265 E23.87924
G1 X95.868 Y131.062 E23.94195
G1 X94.973 Y129.766 E24.00744
G1 X94.128 Y128.419 E24.07354
G1 X93.375 Y127.091 E24.13701
G1 X92.631 Y125.632 E24.2051
G1 X91.998 Y124.234 E24.26891
G1 X91.385 Y122.718 E24.33689
G1 X90.848 Y121.184 E24.40446
G1 X90.536 Y120.184 E24.44802
G1 X90.257 Y119.211 E24.4901
G1 X90.001 Y118.208 E24.53313
G1 X89.782 Y117.237 E24.57452
G1 X89.586 Y116.267 E24.61566
G1 X89.42 Y115.276 E24.65744
G1 X89.285 Y114.299 E24.69844
G1 X89.17 Y113.291 E24.74062
G1 X89.05 Y111.591 E24.81147
G1 X89.015 Y109.726 E24.88903
G1 X89.07 Y108.029 E24.95962
G1 X89.228 Y106.142 E25.03834
G1 X89.464 Y104.396 E25.11159
G1 X89.776 Y102.708 E25.18296
G1 X90.194 Y100.94 E25.25849
G1 X90.679 Y99.265 E25.33099
G1 X91.295 Y97.469 E25.40993
G1 X91.94 Y95.857 E25.48211
G1 X92.713 Y94.166 E25.55942
G1 X93.525 Y92.598 E25.63283
G1 X94.435 Y91.035 E25.70802
G1 X95.434 Y89.495 E25.78434
G1 X96.456 Y88.079 E25.85694
G1 X97.627 Y86.612 E25.93498
G1 X98.443 Y85.682 E25.98642
G1 X99.287 Y84.786 E26.03759
G1 X100.157 Y83.923 E26.08854
G1 X100.999 Y83.144 E26.13623
G1 X101.988 Y82.297 E26.19037
G1 X102.895 Y81.567 E26.23877
G1 X103.937 Y80.79 E26.29281
G1 X104.924 Y80.105 E26.34276
G1 X105.84 Y79.512 E26.38813
G1 X107.012 Y78.808 E26.44497
G1 X108.122 Y78.192 E26.49775
G1 X109.185 Y77.65 E26.54735
G1 X110.35 Y77.107 E26.60079
G1 X111.508 Y76.614 E26.65312
G1 X112.667 Y76.169 E26.70473
G1 X113.827 Y75.769 E26.75575
G1 X115.195 Y75.35 E26.81523
G1 X116.599 Y74.973 E26.87567
G1 X118.061 Y74.643 E26.93798
G1 X119.422 Y74.392 E26.99552
G1 X120.868 Y74.185 E27.05625
G1 X122.208 Y74.047 E27.11226
G1 X123.67 Y73.956 E27.17316
G1 X125.085 Y73.928 E27.232
G1 X126.498 Y73.959 E27.29076
G1 X127.887 Y74.047 E27.34862
G1 X129.227 Y74.185 E27.40463
G1 X130.712 Y74.399 E27.467
G1 X132.075 Y74.649 E27.52461
G1 X133.488 Y74.97 E27.58486
G1 X134.884 Y75.343 E27.64493
G1 X136.308 Y75.78 E27.70686
G1 X137.556 Y76.215 E27.76181
G1 X138.819 Y76.711 E27.81822
G1 X139.957 Y77.202 E27.86975
G1 X141.205 Y77.798 E27.92725
G1 X142.311 Y78.372 E27.97905
G1 X143.468 Y79.032 E28.03443
G1 X144.579 Y79.722 E28.08881
G1 X145.652 Y80.442 E28.14253
G1 X146.707 Y81.207 E28.19671
G1 X147.729 Y82.009 E28.25072
G1 X148.732 Y82.855 E28.30527
G1 X149.677 Y83.712 E28.35831
G1 X150.566 Y84.574 E28.40979
G1 X151.454 Y85.499 E28.4631
G1 X152.329 Y86.477 E28.51766
G1 X153.148 Y87.463 E28.57095
G1 X153.939 Y88.49 E28.62485
G1 X154.704 Y89.557 E28.67943
G1 X155.408 Y90.624 E28.73258
G1 X156.064 Y91.688 E28.78454
G1 X156.7 Y92.81 E28.83816
G1 X157.299 Y93.966 E28.89229
G1 X157.87 Y95.165 E28.94751
G1 X158.382 Y96.357 E29.00144
G1 X158.831 Y97.511 E29.05292
G1 X159.267 Y98.753 E29.10765
G1 X159.657 Y100.017 E29.16264
G1 X160.01 Y101.334 E29.21933
G1 X160.358 Y102.843 E29.28372
G1 X160.376 Y103.003 E29.29041
