;FLAVOR:Marlin
;TIME:87
;Filament used: 0.158776m
;Layer height: 0.32
;MINX:42.653
;MINY:42.612
;MINZ:0.32
;MAXX:177.346
;MAXY:177.388
;MAXZ:0.52
;TARGET_MACHINE.NAME:Creality Ender-3 S1
;POSTPROCESSED
;  [SearchAndReplace]
;Generated with Cura_SteamEngine 5.6.0
M82 ;absolute extrusion mode
; Ender 3 S1 Start G-code
; M413 S0 ; Disable power loss recovery
G92 E0 ; Reset Extruder

; Prep surfaces before auto home for better accuracy
M140 S60
M104 S200

G28 ; Home all axes
G1 Z10.0 F3000 ; Move Z Axis up little to prevent scratching of Heat Bed
G1 X0 Y0

M190 S60
M109 S200

G1 X0.1 Y20 Z0.3 F5000.0 ; Move to start position
G1 X0.1 Y200.0 Z0.3 F1500.0 E15 ; Draw the first line
G1 X0.4 Y200.0 Z0.3 F5000.0 ; Move to side a little
G1 X0.4 Y20 Z0.3 F1500.0 E30 ; Draw the second line
G92 E0 ; Reset Extruder
G1 Z2.0 F3000 ; Move Z Axis up little to prevent scratching of Heat Bed
G1 X5 Y20 Z0.3 F5000.0 ; Move over to prevent blob squish

G92 E0
G92 E0
G1 F2400 E-0.8
;LAYER_COUNT:1
;LAYER:0
M107
M204 S2000
G1 F300 Z0.52
;MESH:smile v2.stl
G0 F7500 X109.591 Y168.074 Z0.52
M204 S500
;TYPE:WALL-INNER
G1 F300 Z0.32
G1 F2400 E0
G1 F1500 X106.754 Y167.982 E0.22658
G1 X103.87 Y167.742 E0.45759
G1 X101.008 Y167.356 E0.68812
G1 X98.217 Y166.839 E0.9147
G1 X95.368 Y166.163 E1.14843
G1 X92.618 Y165.364 E1.37702
G1 X89.896 Y164.43 E1.60674
G1 X87.22 Y163.363 E1.8367
G1 X84.549 Y162.142 E2.07114
G1 X81.961 Y160.801 E2.30381
G1 X79.463 Y159.351 E2.53437
G1 X77.009 Y157.757 E2.76795
G1 X74.638 Y156.047 E3.00131
G1 X72.321 Y154.193 E3.23818
G1 X70.853 Y152.911 E3.39376
G1 X69.421 Y151.565 E3.55063
G1 X68.022 Y150.155 E3.70919
G1 X66.698 Y148.719 E3.8651
G1 X65.409 Y147.22 E4.02292
G1 X64.169 Y145.673 E4.18118
G1 X62.975 Y144.073 E4.34054
G1 X61.841 Y142.44 E4.49924
G1 X60.773 Y140.781 E4.65674
G1 X59.748 Y139.072 E4.81581
G1 X58.849 Y137.445 E4.96419
G1 X57.874 Y135.544 E5.13473
G1 X57.032 Y133.737 E5.29387
G1 X56.252 Y131.91 E5.45244
G1 X55.523 Y130.016 E5.61444
G1 X54.87 Y128.127 E5.77398
G1 X54.174 Y125.854 E5.96374
G1 X53.578 Y123.624 E6.148
G1 X53.056 Y121.318 E6.33673
G1 X52.637 Y119.053 E6.5206
G1 X52.313 Y116.791 E6.703
G1 X52.083 Y114.549 E6.88291
G1 X51.944 Y112.319 E7.06126
G1 X51.897 Y110.028 E7.24418
G1 X51.944 Y107.747 E7.4263
G1 X52.086 Y105.487 E7.60706
G1 X52.317 Y103.248 E7.78673
G1 X52.641 Y100.997 E7.96827
G1 X53.064 Y98.723 E8.1529
G1 X53.581 Y96.437 E8.33999
G1 X54.183 Y94.189 E8.52576
G1 X54.885 Y91.899 E8.71695
G1 X55.584 Y89.894 E8.88645
G1 X56.366 Y87.889 E9.05824
G1 X57.201 Y85.957 E9.22624
G1 X58.113 Y84.048 E9.39512
G1 X59.099 Y82.166 E9.56472
G1 X60.118 Y80.378 E9.729
G1 X61.245 Y78.563 E9.89954
G1 X62.4 Y76.845 E10.06479
G1 X63.634 Y75.145 E10.23247
G1 X64.906 Y73.519 E10.39726
G1 X66.255 Y71.917 E10.56444
G1 X67.635 Y70.391 E10.72868
G1 X69.069 Y68.916 E10.89289
G1 X70.575 Y67.47 E11.05955
G1 X72.135 Y66.081 E11.22628
G1 X73.714 Y64.771 E11.39005
G1 X75.369 Y63.494 E11.55692
G1 X77.038 Y62.298 E11.72082
G1 X78.781 Y61.14 E11.88786
G1 X80.535 Y60.066 E12.05204
G1 X82.345 Y59.042 E12.21804
G1 X84.2 Y58.079 E12.38488
G1 X86.093 Y57.181 E12.55212
G1 X87.995 Y56.361 E12.71746
G1 X89.965 Y55.592 E12.88627
G1 X91.94 Y54.905 E13.05319
G1 X93.953 Y54.285 E13.22132
G1 X96.007 Y53.732 E13.39112
G1 X98.064 Y53.258 E13.55962
G1 X100.134 Y52.862 E13.72785
G1 X102.274 Y52.531 E13.90071
G1 X104.424 Y52.281 E14.07349
G1 X106.737 Y52.102 E14.25867
G1 X109.06 Y52.025 E14.44421
G1 X111.391 Y52.042 E14.63028
G1 X113.702 Y52.154 E14.81497
G1 X116.038 Y52.359 E15.00216
G1 X118.371 Y52.659 E15.18992
G1 X120.686 Y53.049 E15.37732
G1 X122.963 Y53.525 E15.56301
G1 X125.239 Y54.096 E15.75032
G1 X127.49 Y54.752 E15.93748
G1 X129.702 Y55.498 E16.12382
G1 X131.829 Y56.306 E16.30545
G1 X133.982 Y57.228 E16.4924
G1 X136.071 Y58.227 E16.67724
G1 X138.098 Y59.304 E16.86047
G1 X140.058 Y60.458 E17.04203
G1 X141.521 Y61.396 E17.18075
G1 X142.945 Y62.365 E17.31824
G1 X144.321 Y63.361 E17.45384
G1 X145.667 Y64.392 E17.58918
G1 X147.022 Y65.493 E17.72855
G1 X148.31 Y66.602 E17.86422
G1 X149.555 Y67.736 E17.99865
G1 X150.776 Y68.913 E18.13402
G1 X151.953 Y70.116 E18.26837
G1 X153.098 Y71.351 E18.4028
G1 X154.189 Y72.598 E18.53506
G1 X155.259 Y73.897 E18.6694
G1 X156.282 Y75.21 E18.80227
G1 X157.267 Y76.556 E18.93541
G1 X158.151 Y77.83 E19.05919
G1 X159.12 Y79.325 E19.2014
G1 X159.982 Y80.744 E19.33393
G1 X160.804 Y82.188 E19.46657
G1 X161.587 Y83.662 E19.5998
G1 X162.324 Y85.146 E19.73206
G1 X163.019 Y86.658 E19.8649
G1 X163.674 Y88.202 E19.99878
G1 X164.27 Y89.719 E20.12888
G1 X164.823 Y91.255 E20.2592
G1 X165.36 Y92.903 E20.39755
G1 X165.817 Y94.441 E20.52563
G1 X166.264 Y96.141 E20.66594
G1 X166.645 Y97.782 E20.80042
G1 X166.982 Y99.442 E20.93563
G1 X167.27 Y101.115 E21.07114
G1 X167.51 Y102.801 E21.20708
G1 X167.703 Y104.508 E21.34421
G1 X167.88 Y106.79 E21.52692
G1 X167.96 Y109.107 E21.71198
G1 X167.944 Y111.438 E21.89805
G1 X167.83 Y113.78 E22.08522
G1 X167.627 Y116.11 E22.27192
G1 X167.325 Y118.449 E22.46018
G1 X166.935 Y120.765 E22.64765
G1 X166.459 Y123.043 E22.83342
G1 X165.898 Y125.288 E23.01814
G1 X165.235 Y127.562 E23.20722
G1 X164.495 Y129.767 E23.39288
G1 X163.67 Y131.936 E23.57812
G1 X162.746 Y134.095 E23.76558
G1 X161.768 Y136.141 E23.9466
G1 X160.67 Y138.204 E24.13315
G1 X159.517 Y140.165 E24.31473
G1 X158.101 Y142.346 E24.52231
G1 X156.578 Y144.486 E24.73197
G1 X154.963 Y146.564 E24.94205
G1 X153.289 Y148.536 E25.14854
G1 X151.587 Y150.377 E25.34867
G1 X149.762 Y152.184 E25.55368
G1 X147.887 Y153.888 E25.75593
G1 X145.917 Y155.523 E25.96028
G1 X143.889 Y157.059 E26.16336
G1 X141.787 Y158.506 E26.36706
G1 X139.645 Y159.848 E26.56883
G1 X137.452 Y161.088 E26.76993
G1 X135.166 Y162.25 E26.97463
G1 X132.878 Y163.291 E27.17529
G1 X130.489 Y164.251 E27.38081
G1 X128.042 Y165.111 E27.58785
G1 X126.431 Y165.615 E27.72259
G1 X124.818 Y166.073 E27.85644
G1 X123.237 Y166.48 E27.98676
G1 X121.675 Y166.836 E28.11464
G1 X120.105 Y167.148 E28.24242
G1 X118.519 Y167.417 E28.37082
G1 X116.952 Y167.638 E28.49715
G1 X115.369 Y167.818 E28.62432
G1 X112.48 Y168.022 E28.85551
G1 X109.591 Y168.074 E29.08616
M204 S2000
G1 F2400 E28.28616
G1 F300 Z0.52
G0 F7500 X108.694 Y176.781 Z0.52
M204 S500
G1 F300 Z0.32
G1 F2400 E29.08616
G1 F1500 X109.841 Y176.759 E29.17774
G1 X111.911 Y176.7 E29.34304
G1 X115.066 Y176.561 E29.59513
G1 X117.255 Y176.426 E29.7702
G1 X118.801 Y176.287 E29.8941
G1 X119.347 Y176.216 E29.93805
G1 X122.528 Y175.66 E30.19582
G1 X125.687 Y174.958 E30.45414
G1 X128.744 Y174.135 E30.70685
G1 X131.774 Y173.168 E30.96074
G1 X134.696 Y172.088 E31.20941
G1 X137.591 Y170.861 E31.4604
G1 X140.371 Y169.527 E31.70654
G1 X143.12 Y168.046 E31.95579
G1 X145.75 Y166.464 E32.20078
G1 X148.341 Y164.735 E32.44943
G1 X150.812 Y162.911 E32.69459
G1 X153.238 Y160.938 E32.94421
G1 X155.559 Y158.862 E33.19278
G1 X157.779 Y156.678 E33.44137
G1 X159.936 Y154.354 E33.69447
G1 X161.975 Y151.942 E33.94658
G1 X163.045 Y150.578 E34.08497
G1 X164.07 Y149.205 E34.22174
G1 X165.045 Y147.823 E34.35675
G1 X166.023 Y146.358 E34.49735
G1 X166.926 Y144.931 E34.63215
G1 X167.826 Y143.429 E34.77193
G1 X168.603 Y142.039 E34.89904
G1 X169.365 Y140.607 E35.02852
G1 X170.037 Y139.265 E35.14833
G1 X170.951 Y137.329 E35.31922
G1 X170.945 Y137.32 E35.32009
G1 X171.473 Y136.115 E35.42511
G1 X172.091 Y134.606 E35.55527
G1 X172.68 Y133.061 E35.68726
G1 X173.225 Y131.52 E35.81773
G1 X173.727 Y129.973 E35.94756
G1 X174.193 Y128.417 E36.07722
G1 X175.006 Y125.279 E36.33598
G1 X175.669 Y122.091 E36.5959
G1 X176.166 Y118.928 E36.85148
G1 X176.515 Y115.703 E37.11042
G1 X176.708 Y112.495 E37.36696
G1 X176.746 Y109.286 E37.62313
G1 X176.631 Y106.081 E37.87914
G1 X176.365 Y102.911 E38.13307
G1 X175.944 Y99.707 E38.39102
G1 X175.377 Y96.573 E38.64525
G1 X174.651 Y93.421 E38.90345
G1 X173.778 Y90.328 E39.15999
G1 X172.766 Y87.295 E39.41522
G1 X171.588 Y84.265 E39.67472
G1 X170.28 Y81.329 E39.93129
G1 X168.803 Y78.405 E40.19279
G1 X167.992 Y76.94 E40.32645
G1 X167.172 Y75.544 E40.45569
G1 X166.41 Y74.313 E40.57126
G1 X165.434 Y72.81 E40.71431
G1 X164.501 Y71.456 E40.84557
G1 X163.569 Y70.173 E40.97215
G1 X162.523 Y68.804 E41.10968
G1 X161.48 Y67.511 E41.24228
G1 X160.366 Y66.199 E41.37967
G1 X159.324 Y65.029 E41.50474
G1 X158.106 Y63.733 E41.64671
G1 X156.949 Y62.56 E41.77822
G1 X155.726 Y61.382 E41.91377
G1 X154.477 Y60.238 E42.04897
G1 X153.172 Y59.104 E42.18698
G1 X151.845 Y58.005 E42.32451
G1 X149.284 Y56.04 E42.58219
G1 X146.608 Y54.187 E42.84201
G1 X143.894 Y52.494 E43.09735
G1 X141.09 Y50.929 E43.35368
G1 X138.2 Y49.491 E43.61135
G1 X135.271 Y48.205 E43.8667
G1 X132.301 Y47.069 E44.12053
G1 X129.276 Y46.073 E44.37475
G1 X126.19 Y45.219 E44.63034
G1 X123.067 Y44.512 E44.88594
G1 X119.945 Y43.962 E45.13899
G1 X116.754 Y43.555 E45.39578
G1 X113.589 Y43.309 E45.64918
G1 X110.372 Y43.212 E45.90609
G1 X107.149 Y43.273 E46.16341
G1 X103.942 Y43.492 E46.42001
G1 X101.031 Y43.819 E46.65384
G1 X98.136 Y44.269 E46.8877
G1 X95.31 Y44.834 E47.11775
G1 X92.504 Y45.521 E47.34835
G1 X89.77 Y46.317 E47.57566
G1 X87.062 Y47.236 E47.80393
G1 X84.42 Y48.264 E48.03023
G1 X81.8 Y49.419 E48.25879
G1 X79.252 Y50.678 E48.48565
G1 X76.775 Y52.04 E48.7113
G1 X74.315 Y53.534 E48.94104
G1 X71.947 Y55.118 E49.16846
G1 X69.601 Y56.836 E49.40057
G1 X67.338 Y58.646 E49.63188
G1 X65.137 Y60.563 E49.86487
G1 X62.975 Y62.612 E50.10265
G1 X61.045 Y64.591 E50.32331
G1 X59.189 Y66.646 E50.54434
G1 X57.449 Y68.736 E50.76143
G1 X55.786 Y70.902 E50.97941
G1 X54.289 Y73.036 E51.18749
G1 X52.84 Y75.291 E51.40145
G1 X51.486 Y77.607 E51.6156
G1 X50.25 Y79.94 E51.82635
G1 X49.092 Y82.367 E52.04101
G1 X48.047 Y84.815 E52.25348
G1 X47.083 Y87.359 E52.47064
G1 X46.221 Y89.944 E52.68816
G1 X45.459 Y92.574 E52.90673
G1 X44.78 Y95.304 E53.13129
G1 X44.217 Y97.971 E53.34887
G1 X43.715 Y100.904 E53.5864
G1 X43.613 Y101.671 E53.64817
G1 X43.526 Y102.553 E53.71891
G1 X43.429 Y103.814 E53.81987
G1 X43.332 Y105.876 E53.98465
G1 X43.294 Y107.077 E54.08056
G1 X43.253 Y109.693 E54.28941
G1 X43.264 Y112.248 E54.49336
G1 X43.29 Y113.478 E54.59157
G1 X43.326 Y114.6 E54.68118
G1 X43.368 Y115.503 E54.75334
G1 X43.442 Y116.738 E54.8521
G1 X43.526 Y117.692 E54.92854
G1 X43.607 Y118.368 E54.98289
G1 X44.122 Y121.568 E55.24162
G1 X44.784 Y124.766 E55.50231
G1 X45.572 Y127.879 E55.75864
G1 X46.496 Y130.95 E56.01463
G1 X47.544 Y133.942 E56.2677
G1 X48.71 Y136.84 E56.51705
G1 X49.333 Y138.241 E56.63944
G1 X49.983 Y139.609 E56.76034
G1 X50.658 Y140.944 E56.87975
G1 X51.365 Y142.253 E56.99851
G1 X52.437 Y144.107 E57.16946
G1 X53.348 Y145.569 E57.30697
G1 X54.529 Y147.364 E57.47848
G1 X55.682 Y148.998 E57.63812
G1 X56.88 Y150.596 E57.79755
G1 X58.131 Y152.167 E57.95785
G1 X59.405 Y153.676 E58.1155
G1 X60.739 Y155.167 E58.2752
G1 X62.095 Y156.596 E58.43245
G1 X63.5 Y157.993 E58.59061
G1 X64.942 Y159.346 E58.74845
G1 X66.419 Y160.657 E58.90609
G1 X67.933 Y161.923 E59.06363
G1 X69.479 Y163.142 E59.22079
G1 X71.069 Y164.324 E59.37894
G1 X72.667 Y165.443 E59.53466
G1 X74.306 Y166.52 E59.69121
G1 X75.981 Y167.553 E59.8483
G1 X77.676 Y168.533 E60.00459
G1 X79.404 Y169.463 E60.16123
G1 X81.443 Y170.489 E60.34344
G1 X81.453 Y170.482 E60.34441
G1 X82.919 Y171.163 E60.47345
G1 X84.643 Y171.909 E60.62339
G1 X86.505 Y172.646 E60.78325
G1 X88.334 Y173.306 E60.93846
G1 X90.198 Y173.916 E61.09502
G1 X92.063 Y174.464 E61.25018
G1 X93.928 Y174.951 E61.40405
G1 X95.734 Y175.367 E61.55199
G1 X97.728 Y175.755 E61.71414
G1 X99.664 Y176.07 E61.87071
G1 X101.593 Y176.321 E62.02599
G1 X105.151 Y176.73 E62.31188
G1 X106.066 Y176.775 E62.38501
G1 X106.856 Y176.788 E62.44807
G1 X108.694 Y176.781 E62.59479
M204 S2000
G0 F7500 X108.705 Y177.381
M204 S500
;TYPE:WALL-OUTER
G1 F1500 X109.858 Y177.359 E62.68685
G1 X112 Y177.297 E62.8579
G1 X115.103 Y177.16 E63.10584
G1 X117.349 Y177.02 E63.28547
G1 X118.869 Y176.883 E63.4073
G1 X119.437 Y176.81 E63.45301
G1 X122.645 Y176.248 E63.71299
G1 X125.83 Y175.541 E63.97342
G1 X128.913 Y174.711 E64.22828
G1 X131.97 Y173.736 E64.48441
G1 X134.917 Y172.646 E64.73523
G1 X137.838 Y171.408 E64.98847
G1 X140.643 Y170.062 E65.23682
G1 X143.417 Y168.568 E65.48833
G1 X146.072 Y166.971 E65.73565
G1 X148.686 Y165.226 E65.98653
G1 X151.18 Y163.385 E66.23398
G1 X153.628 Y161.394 E66.48586
G1 X155.969 Y159.3 E66.73658
G1 X158.209 Y157.096 E66.98742
G1 X160.385 Y154.752 E67.24273
G1 X162.44 Y152.321 E67.49682
G1 X163.521 Y150.943 E67.63663
G1 X164.556 Y149.557 E67.77471
G1 X165.539 Y148.163 E67.91087
G1 X166.497 Y146.731 E68.0484
G1 X167.409 Y145.291 E68.18446
G1 X168.345 Y143.73 E68.32975
G1 X169.133 Y142.321 E68.45862
G1 X169.898 Y140.882 E68.58871
G1 X170.577 Y139.527 E68.70969
G1 X171.51 Y137.551 E68.88412
G1 X171.503 Y137.541 E68.88509
G1 X172.025 Y136.349 E68.98897
G1 X172.649 Y134.826 E69.12035
G1 X173.243 Y133.268 E69.25345
G1 X173.793 Y131.713 E69.38511
G1 X174.3 Y130.152 E69.51612
G1 X174.771 Y128.579 E69.6472
G1 X175.59 Y125.415 E69.90808
G1 X176.259 Y122.199 E70.17029
G1 X176.761 Y119.007 E70.42823
G1 X177.113 Y115.753 E70.68949
G1 X177.308 Y112.517 E70.94827
G1 X177.346 Y109.279 E71.20676
G1 X177.23 Y106.045 E71.46508
G1 X176.962 Y102.847 E71.72125
G1 X176.537 Y99.615 E71.98146
G1 X175.965 Y96.452 E72.23804
G1 X175.233 Y93.272 E72.49852
G1 X174.352 Y90.151 E72.75739
G1 X173.33 Y87.091 E73.01491
G1 X172.142 Y84.034 E73.27672
G1 X170.822 Y81.071 E73.53564
G1 X169.333 Y78.125 E73.79914
G1 X168.51 Y76.637 E73.93487
G1 X167.682 Y75.228 E74.06533
G1 X166.917 Y73.992 E74.18136
G1 X165.933 Y72.476 E74.32563
G1 X164.991 Y71.109 E74.45815
G1 X164.018 Y69.772 E74.59015
G1 X162.995 Y68.434 E74.72459
G1 X161.903 Y67.082 E74.86332
G1 X160.854 Y65.845 E74.99279
G1 X159.728 Y64.582 E75.12785
G1 X158.534 Y63.312 E75.267
G1 X157.371 Y62.133 E75.3992
G1 X156.137 Y60.944 E75.53598
G1 X154.877 Y59.79 E75.67237
G1 X153.56 Y58.646 E75.81162
G1 X152.219 Y57.536 E75.95058
G1 X149.638 Y55.555 E76.2103
G1 X146.938 Y53.685 E76.47247
G1 X144.199 Y51.977 E76.73013
G1 X141.37 Y50.398 E76.98875
G1 X138.454 Y48.947 E77.24874
G1 X135.499 Y47.65 E77.50635
G1 X132.502 Y46.503 E77.7625
G1 X129.45 Y45.499 E78.01897
G1 X126.336 Y44.637 E78.27689
G1 X123.185 Y43.924 E78.53477
G1 X120.035 Y43.368 E78.79011
G1 X116.815 Y42.958 E79.04922
G1 X113.621 Y42.709 E79.30495
G1 X110.375 Y42.612 E79.56418
G1 X107.123 Y42.673 E79.82381
G1 X103.888 Y42.894 E80.08264
G1 X100.951 Y43.224 E80.31856
G1 X98.031 Y43.678 E80.55445
G1 X95.18 Y44.248 E80.78653
G1 X92.349 Y44.941 E81.01919
G1 X89.59 Y45.745 E81.24858
G1 X86.857 Y46.672 E81.47895
G1 X84.19 Y47.71 E81.7074
G1 X81.546 Y48.875 E81.93803
G1 X78.974 Y50.146 E82.16704
G1 X76.475 Y51.52 E82.39469
G1 X73.992 Y53.028 E82.62658
G1 X71.603 Y54.626 E82.85601
G1 X69.236 Y56.36 E83.09023
G1 X66.954 Y58.185 E83.32348
G1 X64.733 Y60.119 E83.55856
G1 X62.553 Y62.184 E83.79826
G1 X60.607 Y64.181 E84.02084
G1 X58.736 Y66.253 E84.24368
G1 X56.98 Y68.361 E84.46269
G1 X55.302 Y70.547 E84.68267
G1 X53.791 Y72.701 E84.89269
G1 X52.328 Y74.977 E85.10867
G1 X50.962 Y77.315 E85.32482
G1 X49.714 Y79.67 E85.53757
G1 X48.545 Y82.12 E85.75426
G1 X47.491 Y84.591 E85.9687
G1 X46.517 Y87.157 E86.18779
G1 X45.648 Y89.766 E86.4073
G1 X44.879 Y92.418 E86.62772
G1 X44.195 Y95.17 E86.85408
G1 X43.627 Y97.859 E87.07346
G1 X43.121 Y100.814 E87.31277
G1 X43.017 Y101.602 E87.37622
G1 X42.928 Y102.501 E87.44833
G1 X42.83 Y103.777 E87.55049
G1 X42.732 Y105.857 E87.71671
G1 X42.694 Y107.063 E87.81302
G1 X42.653 Y109.695 E88.02315
G1 X42.664 Y112.26 E88.2279
G1 X42.69 Y113.498 E88.32674
G1 X42.729 Y114.688 E88.42179
G1 X42.769 Y115.539 E88.48979
G1 X42.849 Y116.848 E88.59448
G1 X42.914 Y117.607 E88.65528
G1 X43.013 Y118.451 E88.72312
G1 X43.532 Y121.676 E88.98386
G1 X44.199 Y124.9 E89.24667
G1 X44.994 Y128.039 E89.50515
G1 X45.925 Y131.136 E89.76329
G1 X46.982 Y134.154 E90.01855
G1 X48.158 Y137.074 E90.26983
G1 X48.788 Y138.491 E90.39362
G1 X49.472 Y139.929 E90.52073
G1 X50.126 Y141.222 E90.63639
G1 X50.841 Y142.546 E90.75651
G1 X51.923 Y144.416 E90.92896
G1 X52.843 Y145.893 E91.06787
G1 X54.033 Y147.702 E91.24071
G1 X55.196 Y149.351 E91.40178
G1 X56.405 Y150.963 E91.56263
