;FLAVOR:Marlin
;TIME:126
;Filament used: 0.217941m
;Layer height: 0.32
;MINX:81.644
;MINY:34.408
;MINZ:0.32
;MAXX:138.36
;MAXY:185.641
;MAXZ:0.52
;TARGET_MACHINE.NAME:Creality Ender-3 S1
;POSTPROCESSED
;  [SearchAndReplace]
;Generated with Cura_SteamEngine 5.6.0
M82 ;absolute extrusion mode
; Ender 3 S1 Start G-code
; M413 S0 ; Disable power loss recovery
G92 E0 ; Reset Extruder

; Prep surfaces before auto home for better accuracy
M140 S60
M104 S200

G28 ; Home all axes
G1 Z10.0 F3000 ; Move Z Axis up little to prevent scratching of Heat Bed
G1 X0 Y0

M190 S60
M109 S200

G1 X0.1 Y20 Z0.3 F5000.0 ; Move to start position
G1 X0.1 Y200.0 Z0.3 F1500.0 E15 ; Draw the first line
G1 X0.4 Y200.0 Z0.3 F5000.0 ; Move to side a little
G1 X0.4 Y20 Z0.3 F1500.0 E30 ; Draw the second line
G92 E0 ; Reset Extruder
G1 Z2.0 F3000 ; Move Z Axis up little to prevent scratching of Heat Bed
G1 X5 Y20 Z0.3 F5000.0 ; Move over to prevent blob squish

G92 E0
G92 E0
G1 F2400 E-0.8
;LAYER_COUNT:1
;LAYER:0
M107
M204 S2000
G1 F300 Z0.52
;MESH:ARSL am Test v3.stl
G0 F7500 X95.485 Y56.516 Z0.52
M204 S500
;TYPE:WALL-INNER
G1 F300 Z0.32
G1 F2400 E0
G1 F1800 X95.142 Y56.615 E0.0285
G1 X94.843 Y56.597 E0.05241
G1 X87.01 Y53.687 E0.71943
G1 X86.726 Y53.506 E0.74631
G1 X86.531 Y53.236 E0.77289
G1 X86.45 Y52.955 E0.79624
G1 X86.449 Y52.436 E0.83767
G1 X86.521 Y52.143 E0.86175
G1 X86.719 Y51.856 E0.88958
G1 X86.924 Y51.698 E0.91024
G1 X94.757 Y48.845 E1.57569
G1 X95.163 Y48.795 E1.60835
G1 X95.514 Y48.909 E1.6378
G1 X95.751 Y49.107 E1.66246
G1 X95.908 Y49.369 E1.68684
G1 X95.967 Y49.691 E1.71297
G1 X95.967 Y55.829 E2.20293
G1 X95.903 Y56.052 E2.22145
G1 X95.735 Y56.321 E2.24677
G1 X95.485 Y56.516 E2.27208
M204 S2000
G1 F2400 E1.47208
G1 F300 Z0.52
G0 F7500 X102.903 Y62.597 Z0.52
M204 S500
G1 F300 Z0.32
G1 F2400 E2.27208
G1 F1800 X102.903 Y59.695 E2.50373
G1 X98.452 Y57.984 E2.88437
G1 X98.134 Y57.769 E2.91501
G1 X97.942 Y57.46 E2.94405
G1 X97.887 Y57.148 E2.96934
G1 X97.887 Y48.32 E3.67403
G1 X97.939 Y48.015 E3.69873
G1 X98.053 Y47.799 E3.71822
G1 X98.236 Y47.607 E3.7394
G1 X98.479 Y47.473 E3.76155
G1 X102.903 Y45.866 E4.13727
G1 X102.903 Y43.085 E4.35926
G1 X82.62 Y50.985 E6.09681
G1 X82.619 Y54.474 E6.37532
G1 X102.903 Y62.597 E8.11948
M204 S2000
G0 F7500 X103.503 Y63.484
M204 S500
;TYPE:WALL-OUTER
G1 F1800 X103.503 Y59.283 E8.45482
G1 X98.675 Y57.427 E8.86771
G1 X98.569 Y57.355 E8.87794
G1 X98.492 Y57.207 E8.89126
G1 X98.487 Y48.241 E9.60696
G1 X98.618 Y48.061 E9.62473
G1 X103.503 Y46.286 E10.03962
G1 X103.503 Y42.207 E10.36522
G1 X82.02 Y50.575 E12.20559
G1 X82.019 Y54.88 E12.54923
G1 X103.503 Y63.484 E14.39659
M204 S2000
G1 F2400 E13.59659
G1 F300 Z0.52
G0 F7500 X95.206 Y55.984 Z0.52
M204 S500
G1 F300 Z0.32
G1 F2400 E14.39659
G1 F1800 X95.004 Y56.012 E14.41287
G1 X87.153 Y53.1 E15.08129
G1 X87.046 Y52.886 E15.10039
G1 X87.047 Y52.409 E15.13847
G1 X87.191 Y52.245 E15.15589
G1 X94.963 Y49.409 E15.8163
G1 X95.099 Y49.392 E15.82724
G1 X95.216 Y49.43 E15.83706
G1 X95.367 Y49.606 E15.85557
G1 X95.362 Y55.77 E16.3476
G1 X95.289 Y55.919 E16.36085
G1 X95.206 Y55.984 E16.36926
M204 S2000
G1 F2400 E15.56926
G1 F300 Z0.52
G0 F7500 X88.897 Y80.628 Z0.52
M204 S500
;TYPE:WALL-INNER
G1 F300 Z0.32
G1 F2400 E16.36926
G1 F1800 X88.195 Y80.679 E16.42545
G1 X87.527 Y80.62 E16.47898
G1 X86.958 Y80.503 E16.52535
G1 X86.399 Y80.247 E16.57443
G1 X85.8 Y79.863 E16.63122
G1 X85.353 Y79.351 E16.68548
G1 X85.009 Y78.831 E16.73525
G1 X84.787 Y78.242 E16.78549
G1 X84.636 Y77.633 E16.83558
G1 X84.586 Y76.743 E16.90673
G1 X84.559 Y75.875 E16.97605
G1 X84.552 Y75.061 E17.04103
G1 X84.555 Y70.765 E17.38396
G1 X84.612 Y70.448 E17.40967
G1 X84.764 Y70.188 E17.43371
G1 X84.967 Y70.009 E17.45531
G1 X85.195 Y69.903 E17.47539
G1 X85.455 Y69.866 E17.49635
G1 X91.06 Y69.866 E17.94376
G1 X91.403 Y69.933 E17.97166
G1 X91.676 Y70.109 E17.99759
G1 X91.854 Y70.341 E18.02093
G1 X91.96 Y70.764 E18.05574
G1 X91.965 Y75.083 E18.4005
G1 X91.958 Y75.605 E18.44217
G1 X91.937 Y76.138 E18.48475
G1 X91.894 Y76.686 E18.52863
G1 X91.832 Y77.222 E18.5717
G1 X91.658 Y78.338 E18.66186
G1 X91.449 Y78.804 E18.70263
G1 X91.166 Y79.297 E18.74801
G1 X90.893 Y79.616 E18.78152
G1 X90.359 Y80.074 E18.83768
G1 X89.857 Y80.336 E18.88288
G1 X89.36 Y80.525 E18.92533
G1 X88.897 Y80.628 E18.96319
M204 S2000
G1 F2400 E18.16319
G1 F300 Z0.52
G0 F7500 X102.903 Y84.535 Z0.52
M204 S500
G1 F300 Z0.32
G1 F2400 E18.96319
G1 F1800 X102.903 Y81.31 E19.22062
G1 X97.645 Y77.79 E19.72571
G1 X96.816 Y77.216 E19.8062
G1 X95.979 Y76.589 E19.88968
G1 X95.137 Y75.917 E19.97567
G1 X94.708 Y75.465 E20.02542
G1 X94.453 Y75.126 E20.05928
G1 X94.239 Y74.774 E20.09216
G1 X93.974 Y74.206 E20.14219
G1 X93.82 Y73.51 E20.19909
G1 X93.764 Y73.195 E20.22463
G1 X93.724 Y72.856 E20.25188
G1 X93.691 Y72.295 E20.29674
G1 X93.684 Y70.764 E20.41895
G1 X93.79 Y70.341 E20.45376
G1 X93.968 Y70.109 E20.4771
G1 X94.241 Y69.933 E20.50303
G1 X94.473 Y69.866 E20.52231
G1 X102.903 Y69.866 E21.19523
G1 X102.903 Y67.208 E21.4074
G1 X82.62 Y67.208 E23.02648
G1 X82.619 Y75.695 E23.70395
G1 X82.633 Y76.98 E23.80653
G1 X82.66 Y77.618 E23.8575
G1 X82.708 Y78.208 E23.90475
G1 X82.784 Y78.776 E23.9505
G1 X82.912 Y79.452 E24.00542
G1 X83.165 Y80.523 E24.09326
G1 X83.478 Y81.156 E24.14963
G1 X83.667 Y81.473 E24.17909
G1 X83.849 Y81.72 E24.20358
G1 X84.069 Y81.958 E24.22945
G1 X84.331 Y82.193 E24.25755
G1 X84.914 Y82.638 E24.31609
G1 X85.638 Y83.005 E24.38089
G1 X85.98 Y83.151 E24.41057
G1 X86.341 Y83.269 E24.44089
G1 X86.701 Y83.348 E24.47031
G1 X87.094 Y83.405 E24.50201
G1 X87.914 Y83.467 E24.56765
G1 X88.544 Y83.42 E24.61808
G1 X88.923 Y83.376 E24.64853
G1 X89.375 Y83.299 E24.68513
G1 X89.816 Y83.176 E24.72168
G1 X90.208 Y83.008 E24.75572
G1 X90.628 Y82.771 E24.79422
G1 X91.06 Y82.483 E24.83567
G1 X91.397 Y82.242 E24.86874
G1 X91.729 Y81.844 E24.91011
G1 X92.075 Y81.405 E24.95473
G1 X92.432 Y80.875 E25.00574
G1 X92.65 Y80.431 E25.04522
G1 X92.78 Y80.064 E25.0763
G1 X92.938 Y79.505 E25.12267
G1 X93.126 Y78.661 E25.19169
G1 X93.465 Y78.249 E25.23428
G1 X93.726 Y78.118 E25.25759
G1 X94.334 Y78.023 E25.30672
G1 X94.808 Y78.187 E25.34675
G1 X94.999 Y78.346 E25.36659
G1 X95.408 Y78.974 E25.42641
G1 X95.615 Y79.255 E25.45427
G1 X95.833 Y79.523 E25.48185
G1 X96.043 Y79.761 E25.50719
G1 X96.531 Y80.27 E25.56348
G1 X97.423 Y80.992 E25.65508
G1 X98.189 Y81.55 E25.73073
G1 X99.062 Y82.13 E25.81439
G1 X102.903 Y84.535 E26.17614
M204 S2000
G0 F7500 X103.503 Y85.618
M204 S500
;TYPE:WALL-OUTER
G1 F1800 X103.503 Y80.99 E26.54557
G1 X97.987 Y77.296 E27.0755
G1 X97.149 Y76.716 E27.15685
G1 X96.353 Y76.12 E27.23623
G1 X95.561 Y75.488 E27.31711
G1 X95.14 Y75.046 E27.36583
G1 X94.96 Y74.805 E27.38985
G1 X94.801 Y74.554 E27.41356
G1 X94.546 Y74.012 E27.46138
G1 X94.41 Y73.404 E27.51111
G1 X94.36 Y73.121 E27.53405
G1 X94.323 Y72.82 E27.55826
G1 X94.29 Y72.243 E27.60439
G1 X94.284 Y70.765 E27.72237
G1 X94.378 Y70.547 E27.74132
G1 X94.532 Y70.47 E27.75507
G1 X103.503 Y70.466 E28.47117
G1 X103.503 Y66.608 E28.77913
G1 X82.02 Y66.608 E30.494
G1 X82.019 Y75.701 E31.21984
G1 X82.033 Y77.005 E31.32394
G1 X82.062 Y77.666 E31.37675
G1 X82.109 Y78.246 E31.4232
G1 X82.191 Y78.871 E31.47352
G1 X82.313 Y79.518 E31.52608
G1 X82.597 Y80.727 E31.62521
G1 X82.95 Y81.443 E31.68894
G1 X83.167 Y81.806 E31.72269
G1 X83.386 Y82.103 E31.75215
G1 X83.647 Y82.386 E31.78288
G1 X83.947 Y82.655 E31.81505
G1 X84.594 Y83.149 E31.88003
G1 X85.385 Y83.549 E31.95078
G1 X85.768 Y83.713 E31.98404
G1 X86.182 Y83.849 E32.01882
G1 X86.594 Y83.939 E32.05249
G1 X87.029 Y84.001 E32.08756
G1 X87.913 Y84.069 E32.15833
G1 X88.571 Y84.021 E32.211
G1 X89.008 Y83.97 E32.24612
G1 X89.498 Y83.887 E32.28579
G1 X89.762 Y83.821 E32.30751
G1 X90.124 Y83.708 E32.33778
G1 X90.482 Y83.542 E32.36928
G1 X90.942 Y83.283 E32.41142
G1 X91.359 Y83.006 E32.45138
G1 X91.808 Y82.686 E32.4954
G1 X92.201 Y82.216 E32.5443
G1 X92.561 Y81.759 E32.59074
G1 X92.888 Y81.271 E32.63763
G1 X93.013 Y81.052 E32.65776
G1 X93.151 Y80.771 E32.68275
G1 X93.254 Y80.522 E32.70426
G1 X93.352 Y80.248 E32.72749
G1 X93.512 Y79.687 E32.77405
G1 X93.699 Y78.872 E32.8408
G1 X93.828 Y78.715 E32.85702
G1 X94.315 Y78.629 E32.8965
G1 X94.525 Y78.728 E32.91503
G1 X94.943 Y79.356 E32.97525
G1 X95.14 Y79.622 E33.00167
G1 X95.358 Y79.891 E33.02931
G1 X95.601 Y80.167 E33.05866
G1 X96.123 Y80.713 E33.11896
G1 X97.057 Y81.468 E33.21483
G1 X97.82 Y82.025 E33.29024
G1 X98.72 Y82.624 E33.37654
G1 X103.503 Y85.618 E33.82697
M204 S2000
G1 F2400 E33.02697
G1 F300 Z0.52
G0 F7500 X88.784 Y80.037 Z0.52
M204 S500
G1 F300 Z0.32
G1 F2400 E33.82697
G1 F1800 X88.176 Y80.075 E33.8756
G1 X87.646 Y80.032 E33.91804
G1 X87.123 Y79.919 E33.96075
G1 X86.656 Y79.704 E34.00179
G1 X86.216 Y79.42 E34.0436
G1 X85.834 Y78.992 E34.08939
G1 X85.547 Y78.558 E34.13092
G1 X85.36 Y78.062 E34.17324
G1 X85.23 Y77.521 E34.21765
G1 X85.186 Y76.703 E34.28304
G1 X85.159 Y75.87 E34.34957
G1 X85.152 Y75.061 E34.41415
G1 X85.155 Y70.765 E34.75708
G1 X85.224 Y70.573 E34.77336
G1 X85.394 Y70.466 E34.7894
G1 X91.151 Y70.466 E35.24895
G1 X91.325 Y70.624 E35.26771
G1 X91.36 Y70.765 E35.2793
G1 X91.365 Y75.075 E35.62335
G1 X91.339 Y76.092 E35.70455
G1 X91.298 Y76.618 E35.74667
G1 X91.239 Y77.13 E35.78781
G1 X91.078 Y78.161 E35.87111
G1 X90.88 Y78.6 E35.90955
G1 X90.659 Y78.966 E35.94368
G1 X90.462 Y79.198 E35.96797
G1 X89.995 Y79.588 E36.01654
G1 X89.588 Y79.798 E36.0531
G1 X89.16 Y79.959 E36.0896
G1 X88.784 Y80.037 E36.12025
M204 S2000
G1 F2400 E35.32025
G1 F300 Z0.52
G0 F7500 X98.197 Y104.419 Z0.52
M204 S500
;TYPE:WALL-INNER
G1 F300 Z0.32
G1 F2400 E36.12025
G1 F1500 X98.599 Y104.355 E36.15275
G1 X98.958 Y104.268 E36.18223
G1 X99.345 Y104.13 E36.21503
G1 X99.681 Y103.982 E36.24434
G1 X100.43 Y103.587 E36.31193
G1 X101.211 Y102.971 E36.39133
G1 X101.641 Y102.545 E36.43965
G1 X101.932 Y102.148 E36.47894
G1 X102.154 Y101.786 E36.51284
G1 X102.546 Y101.032 E36.58067
G1 X102.893 Y99.928 E36.67305
G1 X103.035 Y99.382 E36.71808
G1 X103.135 Y98.866 E36.76004
G1 X103.21 Y98.29 E36.80641
G1 X103.252 Y97.726 E36.85155
G1 X103.294 Y96.564 E36.94437
G1 X103.233 Y95.287 E37.04642
G1 X103.201 Y94.887 E37.07845
G1 X103.157 Y94.493 E37.1101
G1 X103.096 Y94.098 E37.142
G1 X103.021 Y93.719 E37.17284
G1 X102.934 Y93.386 E37.20032
G1 X102.833 Y93.072 E37.22665
G1 X102.688 Y92.701 E37.25844
G1 X102.538 Y92.373 E37.28723
G1 X102.364 Y92.037 E37.31744
G1 X102.159 Y91.675 E37.35065
G1 X101.559 Y90.708 E37.44149
G1 X101.042 Y90.249 E37.49667
G1 X100.489 Y89.793 E37.55389
G1 X100.186 Y89.569 E37.58397
G1 X99.901 Y89.378 E37.61135
G1 X99.623 Y89.212 E37.6372
G1 X99.325 Y89.063 E37.6638
G1 X99.007 Y88.928 E37.69137
G1 X98.705 Y88.821 E37.71695
G1 X98.33 Y88.71 E37.74817
G1 X98.002 Y88.627 E37.77517
G1 X97.421 Y88.505 E37.82256
G1 X97.169 Y91.069 E38.02822
G1 X97.864 Y91.292 E38.08648
G1 X98.353 Y91.493 E38.12869
G1 X98.853 Y91.779 E38.17467
G1 X99.276 Y92.082 E38.2162
G1 X99.643 Y92.382 E38.25404
G1 X100.096 Y92.78 E38.30217
G1 X100.419 Y93.28 E38.34969
G1 X100.67 Y93.702 E38.38888
G1 X100.89 Y94.14 E38.42801
G1 X101.067 Y94.615 E38.46847
G1 X101.199 Y95.157 E38.513
G1 X101.272 Y95.682 E38.55531
G1 X101.329 Y96.551 E38.62483
G1 X101.314 Y97.094 E38.66819
G1 X101.283 Y97.575 E38.70666
G1 X101.229 Y98.034 E38.74356
G1 X101.135 Y98.496 E38.78119
G1 X100.976 Y98.993 E38.82284
G1 X100.75 Y99.505 E38.86752
G1 X100.509 Y99.941 E38.90729
G1 X100.228 Y100.404 E38.95052
G1 X99.909 Y100.736 E38.98727
G1 X99.692 Y100.941 E39.0111
G1 X99.392 Y101.189 E39.04217
G1 X98.997 Y101.439 E39.07949
G1 X98.633 Y101.596 E39.11113
G1 X98.218 Y101.715 E39.14559
G1 X97.821 Y101.788 E39.17781
G1 X97.416 Y101.844 E39.21045
G1 X96.883 Y101.799 E39.25315
G1 X96.385 Y101.686 E39.29391
G1 X95.916 Y101.466 E39.33526
G1 X95.436 Y101.144 E39.3814
G1 X95.037 Y100.684 E39.43001
G1 X94.689 Y100.189 E39.47831
G1 X94.43 Y99.649 E39.52612
G1 X94.23 Y99.128 E39.57066
G1 X93.869 Y97.907 E39.6723
G1 X93.71 Y97.314 E39.72131
G1 X93.085 Y94.85 E39.92422
G1 X92.901 Y94.185 E39.9793
G1 X92.72 Y93.612 E40.02727
G1 X92.489 Y93.002 E40.07933
G1 X92.368 Y92.726 E40.10339
G1 X92.236 Y92.456 E40.12738
G1 X91.93 Y91.909 E40.17741
G1 X91.561 Y91.323 E40.23269
G1 X91.258 Y90.864 E40.27659
G1 X90.87 Y90.506 E40.31873
G1 X90.434 Y90.134 E40.36448
G1 X90.207 Y89.96 E40.38732
G1 X89.891 Y89.742 E40.41796
G1 X89.565 Y89.574 E40.44724
G1 X89.136 Y89.417 E40.4837
G1 X88.718 Y89.31 E40.51814
G1 X88.014 Y89.202 E40.575
G1 X87.491 Y89.145 E40.61699
G1 X86.94 Y89.186 E40.6611
G1 X86.443 Y89.267 E40.70129
G1 X86.108 Y89.351 E40.72886
G1 X85.802 Y89.461 E40.75482
G1 X85.504 Y89.596 E40.78093
G1 X84.843 Y89.953 E40.8409
G1 X84.23 Y90.452 E40.904
G1 X83.971 Y90.696 E40.9324
G1 X83.72 Y90.975 E40.96236
G1 X83.518 Y91.255 E40.98992
G1 X83.306 Y91.604 E41.02251
G1 X82.946 Y92.3 E41.08506
G1 X82.627 Y93.281 E41.16741
G1 X82.5 Y93.742 E41.20558
G1 X82.398 Y94.238 E41.246
G1 X82.336 Y94.674 E41.28115
G1 X82.291 Y95.182 E41.32186
G1 X82.245 Y96.299 E41.4111
G1 X82.292 Y97.507 E41.5076
G1 X82.335 Y98.109 E41.55578
G1 X82.414 Y98.666 E41.60069
G1 X82.483 Y99.028 E41.6301
G1 X82.559 Y99.35 E41.65651
G1 X82.667 Y99.695 E41.68537
G1 X82.807 Y100.063 E41.7168
G1 X82.952 Y100.385 E41.74499
G1 X83.101 Y100.684 E41.77165
G1 X83.483 Y101.357 E41.83343
G1 X83.867 Y101.977 E41.89164
G1 X84.269 Y102.346 E41.9352
G1 X84.797 Y102.785 E41.99001
G1 X85.012 Y102.949 E42.0116
G1 X85.245 Y103.107 E42.03407
G1 X85.485 Y103.247 E42.05625
G1 X85.73 Y103.369 E42.0781
G1 X85.967 Y103.464 E42.09848
G1 X86.262 Y103.558 E42.12319
G1 X86.51 Y103.623 E42.14366
G1 X86.835 Y103.691 E42.17016
G1 X87.174 Y103.743 E42.19754
G1 X87.293 Y101.02 E42.41511
G1 X86.859 Y100.883 E42.45144
G1 X86.494 Y100.73 E42.48303
G1 X86.131 Y100.526 E42.51627
G1 X85.72 Y100.23 E42.5567
G1 X85.341 Y99.906 E42.5965
G1 X85.05 Y99.619 E42.62913
G1 X84.798 Y99.169 E42.6703
G1 X84.599 Y98.776 E42.70546
G1 X84.438 Y98.398 E42.73826
G1 X84.311 Y97.994 E42.77206
G1 X84.209 Y97.473 E42.81444
G1 X84.166 Y97.051 E42.8483
G1 X84.134 Y96.201 E42.9162
G1 X84.175 Y95.379 E42.98189
G1 X84.234 Y94.881 E43.02193
G1 X84.312 Y94.483 E43.0543
G1 X84.481 Y93.94 E43.0997
G1 X84.656 Y93.523 E43.13579
G1 X84.853 Y93.129 E43.17096
G1 X85.111 Y92.663 E43.21348
G1 X85.499 Y92.256 E43.25836
G1 X85.96 Y91.906 E43.30457
G1 X86.441 Y91.703 E43.34624
G1 X87.221 Y91.593 E43.40912
G1 X87.805 Y91.683 E43.45629
G1 X88.336 Y91.857 E43.50089
G1 X88.739 Y92.101 E43.5385
G1 X89.271 Y92.622 E43.59794
G1 X89.603 Y93.237 E43.65373
G1 X89.86 Y93.741 E43.69889
G1 X90.12 Y94.32 E43.74955
G1 X90.312 Y94.83 E43.79305
G1 X90.495 Y95.417 E43.84213
G1 X90.651 Y95.996 E43.89
G1 X90.898 Y97.057 E43.97696
G1 X91.202 Y98.292 E44.07848
G1 X91.359 Y98.873 E44.12652
G1 X91.534 Y99.447 E44.17442
G1 X91.732 Y100.02 E44.22282
G1 X91.95 Y100.579 E44.27071
G1 X92.409 Y101.656 E44.36416
G1 X92.813 Y102.302 E44.42498
G1 X93.001 Y102.566 E44.45086
G1 X93.222 Y102.832 E44.47846
G1 X93.474 Y103.082 E44.5068
G1 X93.736 Y103.304 E44.53421
G1 X94.323 Y103.744 E44.59277
G1 X95.034 Y104.077 E44.65544
G1 X95.397 Y104.219 E44.68655
G1 X95.776 Y104.331 E44.7181
G1 X96.131 Y104.4 E44.74697
G1 X96.511 Y104.445 E44.77751
G1 X97.361 Y104.494 E44.84548
G1 X98.197 Y104.419 E44.91248
M204 S2000
G0 F7500 X98.271 Y105.015
M204 S500
;TYPE:WALL-OUTER
G1 F1500 X98.717 Y104.944 E44.94853
G1 X99.13 Y104.844 E44.98245
G1 X99.567 Y104.688 E45.01949
G1 X99.943 Y104.522 E45.0523
G1 X100.758 Y104.093 E45.12582
G1 X101.609 Y103.421 E45.21237
G1 X102.097 Y102.938 E45.26718
G1 X102.43 Y102.484 E45.31212
G1 X102.675 Y102.085 E45.3495
G1 X102.903 Y101.659 E45.38807
G1 X103.104 Y101.258 E45.42387
G1 X103.47 Y100.094 E45.52127
G1 X103.621 Y99.515 E45.56904
G1 X103.728 Y98.962 E45.614
G1 X103.808 Y98.351 E45.66319
G1 X103.851 Y97.778 E45.70906
G1 X103.894 Y96.56 E45.80634
G1 X103.831 Y95.24 E45.91183
G1 X103.8 Y94.845 E45.94346
G1 X103.751 Y94.404 E45.97888
G1 X103.692 Y94.018 E46.01005
G1 X103.613 Y93.615 E46.04283
G1 X103.521 Y93.252 E46.07272
G1 X103.399 Y92.87 E46.10473
G1 X103.24 Y92.467 E46.13931
G1 X103.078 Y92.111 E46.17054
G1 X102.892 Y91.751 E46.20288
